P3
400 225
255
63 63 63
63 63 63
63 63 63
63 63 63
63 63 63
63 63 63
63 63 63
63 63 63
63 63 63
63 63 63
63 63 63
63 63 63
63 63 63
63 63 63
63 63 63
63 63 63
63 63 63
63 63 63
63 63 63
63 63 63
63 63 63
63 63 63
63 63 63
63 63 63
63 63 63
63 63 63
63 63 63
63 63 63
63 63 63
63 63 63
63 63 63
63 63 63
63 63 63
63 63 63
63 63 63
63 63 63
63 63 63
63 63 63
63 63 63
63 63 63
63 63 63
63 63 63
63 63 63
63 63 63
63 63 63
63 63 63
63 63 63
63 63 63
63 63 63
63 63 63
63 63 63
63 63 63
63 63 63
63 63 63
63 63 63
63 63 63
63 63 63
63 63 63
63 63 63
63 63 63
63 63 63
63 63 63
63 63 63
63 63 63
63 63 63
63 63 63
63 63 63
63 63 63
63 63 63
63 63 63
63 63 63
63 63 63
63 63 63
63 63 63
63 63 63
63 63 63
63 63 63
63 63 63
63 63 63
63 63 63
63 63 63
63 63 63
63 63 63
63 63 63
63 63 63
63 63 63
63 63 63
63 63 63
63 63 63
63 63 63
63 63 63
63 63 63
63 63 63
63 63 63
63 63 63
63 63 63
63 63 63
63 63 63
63 63 63
63 63 63
63 63 63
63 63 63
63 63 63
63 63 63
63 63 63
63 63 63
63 63 63
63 63 63
63 63 63
63 63 63
63 63 63
63 63 63
63 63 63
63 63 63
63 63 63
63 63 63
63 63 63
63 63 63
63 63 63
63 63 63
63 63 63
63 63 63
63 63 63
63 63 63
63 63 63
63 63 63
63 63 63
63 63 63
63 63 63
63 63 63
63 63 63
63 63 63
63 63 63
63 63 63
63 63 63
63 63 63
63 63 63
63 63 63
63 63 63
63 63 63
63 63 63
63 63 63
63 63 63
63 63 63
63 63 63
63 63 63
63 63 63
63 63 63
63 63 63
63 63 63
63 63 63
63 63 63
63 63 63
63 63 63
63 63 63
63 63 63
63 63 63
63 63 63
63 63 63
63 63 63
63 63 63
63 63 63
63 63 63
63 63 63
63 63 63
63 63 63
63 63 63
63 63 63
63 63 63
63 63 63
63 63 63
63 63 63
63 63 63
63 63 63
63 63 63
63 63 63
63 63 63
63 63 63
63 63 63
63 63 63
63 63 63
63 63 63
63 63 63
63 63 63
63 63 63
63 63 63
63 63 63
63 63 63
63 63 63
63 63 63
63 63 63
63 63 63
63 63 63
63 63 63
63 63 63
63 63 63
63 63 63
63 63 63
63 63 63
63 63 63
63 63 63
63 63 63
63 63 63
63 63 63
63 63 63
63 63 63
63 63 63
63 63 63
63 63 63
63 63 63
63 63 63
63 63 63
63 63 63
63 63 63
63 63 63
63 63 63
63 63 63
63 63 63
63 63 63
63 63 63
63 63 63
63 63 63
63 63 63
63 63 63
63 63 63
63 63 63
63 63 63
63 63 63
63 63 63
63 63 63
63 63 63
63 63 63
63 63 63
63 63 63
63 63 63
63 63 63
63 63 63
63 63 63
63 63 63
63 63 63
63 63 63
63 63 63
63 63 63
63 63 63
63 63 63
63 63 63
63 63 63
63 63 63
63 63 63
63 63 63
63 63 63
63 63 63
63 63 63
63 63 63
63 63 63
63 63 63
63 63 63
63 63 63
63 63 63
63 63 63
63 63 63
63 63 63
63 63 63
63 63 63
63 63 63
63 63 63
63 63 63
63 63 63
63 63 63
63 63 63
63 63 63
63 63 63
63 63 63
63 63 63
63 63 63
63 63 63
63 63 63
63 63 63
63 63 63
63 63 63
63 63 63
63 63 63
63 63 63
63 63 63
63 63 63
63 63 63
63 63 63
63 63 63
63 63 63
63 63 63
63 63 63
63 63 63
63 63 63
63 63 63
63 63 63
63 63 63
63 63 63
63 63 63
63 63 63
63 63 63
63 63 63
63 63 63
63 63 63
63 63 63
63 63 63
63 63 63
63 63 63
63 63 63
63 63 63
63 63 63
63 63 63
63 63 63
63 63 63
63 63 63
63 63 63
63 63 63
63 63 63
63 63 63
63 63 63
63 63 63
63 63 63
63 63 63
63 63 63
63 63 63
63 63 63
63 63 63
63 63 63
63 63 63
63 63 63
63 63 63
63 63 63
63 63 63
63 63 63
63 63 63
63 63 63
63 63 63
63 63 63
63 63 63
63 63 63
63 63 63
63 63 63
63 63 63
63 63 63
63 63 63
63 63 63
63 63 63
63 63 63
63 63 63
63 63 63
63 63 63
63 63 63
63 63 63
63 63 63
63 63 63
63 63 63
63 63 63
63 63 63
63 63 63
63 63 63
63 63 63
63 63 63
63 63 63
63 63 63
63 63 63
63 63 63
63 63 63
63 63 63
63 63 63
63 63 63
63 63 63
63 63 63
63 63 63
63 63 63
63 63 63
63 63 63
63 63 63
63 63 63
63 63 63
63 63 63
63 63 63
63 63 63
63 63 63
63 63 63
63 63 63
63 63 63
63 63 63
63 63 63
63 63 63
63 63 63
63 63 63
63 63 63
63 63 63
63 63 63
63 63 63
63 63 63
63 63 63
63 63 63
63 63 63
63 63 63
63 63 63
63 63 63
63 63 63
63 63 63
63 63 63
63 63 63
63 63 63
63 63 63
63 63 63
63 63 63
63 63 63
63 63 63
63 63 63
63 63 63
63 63 63
63 63 63
63 63 63
63 63 63
63 63 63
63 63 63
63 63 63
63 63 63
63 63 63
63 63 63
63 63 63
63 63 63
63 63 63
63 63 63
63 63 63
63 63 63
63 63 63
63 63 63
63 63 63
63 63 63
63 63 63
63 63 63
63 63 63
63 63 63
63 63 63
63 63 63
63 63 63
63 63 63
63 63 63
63 63 63
63 63 63
63 63 63
63 63 63
63 63 63
63 63 63
63 63 63
63 63 63
63 63 63
63 63 63
63 63 63
63 63 63
63 63 63
63 63 63
63 63 63
63 63 63
63 63 63
63 63 63
63 63 63
63 63 63
63 63 63
63 63 63
63 63 63
63 63 63
63 63 63
63 63 63
63 63 63
63 63 63
63 63 63
63 63 63
63 63 63
63 63 63
63 63 63
63 63 63
63 63 63
63 63 63
63 63 63
63 63 63
63 63 63
63 63 63
63 63 63
63 63 63
63 63 63
63 63 63
63 63 63
63 63 63
63 63 63
63 63 63
63 63 63
63 63 63
63 63 63
63 63 63
63 63 63
63 63 63
63 63 63
63 63 63
63 63 63
63 63 63
63 63 63
63 63 63
63 63 63
63 63 63
63 63 63
63 63 63
63 63 63
63 63 63
63 63 63
63 63 63
63 63 63
63 63 63
63 63 63
63 63 63
63 63 63
63 63 63
63 63 63
63 63 63
63 63 63
63 63 63
63 63 63
63 63 63
63 63 63
63 63 63
63 63 63
63 63 63
63 63 63
63 63 63
63 63 63
63 63 63
63 63 63
63 63 63
63 63 63
63 63 63
63 63 63
63 63 63
63 63 63
63 63 63
63 63 63
63 63 63
63 63 63
63 63 63
63 63 63
63 63 63
63 63 63
63 63 63
63 63 63
63 63 63
63 63 63
63 63 63
63 63 63
63 63 63
63 63 63
63 63 63
63 63 63
63 63 63
63 63 63
63 63 63
63 63 63
63 63 63
63 63 63
63 63 63
63 63 63
63 63 63
63 63 63
63 63 63
63 63 63
63 63 63
63 63 63
63 63 63
63 63 63
63 63 63
63 63 63
63 63 63
63 63 63
63 63 63
63 63 63
63 63 63
63 63 63
63 63 63
63 63 63
63 63 63
63 63 63
63 63 63
63 63 63
63 63 63
63 63 63
63 63 63
63 63 63
63 63 63
63 63 63
63 63 63
63 63 63
63 63 63
63 63 63
63 63 63
63 63 63
63 63 63
63 63 63
63 63 63
63 63 63
63 63 63
63 63 63
63 63 63
63 63 63
63 63 63
63 63 63
63 63 63
63 63 63
63 63 63
63 63 63
63 63 63
63 63 63
63 63 63
63 63 63
63 63 63
63 63 63
63 63 63
63 63 63
63 63 63
63 63 63
63 63 63
63 63 63
63 63 63
63 63 63
63 63 63
63 63 63
63 63 63
63 63 63
63 63 63
63 63 63
63 63 63
63 63 63
63 63 63
63 63 63
63 63 63
63 63 63
63 63 63
63 63 63
63 63 63
63 63 63
63 63 63
63 63 63
63 63 63
63 63 63
63 63 63
63 63 63
63 63 63
63 63 63
63 63 63
63 63 63
63 63 63
63 63 63
63 63 63
63 63 63
63 63 63
63 63 63
63 63 63
63 63 63
63 63 63
63 63 63
63 63 63
63 63 63
63 63 63
63 63 63
63 63 63
63 63 63
63 63 63
63 63 63
63 63 63
63 63 63
63 63 63
63 63 63
63 63 63
63 63 63
63 63 63
63 63 63
63 63 63
63 63 63
63 63 63
63 63 63
63 63 63
63 63 63
63 63 63
63 63 63
63 63 63
63 63 63
63 63 63
63 63 63
63 63 63
63 63 63
63 63 63
63 63 63
63 63 63
63 63 63
63 63 63
63 63 63
63 63 63
63 63 63
63 63 63
63 63 63
63 63 63
63 63 63
63 63 63
63 63 63
63 63 63
63 63 63
63 63 63
63 63 63
63 63 63
63 63 63
63 63 63
63 63 63
63 63 63
63 63 63
63 63 63
63 63 63
63 63 63
63 63 63
63 63 63
63 63 63
63 63 63
63 63 63
63 63 63
63 63 63
63 63 63
63 63 63
63 63 63
63 63 63
63 63 63
63 63 63
63 63 63
63 63 63
63 63 63
63 63 63
63 63 63
63 63 63
63 63 63
63 63 63
63 63 63
63 63 63
63 63 63
63 63 63
63 63 63
63 63 63
63 63 63
63 63 63
63 63 63
63 63 63
63 63 63
63 63 63
63 63 63
63 63 63
63 63 63
63 63 63
63 63 63
63 63 63
63 63 63
63 63 63
63 63 63
63 63 63
63 63 63
63 63 63
63 63 63
63 63 63
63 63 63
63 63 63
63 63 63
63 63 63
63 63 63
63 63 63
63 63 63
63 63 63
63 63 63
63 63 63
63 63 63
63 63 63
63 63 63
63 63 63
63 63 63
63 63 63
63 63 63
63 63 63
63 63 63
63 63 63
63 63 63
63 63 63
63 63 63
63 63 63
63 63 63
63 63 63
63 63 63
63 63 63
63 63 63
63 63 63
63 63 63
63 63 63
63 63 63
63 63 63
63 63 63
63 63 63
63 63 63
63 63 63
63 63 63
63 63 63
63 63 63
63 63 63
63 63 63
63 63 63
63 63 63
63 63 63
63 63 63
63 63 63
63 63 63
63 63 63
63 63 63
63 63 63
63 63 63
63 63 63
63 63 63
63 63 63
63 63 63
63 63 63
63 63 63
63 63 63
63 63 63
63 63 63
63 63 63
63 63 63
63 63 63
63 63 63
63 63 63
63 63 63
63 63 63
63 63 63
63 63 63
63 63 63
63 63 63
63 63 63
63 63 63
63 63 63
63 63 63
63 63 63
63 63 63
63 63 63
63 63 63
63 63 63
63 63 63
63 63 63
63 63 63
63 63 63
63 63 63
63 63 63
63 63 63
63 63 63
63 63 63
63 63 63
63 63 63
63 63 63
63 63 63
63 63 63
63 63 63
63 63 63
63 63 63
63 63 63
63 63 63
63 63 63
63 63 63
63 63 63
63 63 63
63 63 63
63 63 63
63 63 63
63 63 63
63 63 63
63 63 63
63 63 63
63 63 63
63 63 63
63 63 63
63 63 63
63 63 63
63 63 63
63 63 63
63 63 63
63 63 63
63 63 63
63 63 63
63 63 63
63 63 63
63 63 63
63 63 63
63 63 63
63 63 63
63 63 63
63 63 63
63 63 63
63 63 63
63 63 63
63 63 63
63 63 63
63 63 63
63 63 63
63 63 63
63 63 63
63 63 63
63 63 63
63 63 63
63 63 63
63 63 63
63 63 63
63 63 63
63 63 63
63 63 63
63 63 63
63 63 63
63 63 63
63 63 63
63 63 63
63 63 63
63 63 63
63 63 63
63 63 63
63 63 63
63 63 63
63 63 63
63 63 63
63 63 63
63 63 63
63 63 63
63 63 63
63 63 63
63 63 63
63 63 63
63 63 63
63 63 63
63 63 63
63 63 63
63 63 63
63 63 63
63 63 63
63 63 63
63 63 63
63 63 63
63 63 63
63 63 63
63 63 63
63 63 63
63 63 63
63 63 63
63 63 63
63 63 63
63 63 63
63 63 63
63 63 63
63 63 63
63 63 63
63 63 63
63 63 63
63 63 63
63 63 63
63 63 63
63 63 63
63 63 63
63 63 63
63 63 63
63 63 63
63 63 63
63 63 63
63 63 63
63 63 63
63 63 63
63 63 63
63 63 63
63 63 63
63 63 63
63 63 63
63 63 63
63 63 63
63 63 63
63 63 63
63 63 63
63 63 63
63 63 63
63 63 63
63 63 63
63 63 63
63 63 63
63 63 63
63 63 63
63 63 63
63 63 63
63 63 63
63 63 63
63 63 63
63 63 63
63 63 63
63 63 63
63 63 63
63 63 63
63 63 63
63 63 63
63 63 63
63 63 63
63 63 63
63 63 63
63 63 63
63 63 63
63 63 63
63 63 63
63 63 63
63 63 63
63 63 63
63 63 63
63 63 63
63 63 63
63 63 63
63 63 63
63 63 63
63 63 63
63 63 63
63 63 63
63 63 63
63 63 63
63 63 63
63 63 63
63 63 63
63 63 63
63 63 63
63 63 63
63 63 63
63 63 63
63 63 63
63 63 63
63 63 63
63 63 63
63 63 63
63 63 63
63 63 63
63 63 63
63 63 63
63 63 63
63 63 63
63 63 63
63 63 63
63 63 63
63 63 63
63 63 63
63 63 63
63 63 63
63 63 63
63 63 63
63 63 63
63 63 63
63 63 63
63 63 63
63 63 63
63 63 63
63 63 63
63 63 63
63 63 63
63 63 63
63 63 63
63 63 63
63 63 63
63 63 63
63 63 63
63 63 63
63 63 63
63 63 63
63 63 63
63 63 63
63 63 63
63 63 63
63 63 63
63 63 63
63 63 63
63 63 63
63 63 63
63 63 63
63 63 63
63 63 63
63 63 63
63 63 63
63 63 63
63 63 63
63 63 63
63 63 63
63 63 63
63 63 63
63 63 63
63 63 63
63 63 63
63 63 63
63 63 63
63 63 63
63 63 63
63 63 63
63 63 63
63 63 63
63 63 63
63 63 63
63 63 63
63 63 63
63 63 63
63 63 63
63 63 63
63 63 63
63 63 63
63 63 63
63 63 63
63 63 63
63 63 63
63 63 63
63 63 63
63 63 63
63 63 63
63 63 63
63 63 63
63 63 63
63 63 63
63 63 63
63 63 63
63 63 63
63 63 63
63 63 63
63 63 63
63 63 63
63 63 63
63 63 63
63 63 63
63 63 63
63 63 63
63 63 63
63 63 63
63 63 63
63 63 63
63 63 63
63 63 63
63 63 63
63 63 63
63 63 63
63 63 63
63 63 63
63 63 63
63 63 63
63 63 63
63 63 63
63 63 63
63 63 63
63 63 63
63 63 63
63 63 63
63 63 63
63 63 63
63 63 63
63 63 63
63 63 63
63 63 63
63 63 63
63 63 63
63 63 63
63 63 63
63 63 63
63 63 63
63 63 63
63 63 63
63 63 63
63 63 63
63 63 63
63 63 63
63 63 63
63 63 63
63 63 63
63 63 63
63 63 63
63 63 63
63 63 63
63 63 63
63 63 63
63 63 63
63 63 63
63 63 63
63 63 63
63 63 63
63 63 63
63 63 63
63 63 63
63 63 63
63 63 63
63 63 63
63 63 63
63 63 63
63 63 63
63 63 63
63 63 63
63 63 63
63 63 63
63 63 63
63 63 63
63 63 63
63 63 63
63 63 63
63 63 63
63 63 63
63 63 63
63 63 63
63 63 63
63 63 63
63 63 63
63 63 63
63 63 63
63 63 63
63 63 63
63 63 63
63 63 63
63 63 63
63 63 63
63 63 63
63 63 63
63 63 63
63 63 63
63 63 63
63 63 63
63 63 63
63 63 63
63 63 63
63 63 63
63 63 63
63 63 63
63 63 63
63 63 63
63 63 63
63 63 63
63 63 63
63 63 63
63 63 63
63 63 63
63 63 63
63 63 63
63 63 63
63 63 63
63 63 63
63 63 63
63 63 63
63 63 63
63 63 63
63 63 63
63 63 63
63 63 63
63 63 63
63 63 63
63 63 63
63 63 63
63 63 63
63 63 63
63 63 63
63 63 63
63 63 63
63 63 63
63 63 63
63 63 63
63 63 63
63 63 63
63 63 63
63 63 63
63 63 63
63 63 63
63 63 63
63 63 63
63 63 63
63 63 63
63 63 63
63 63 63
63 63 63
63 63 63
63 63 63
63 63 63
63 63 63
63 63 63
63 63 63
63 63 63
63 63 63
63 63 63
63 63 63
63 63 63
63 63 63
63 63 63
63 63 63
63 63 63
63 63 63
63 63 63
63 63 63
63 63 63
63 63 63
63 63 63
63 63 63
63 63 63
63 63 63
63 63 63
63 63 63
63 63 63
63 63 63
63 63 63
63 63 63
63 63 63
63 63 63
63 63 63
63 63 63
63 63 63
63 63 63
63 63 63
63 63 63
63 63 63
63 63 63
63 63 63
63 63 63
63 63 63
63 63 63
63 63 63
63 63 63
63 63 63
63 63 63
63 63 63
63 63 63
63 63 63
63 63 63
63 63 63
63 63 63
63 63 63
63 63 63
63 63 63
63 63 63
63 63 63
63 63 63
63 63 63
63 63 63
63 63 63
63 63 63
63 63 63
63 63 63
63 63 63
63 63 63
63 63 63
63 63 63
63 63 63
63 63 63
63 63 63
63 63 63
63 63 63
63 63 63
63 63 63
63 63 63
63 63 63
63 63 63
63 63 63
63 63 63
63 63 63
63 63 63
63 63 63
63 63 63
63 63 63
63 63 63
63 63 63
63 63 63
63 63 63
63 63 63
63 63 63
63 63 63
63 63 63
63 63 63
63 63 63
63 63 63
63 63 63
63 63 63
63 63 63
63 63 63
63 63 63
63 63 63
63 63 63
63 63 63
63 63 63
63 63 63
63 63 63
63 63 63
63 63 63
63 63 63
63 63 63
63 63 63
63 63 63
63 63 63
63 63 63
63 63 63
63 63 63
63 63 63
63 63 63
63 63 63
63 63 63
63 63 63
63 63 63
63 63 63
63 63 63
63 63 63
63 63 63
63 63 63
63 63 63
63 63 63
63 63 63
63 63 63
63 63 63
63 63 63
63 63 63
63 63 63
63 63 63
63 63 63
63 63 63
63 63 63
63 63 63
63 63 63
63 63 63
63 63 63
63 63 63
63 63 63
63 63 63
63 63 63
63 63 63
63 63 63
63 63 63
63 63 63
63 63 63
63 63 63
63 63 63
63 63 63
63 63 63
63 63 63
63 63 63
63 63 63
63 63 63
63 63 63
63 63 63
63 63 63
63 63 63
63 63 63
63 63 63
63 63 63
63 63 63
63 63 63
63 63 63
63 63 63
63 63 63
63 63 63
63 63 63
63 63 63
63 63 63
63 63 63
63 63 63
63 63 63
63 63 63
63 63 63
63 63 63
63 63 63
63 63 63
63 63 63
63 63 63
63 63 63
63 63 63
63 63 63
63 63 63
63 63 63
63 63 63
63 63 63
63 63 63
63 63 63
63 63 63
63 63 63
63 63 63
63 63 63
63 63 63
63 63 63
63 63 63
63 63 63
63 63 63
63 63 63
63 63 63
63 63 63
63 63 63
63 63 63
63 63 63
63 63 63
63 63 63
63 63 63
63 63 63
63 63 63
63 63 63
63 63 63
63 63 63
63 63 63
63 63 63
63 63 63
63 63 63
63 63 63
63 63 63
63 63 63
63 63 63
63 63 63
63 63 63
63 63 63
63 63 63
63 63 63
63 63 63
63 63 63
63 63 63
63 63 63
63 63 63
63 63 63
63 63 63
63 63 63
63 63 63
63 63 63
63 63 63
63 63 63
63 63 63
63 63 63
63 63 63
63 63 63
63 63 63
63 63 63
63 63 63
63 63 63
63 63 63
63 63 63
63 63 63
63 63 63
63 63 63
63 63 63
63 63 63
63 63 63
63 63 63
63 63 63
63 63 63
63 63 63
63 63 63
63 63 63
63 63 63
63 63 63
63 63 63
63 63 63
63 63 63
63 63 63
63 63 63
63 63 63
63 63 63
63 63 63
63 63 63
63 63 63
63 63 63
63 63 63
63 63 63
63 63 63
63 63 63
63 63 63
63 63 63
63 63 63
63 63 63
63 63 63
63 63 63
63 63 63
63 63 63
63 63 63
63 63 63
63 63 63
63 63 63
63 63 63
63 63 63
63 63 63
63 63 63
63 63 63
63 63 63
63 63 63
63 63 63
63 63 63
63 63 63
63 63 63
63 63 63
63 63 63
63 63 63
63 63 63
63 63 63
63 63 63
63 63 63
63 63 63
63 63 63
63 63 63
63 63 63
63 63 63
63 63 63
63 63 63
63 63 63
63 63 63
63 63 63
63 63 63
63 63 63
63 63 63
63 63 63
63 63 63
63 63 63
63 63 63
63 63 63
63 63 63
63 63 63
63 63 63
63 63 63
63 63 63
63 63 63
63 63 63
63 63 63
63 63 63
63 63 63
63 63 63
63 63 63
63 63 63
63 63 63
63 63 63
63 63 63
63 63 63
63 63 63
63 63 63
63 63 63
63 63 63
63 63 63
63 63 63
63 63 63
63 63 63
63 63 63
63 63 63
63 63 63
63 63 63
63 63 63
63 63 63
63 63 63
63 63 63
63 63 63
63 63 63
63 63 63
63 63 63
63 63 63
63 63 63
63 63 63
63 63 63
63 63 63
63 63 63
63 63 63
63 63 63
63 63 63
63 63 63
63 63 63
63 63 63
63 63 63
63 63 63
63 63 63
63 63 63
63 63 63
63 63 63
63 63 63
63 63 63
63 63 63
63 63 63
63 63 63
63 63 63
63 63 63
63 63 63
63 63 63
63 63 63
63 63 63
63 63 63
63 63 63
63 63 63
63 63 63
63 63 63
63 63 63
63 63 63
63 63 63
63 63 63
63 63 63
63 63 63
63 63 63
63 63 63
63 63 63
63 63 63
63 63 63
63 63 63
63 63 63
63 63 63
63 63 63
63 63 63
63 63 63
63 63 63
63 63 63
63 63 63
63 63 63
63 63 63
63 63 63
63 63 63
63 63 63
63 63 63
63 63 63
63 63 63
63 63 63
63 63 63
63 63 63
63 63 63
63 63 63
63 63 63
63 63 63
63 63 63
63 63 63
63 63 63
63 63 63
63 63 63
63 63 63
63 63 63
63 63 63
63 63 63
63 63 63
63 63 63
63 63 63
63 63 63
63 63 63
63 63 63
63 63 63
63 63 63
63 63 63
63 63 63
63 63 63
63 63 63
63 63 63
63 63 63
63 63 63
63 63 63
63 63 63
63 63 63
63 63 63
63 63 63
63 63 63
63 63 63
63 63 63
63 63 63
63 63 63
63 63 63
63 63 63
63 63 63
63 63 63
63 63 63
63 63 63
63 63 63
63 63 63
63 63 63
63 63 63
63 63 63
63 63 63
63 63 63
63 63 63
63 63 63
63 63 63
63 63 63
63 63 63
63 63 63
63 63 63
63 63 63
63 63 63
63 63 63
63 63 63
63 63 63
63 63 63
63 63 63
63 63 63
63 63 63
63 63 63
63 63 63
63 63 63
63 63 63
63 63 63
63 63 63
63 63 63
63 63 63
63 63 63
63 63 63
63 63 63
63 63 63
63 63 63
63 63 63
63 63 63
63 63 63
63 63 63
63 63 63
63 63 63
63 63 63
63 63 63
63 63 63
63 63 63
63 63 63
63 63 63
63 63 63
63 63 63
63 63 63
63 63 63
63 63 63
63 63 63
63 63 63
63 63 63
63 63 63
63 63 63
63 63 63
63 63 63
63 63 63
63 63 63
63 63 63
63 63 63
63 63 63
63 63 63
63 63 63
63 63 63
63 63 63
63 63 63
63 63 63
63 63 63
63 63 63
63 63 63
63 63 63
63 63 63
63 63 63
63 63 63
63 63 63
63 63 63
63 63 63
63 63 63
63 63 63
63 63 63
63 63 63
63 63 63
63 63 63
63 63 63
63 63 63
63 63 63
63 63 63
63 63 63
63 63 63
63 63 63
63 63 63
63 63 63
63 63 63
63 63 63
63 63 63
63 63 63
63 63 63
63 63 63
63 63 63
63 63 63
63 63 63
63 63 63
63 63 63
63 63 63
63 63 63
63 63 63
63 63 63
63 63 63
63 63 63
63 63 63
63 63 63
63 63 63
63 63 63
63 63 63
63 63 63
63 63 63
63 63 63
63 63 63
63 63 63
63 63 63
63 63 63
63 63 63
63 63 63
63 63 63
63 63 63
63 63 63
63 63 63
63 63 63
63 63 63
63 63 63
63 63 63
63 63 63
63 63 63
63 63 63
63 63 63
63 63 63
63 63 63
63 63 63
63 63 63
63 63 63
63 63 63
63 63 63
63 63 63
63 63 63
63 63 63
63 63 63
63 63 63
63 63 63
63 63 63
63 63 63
63 63 63
63 63 63
63 63 63
63 63 63
63 63 63
63 63 63
63 63 63
63 63 63
63 63 63
63 63 63
63 63 63
63 63 63
63 63 63
63 63 63
63 63 63
63 63 63
63 63 63
63 63 63
63 63 63
63 63 63
63 63 63
63 63 63
63 63 63
63 63 63
63 63 63
63 63 63
63 63 63
63 63 63
63 63 63
63 63 63
63 63 63
63 63 63
63 63 63
63 63 63
63 63 63
63 63 63
63 63 63
63 63 63
63 63 63
63 63 63
63 63 63
63 63 63
63 63 63
63 63 63
63 63 63
63 63 63
63 63 63
63 63 63
63 63 63
63 63 63
63 63 63
63 63 63
63 63 63
63 63 63
63 63 63
63 63 63
63 63 63
63 63 63
63 63 63
63 63 63
63 63 63
63 63 63
63 63 63
63 63 63
63 63 63
63 63 63
63 63 63
63 63 63
63 63 63
63 63 63
63 63 63
63 63 63
63 63 63
63 63 63
63 63 63
63 63 63
63 63 63
63 63 63
63 63 63
63 63 63
63 63 63
63 63 63
63 63 63
63 63 63
63 63 63
63 63 63
63 63 63
63 63 63
63 63 63
63 63 63
63 63 63
63 63 63
63 63 63
63 63 63
63 63 63
63 63 63
63 63 63
63 63 63
63 63 63
63 63 63
63 63 63
63 63 63
63 63 63
63 63 63
63 63 63
63 63 63
63 63 63
63 63 63
63 63 63
63 63 63
63 63 63
63 63 63
63 63 63
63 63 63
63 63 63
63 63 63
63 63 63
63 63 63
63 63 63
63 63 63
63 63 63
63 63 63
63 63 63
63 63 63
63 63 63
63 63 63
63 63 63
63 63 63
63 63 63
63 63 63
63 63 63
63 63 63
63 63 63
63 63 63
63 63 63
63 63 63
63 63 63
63 63 63
63 63 63
63 63 63
63 63 63
63 63 63
63 63 63
63 63 63
63 63 63
63 63 63
63 63 63
63 63 63
63 63 63
63 63 63
63 63 63
63 63 63
63 63 63
63 63 63
63 63 63
63 63 63
63 63 63
63 63 63
63 63 63
63 63 63
63 63 63
63 63 63
63 63 63
63 63 63
63 63 63
63 63 63
63 63 63
63 63 63
63 63 63
63 63 63
63 63 63
63 63 63
63 63 63
63 63 63
63 63 63
63 63 63
63 63 63
63 63 63
63 63 63
63 63 63
63 63 63
63 63 63
63 63 63
63 63 63
63 63 63
63 63 63
63 63 63
63 63 63
63 63 63
63 63 63
63 63 63
63 63 63
63 63 63
63 63 63
63 63 63
63 63 63
63 63 63
63 63 63
63 63 63
63 63 63
63 63 63
63 63 63
63 63 63
63 63 63
63 63 63
63 63 63
63 63 63
63 63 63
63 63 63
63 63 63
63 63 63
63 63 63
63 63 63
63 63 63
63 63 63
63 63 63
63 63 63
63 63 63
63 63 63
63 63 63
63 63 63
63 63 63
63 63 63
63 63 63
63 63 63
63 63 63
63 63 63
63 63 63
63 63 63
63 63 63
63 63 63
63 63 63
63 63 63
63 63 63
63 63 63
63 63 63
63 63 63
63 63 63
63 63 63
63 63 63
63 63 63
63 63 63
63 63 63
63 63 63
63 63 63
63 63 63
63 63 63
63 63 63
63 63 63
63 63 63
63 63 63
63 63 63
63 63 63
63 63 63
63 63 63
63 63 63
63 63 63
63 63 63
63 63 63
63 63 63
63 63 63
63 63 63
63 63 63
63 63 63
63 63 63
63 63 63
63 63 63
63 63 63
63 63 63
63 63 63
63 63 63
63 63 63
63 63 63
63 63 63
63 63 63
63 63 63
63 63 63
63 63 63
63 63 63
63 63 63
63 63 63
63 63 63
63 63 63
63 63 63
63 63 63
63 63 63
63 63 63
63 63 63
63 63 63
63 63 63
63 63 63
63 63 63
63 63 63
63 63 63
63 63 63
63 63 63
63 63 63
63 63 63
63 63 63
63 63 63
63 63 63
63 63 63
63 63 63
63 63 63
63 63 63
63 63 63
63 63 63
63 63 63
63 63 63
63 63 63
63 63 63
63 63 63
63 63 63
63 63 63
63 63 63
63 63 63
63 63 63
63 63 63
63 63 63
63 63 63
63 63 63
63 63 63
63 63 63
63 63 63
63 63 63
63 63 63
63 63 63
63 63 63
63 63 63
63 63 63
63 63 63
63 63 63
63 63 63
63 63 63
63 63 63
63 63 63
63 63 63
63 63 63
63 63 63
63 63 63
63 63 63
63 63 63
63 63 63
63 63 63
63 63 63
63 63 63
63 63 63
63 63 63
63 63 63
63 63 63
63 63 63
63 63 63
63 63 63
63 63 63
63 63 63
63 63 63
63 63 63
63 63 63
63 63 63
63 63 63
63 63 63
63 63 63
63 63 63
63 63 63
63 63 63
63 63 63
63 63 63
63 63 63
63 63 63
63 63 63
63 63 63
63 63 63
63 63 63
63 63 63
63 63 63
63 63 63
63 63 63
63 63 63
63 63 63
63 63 63
63 63 63
63 63 63
63 63 63
63 63 63
63 63 63
63 63 63
63 63 63
63 63 63
63 63 63
63 63 63
63 63 63
63 63 63
63 63 63
63 63 63
63 63 63
63 63 63
63 63 63
63 63 63
63 63 63
63 63 63
63 63 63
63 63 63
63 63 63
63 63 63
63 63 63
63 63 63
63 63 63
63 63 63
63 63 63
63 63 63
63 63 63
63 63 63
63 63 63
63 63 63
63 63 63
63 63 63
63 63 63
63 63 63
63 63 63
63 63 63
63 63 63
63 63 63
63 63 63
63 63 63
63 63 63
63 63 63
63 63 63
63 63 63
63 63 63
63 63 63
63 63 63
63 63 63
63 63 63
63 63 63
63 63 63
63 63 63
63 63 63
63 63 63
63 63 63
63 63 63
63 63 63
63 63 63
63 63 63
63 63 63
63 63 63
63 63 63
63 63 63
63 63 63
63 63 63
63 63 63
63 63 63
63 63 63
63 63 63
63 63 63
63 63 63
63 63 63
63 63 63
63 63 63
63 63 63
63 63 63
63 63 63
63 63 63
63 63 63
63 63 63
63 63 63
63 63 63
63 63 63
63 63 63
63 63 63
63 63 63
63 63 63
63 63 63
63 63 63
63 63 63
63 63 63
63 63 63
63 63 63
63 63 63
63 63 63
63 63 63
63 63 63
63 63 63
63 63 63
63 63 63
63 63 63
63 63 63
63 63 63
63 63 63
63 63 63
63 63 63
63 63 63
63 63 63
63 63 63
63 63 63
63 63 63
63 63 63
63 63 63
63 63 63
63 63 63
63 63 63
63 63 63
63 63 63
63 63 63
63 63 63
63 63 63
63 63 63
63 63 63
63 63 63
63 63 63
63 63 63
63 63 63
63 63 63
63 63 63
63 63 63
63 63 63
63 63 63
63 63 63
63 63 63
63 63 63
63 63 63
63 63 63
63 63 63
63 63 63
63 63 63
63 63 63
63 63 63
63 63 63
63 63 63
63 63 63
63 63 63
63 63 63
63 63 63
63 63 63
63 63 63
63 63 63
63 63 63
63 63 63
63 63 63
63 63 63
63 63 63
63 63 63
63 63 63
63 63 63
63 63 63
63 63 63
63 63 63
63 63 63
63 63 63
63 63 63
63 63 63
63 63 63
63 63 63
63 63 63
63 63 63
63 63 63
63 63 63
63 63 63
63 63 63
63 63 63
63 63 63
63 63 63
63 63 63
63 63 63
63 63 63
63 63 63
63 63 63
63 63 63
63 63 63
63 63 63
63 63 63
63 63 63
63 63 63
63 63 63
63 63 63
63 63 63
63 63 63
63 63 63
63 63 63
63 63 63
63 63 63
63 63 63
63 63 63
63 63 63
63 63 63
63 63 63
63 63 63
63 63 63
63 63 63
63 63 63
63 63 63
63 63 63
63 63 63
63 63 63
63 63 63
63 63 63
63 63 63
63 63 63
63 63 63
63 63 63
63 63 63
63 63 63
63 63 63
63 63 63
63 63 63
63 63 63
63 63 63
63 63 63
63 63 63
63 63 63
63 63 63
63 63 63
63 63 63
63 63 63
63 63 63
63 63 63
63 63 63
63 63 63
63 63 63
63 63 63
63 63 63
63 63 63
63 63 63
63 63 63
63 63 63
63 63 63
63 63 63
63 63 63
63 63 63
63 63 63
63 63 63
63 63 63
63 63 63
63 63 63
63 63 63
63 63 63
63 63 63
63 63 63
63 63 63
63 63 63
63 63 63
63 63 63
63 63 63
63 63 63
63 63 63
63 63 63
63 63 63
63 63 63
63 63 63
63 63 63
63 63 63
63 63 63
63 63 63
63 63 63
63 63 63
63 63 63
63 63 63
63 63 63
63 63 63
63 63 63
63 63 63
63 63 63
63 63 63
63 63 63
63 63 63
63 63 63
63 63 63
63 63 63
63 63 63
63 63 63
63 63 63
63 63 63
63 63 63
63 63 63
63 63 63
63 63 63
63 63 63
63 63 63
63 63 63
63 63 63
63 63 63
63 63 63
63 63 63
63 63 63
63 63 63
63 63 63
63 63 63
63 63 63
63 63 63
63 63 63
63 63 63
63 63 63
63 63 63
63 63 63
63 63 63
63 63 63
63 63 63
63 63 63
63 63 63
63 63 63
63 63 63
63 63 63
63 63 63
63 63 63
63 63 63
63 63 63
63 63 63
63 63 63
63 63 63
63 63 63
63 63 63
63 63 63
63 63 63
63 63 63
63 63 63
63 63 63
63 63 63
63 63 63
63 63 63
63 63 63
63 63 63
63 63 63
63 63 63
63 63 63
63 63 63
63 63 63
63 63 63
63 63 63
63 63 63
63 63 63
63 63 63
63 63 63
63 63 63
63 63 63
63 63 63
63 63 63
63 63 63
63 63 63
63 63 63
63 63 63
63 63 63
63 63 63
63 63 63
63 63 63
63 63 63
63 63 63
63 63 63
63 63 63
63 63 63
63 63 63
63 63 63
63 63 63
63 63 63
63 63 63
63 63 63
63 63 63
63 63 63
63 63 63
63 63 63
63 63 63
63 63 63
63 63 63
63 63 63
63 63 63
63 63 63
63 63 63
63 63 63
63 63 63
63 63 63
63 63 63
63 63 63
63 63 63
63 63 63
63 63 63
63 63 63
63 63 63
63 63 63
63 63 63
63 63 63
63 63 63
63 63 63
63 63 63
63 63 63
63 63 63
63 63 63
63 63 63
63 63 63
63 63 63
63 63 63
63 63 63
63 63 63
63 63 63
63 63 63
63 63 63
63 63 63
63 63 63
63 63 63
63 63 63
63 63 63
63 63 63
63 63 63
63 63 63
63 63 63
63 63 63
63 63 63
63 63 63
63 63 63
63 63 63
63 63 63
63 63 63
63 63 63
63 63 63
63 63 63
63 63 63
63 63 63
63 63 63
63 63 63
63 63 63
63 63 63
63 63 63
63 63 63
63 63 63
63 63 63
63 63 63
63 63 63
63 63 63
63 63 63
63 63 63
63 63 63
63 63 63
63 63 63
63 63 63
63 63 63
63 63 63
63 63 63
63 63 63
63 63 63
63 63 63
63 63 63
63 63 63
63 63 63
63 63 63
63 63 63
63 63 63
63 63 63
63 63 63
63 63 63
63 63 63
63 63 63
63 63 63
63 63 63
63 63 63
63 63 63
63 63 63
63 63 63
63 63 63
63 63 63
63 63 63
63 63 63
63 63 63
63 63 63
63 63 63
63 63 63
63 63 63
63 63 63
63 63 63
63 63 63
63 63 63
63 63 63
63 63 63
63 63 63
63 63 63
63 63 63
63 63 63
63 63 63
63 63 63
63 63 63
63 63 63
63 63 63
63 63 63
63 63 63
63 63 63
63 63 63
63 63 63
63 63 63
63 63 63
63 63 63
63 63 63
63 63 63
63 63 63
63 63 63
63 63 63
63 63 63
63 63 63
63 63 63
63 63 63
63 63 63
63 63 63
63 63 63
63 63 63
63 63 63
63 63 63
63 63 63
63 63 63
63 63 63
63 63 63
63 63 63
63 63 63
63 63 63
63 63 63
63 63 63
63 63 63
63 63 63
63 63 63
63 63 63
63 63 63
63 63 63
63 63 63
63 63 63
63 63 63
63 63 63
63 63 63
63 63 63
63 63 63
63 63 63
63 63 63
63 63 63
63 63 63
63 63 63
63 63 63
63 63 63
63 63 63
63 63 63
63 63 63
63 63 63
63 63 63
63 63 63
63 63 63
63 63 63
63 63 63
63 63 63
63 63 63
63 63 63
63 63 63
63 63 63
63 63 63
63 63 63
63 63 63
63 63 63
63 63 63
63 63 63
63 63 63
63 63 63
63 63 63
63 63 63
63 63 63
63 63 63
63 63 63
63 63 63
63 63 63
63 63 63
63 63 63
63 63 63
63 63 63
63 63 63
63 63 63
63 63 63
63 63 63
63 63 63
63 63 63
63 63 63
63 63 63
63 63 63
63 63 63
63 63 63
63 63 63
63 63 63
63 63 63
63 63 63
63 63 63
63 63 63
63 63 63
63 63 63
63 63 63
63 63 63
63 63 63
63 63 63
63 63 63
63 63 63
63 63 63
63 63 63
63 63 63
63 63 63
63 63 63
63 63 63
63 63 63
63 63 63
63 63 63
63 63 63
63 63 63
63 63 63
63 63 63
63 63 63
63 63 63
63 63 63
63 63 63
63 63 63
63 63 63
63 63 63
63 63 63
63 63 63
63 63 63
63 63 63
63 63 63
63 63 63
63 63 63
63 63 63
63 63 63
63 63 63
63 63 63
63 63 63
63 63 63
63 63 63
63 63 63
63 63 63
63 63 63
63 63 63
63 63 63
63 63 63
63 63 63
63 63 63
63 63 63
63 63 63
63 63 63
63 63 63
63 63 63
63 63 63
63 63 63
63 63 63
63 63 63
63 63 63
63 63 63
63 63 63
63 63 63
63 63 63
63 63 63
63 63 63
63 63 63
63 63 63
63 63 63
63 63 63
63 63 63
63 63 63
63 63 63
63 63 63
63 63 63
63 63 63
63 63 63
63 63 63
63 63 63
63 63 63
63 63 63
63 63 63
63 63 63
63 63 63
63 63 63
63 63 63
63 63 63
63 63 63
63 63 63
63 63 63
63 63 63
63 63 63
63 63 63
63 63 63
63 63 63
63 63 63
63 63 63
63 63 63
63 63 63
63 63 63
63 63 63
63 63 63
63 63 63
63 63 63
63 63 63
63 63 63
63 63 63
63 63 63
63 63 63
63 63 63
63 63 63
63 63 63
63 63 63
63 63 63
63 63 63
63 63 63
63 63 63
63 63 63
63 63 63
63 63 63
63 63 63
63 63 63
63 63 63
63 63 63
63 63 63
63 63 63
63 63 63
63 63 63
63 63 63
63 63 63
63 63 63
63 63 63
63 63 63
63 63 63
63 63 63
63 63 63
63 63 63
63 63 63
63 63 63
63 63 63
63 63 63
63 63 63
63 63 63
63 63 63
63 63 63
63 63 63
63 63 63
63 63 63
63 63 63
63 63 63
63 63 63
63 63 63
63 63 63
63 63 63
63 63 63
63 63 63
63 63 63
63 63 63
63 63 63
63 63 63
63 63 63
63 63 63
63 63 63
63 63 63
63 63 63
63 63 63
63 63 63
63 63 63
63 63 63
63 63 63
63 63 63
63 63 63
63 63 63
63 63 63
63 63 63
63 63 63
63 63 63
63 63 63
63 63 63
63 63 63
63 63 63
63 63 63
63 63 63
63 63 63
63 63 63
63 63 63
63 63 63
63 63 63
63 63 63
63 63 63
63 63 63
63 63 63
63 63 63
63 63 63
63 63 63
63 63 63
63 63 63
63 63 63
63 63 63
63 63 63
63 63 63
63 63 63
63 63 63
63 63 63
63 63 63
63 63 63
63 63 63
63 63 63
63 63 63
63 63 63
63 63 63
63 63 63
63 63 63
63 63 63
63 63 63
63 63 63
63 63 63
63 63 63
63 63 63
63 63 63
63 63 63
63 63 63
63 63 63
63 63 63
63 63 63
63 63 63
63 63 63
63 63 63
63 63 63
63 63 63
63 63 63
63 63 63
63 63 63
63 63 63
63 63 63
63 63 63
63 63 63
63 63 63
63 63 63
63 63 63
63 63 63
63 63 63
63 63 63
63 63 63
63 63 63
63 63 63
63 63 63
63 63 63
63 63 63
63 63 63
63 63 63
63 63 63
63 63 63
63 63 63
63 63 63
63 63 63
63 63 63
63 63 63
63 63 63
63 63 63
63 63 63
63 63 63
63 63 63
63 63 63
63 63 63
63 63 63
63 63 63
63 63 63
63 63 63
63 63 63
63 63 63
63 63 63
63 63 63
63 63 63
63 63 63
63 63 63
63 63 63
63 63 63
63 63 63
63 63 63
63 63 63
63 63 63
63 63 63
63 63 63
63 63 63
63 63 63
63 63 63
63 63 63
63 63 63
63 63 63
63 63 63
63 63 63
63 63 63
63 63 63
63 63 63
63 63 63
63 63 63
63 63 63
63 63 63
63 63 63
63 63 63
63 63 63
63 63 63
63 63 63
63 63 63
63 63 63
63 63 63
63 63 63
63 63 63
63 63 63
63 63 63
63 63 63
63 63 63
63 63 63
63 63 63
63 63 63
63 63 63
63 63 63
63 63 63
63 63 63
63 63 63
63 63 63
63 63 63
63 63 63
63 63 63
63 63 63
63 63 63
63 63 63
63 63 63
63 63 63
63 63 63
63 63 63
63 63 63
63 63 63
63 63 63
63 63 63
63 63 63
63 63 63
63 63 63
63 63 63
63 63 63
63 63 63
63 63 63
63 63 63
63 63 63
63 63 63
63 63 63
63 63 63
63 63 63
63 63 63
63 63 63
63 63 63
63 63 63
63 63 63
63 63 63
63 63 63
63 63 63
63 63 63
63 63 63
63 63 63
63 63 63
63 63 63
63 63 63
63 63 63
63 63 63
63 63 63
63 63 63
63 63 63
63 63 63
63 63 63
63 63 63
63 63 63
63 63 63
63 63 63
63 63 63
63 63 63
63 63 63
63 63 63
63 63 63
63 63 63
63 63 63
63 63 63
63 63 63
63 63 63
63 63 63
63 63 63
63 63 63
63 63 63
63 63 63
63 63 63
63 63 63
63 63 63
63 63 63
63 63 63
63 63 63
63 63 63
63 63 63
63 63 63
63 63 63
63 63 63
63 63 63
63 63 63
63 63 63
63 63 63
63 63 63
63 63 63
63 63 63
63 63 63
63 63 63
63 63 63
63 63 63
63 63 63
63 63 63
63 63 63
63 63 63
63 63 63
63 63 63
63 63 63
63 63 63
63 63 63
63 63 63
63 63 63
63 63 63
63 63 63
63 63 63
63 63 63
63 63 63
63 63 63
63 63 63
63 63 63
63 63 63
63 63 63
63 63 63
63 63 63
63 63 63
63 63 63
63 63 63
63 63 63
63 63 63
63 63 63
63 63 63
63 63 63
63 63 63
63 63 63
63 63 63
63 63 63
63 63 63
63 63 63
63 63 63
63 63 63
63 63 63
63 63 63
63 63 63
63 63 63
63 63 63
63 63 63
63 63 63
63 63 63
63 63 63
63 63 63
63 63 63
63 63 63
63 63 63
63 63 63
63 63 63
63 63 63
63 63 63
63 63 63
63 63 63
63 63 63
63 63 63
63 63 63
63 63 63
63 63 63
63 63 63
63 63 63
63 63 63
63 63 63
63 63 63
63 63 63
63 63 63
63 63 63
63 63 63
63 63 63
63 63 63
63 63 63
63 63 63
63 63 63
63 63 63
63 63 63
63 63 63
63 63 63
63 63 63
63 63 63
63 63 63
63 63 63
63 63 63
63 63 63
63 63 63
63 63 63
63 63 63
63 63 63
63 63 63
63 63 63
63 63 63
63 63 63
63 63 63
63 63 63
63 63 63
63 63 63
63 63 63
63 63 63
63 63 63
63 63 63
63 63 63
63 63 63
63 63 63
63 63 63
63 63 63
63 63 63
63 63 63
63 63 63
63 63 63
63 63 63
63 63 63
63 63 63
63 63 63
63 63 63
63 63 63
63 63 63
63 63 63
63 63 63
63 63 63
63 63 63
63 63 63
63 63 63
63 63 63
63 63 63
63 63 63
63 63 63
63 63 63
63 63 63
63 63 63
63 63 63
63 63 63
63 63 63
63 63 63
63 63 63
63 63 63
63 63 63
63 63 63
63 63 63
63 63 63
63 63 63
63 63 63
63 63 63
63 63 63
63 63 63
63 63 63
63 63 63
63 63 63
63 63 63
63 63 63
63 63 63
63 63 63
63 63 63
63 63 63
63 63 63
63 63 63
63 63 63
63 63 63
63 63 63
63 63 63
63 63 63
63 63 63
63 63 63
63 63 63
63 63 63
63 63 63
63 63 63
63 63 63
63 63 63
63 63 63
63 63 63
63 63 63
63 63 63
63 63 63
63 63 63
63 63 63
63 63 63
63 63 63
63 63 63
63 63 63
63 63 63
63 63 63
63 63 63
63 63 63
63 63 63
63 63 63
63 63 63
63 63 63
63 63 63
63 63 63
63 63 63
63 63 63
63 63 63
63 63 63
63 63 63
63 63 63
63 63 63
63 63 63
63 63 63
63 63 63
63 63 63
63 63 63
63 63 63
63 63 63
63 63 63
63 63 63
63 63 63
63 63 63
63 63 63
63 63 63
63 63 63
63 63 63
63 63 63
63 63 63
63 63 63
63 63 63
63 63 63
63 63 63
63 63 63
63 63 63
63 63 63
63 63 63
63 63 63
63 63 63
63 63 63
63 63 63
63 63 63
63 63 63
63 63 63
63 63 63
63 63 63
63 63 63
63 63 63
63 63 63
63 63 63
63 63 63
63 63 63
63 63 63
63 63 63
63 63 63
63 63 63
63 63 63
63 63 63
63 63 63
63 63 63
63 63 63
63 63 63
63 63 63
63 63 63
63 63 63
63 63 63
63 63 63
63 63 63
63 63 63
63 63 63
63 63 63
63 63 63
63 63 63
63 63 63
63 63 63
63 63 63
63 63 63
63 63 63
63 63 63
63 63 63
63 63 63
63 63 63
63 63 63
63 63 63
63 63 63
63 63 63
63 63 63
63 63 63
63 63 63
63 63 63
63 63 63
63 63 63
63 63 63
63 63 63
63 63 63
63 63 63
63 63 63
63 63 63
63 63 63
63 63 63
63 63 63
63 63 63
63 63 63
63 63 63
63 63 63
63 63 63
63 63 63
63 63 63
63 63 63
63 63 63
63 63 63
63 63 63
63 63 63
63 63 63
63 63 63
63 63 63
63 63 63
63 63 63
63 63 63
63 63 63
63 63 63
63 63 63
63 63 63
63 63 63
63 63 63
63 63 63
63 63 63
63 63 63
63 63 63
63 63 63
63 63 63
63 63 63
63 63 63
63 63 63
63 63 63
63 63 63
63 63 63
63 63 63
63 63 63
63 63 63
63 63 63
63 63 63
63 63 63
63 63 63
63 63 63
63 63 63
63 63 63
63 63 63
63 63 63
63 63 63
63 63 63
63 63 63
63 63 63
63 63 63
63 63 63
63 63 63
63 63 63
63 63 63
63 63 63
63 63 63
63 63 63
63 63 63
63 63 63
63 63 63
63 63 63
63 63 63
63 63 63
63 63 63
63 63 63
63 63 63
63 63 63
63 63 63
63 63 63
63 63 63
63 63 63
63 63 63
63 63 63
63 63 63
63 63 63
63 63 63
63 63 63
63 63 63
63 63 63
63 63 63
63 63 63
63 63 63
63 63 63
63 63 63
63 63 63
63 63 63
63 63 63
63 63 63
63 63 63
63 63 63
63 63 63
63 63 63
63 63 63
63 63 63
63 63 63
63 63 63
63 63 63
63 63 63
63 63 63
63 63 63
63 63 63
63 63 63
63 63 63
63 63 63
63 63 63
63 63 63
63 63 63
63 63 63
63 63 63
63 63 63
63 63 63
63 63 63
63 63 63
63 63 63
63 63 63
63 63 63
63 63 63
63 63 63
63 63 63
63 63 63
63 63 63
63 63 63
63 63 63
63 63 63
63 63 63
63 63 63
63 63 63
63 63 63
63 63 63
63 63 63
63 63 63
63 63 63
63 63 63
63 63 63
63 63 63
63 63 63
63 63 63
63 63 63
63 63 63
63 63 63
63 63 63
63 63 63
63 63 63
63 63 63
63 63 63
63 63 63
63 63 63
63 63 63
63 63 63
63 63 63
63 63 63
63 63 63
63 63 63
63 63 63
63 63 63
63 63 63
63 63 63
63 63 63
63 63 63
63 63 63
63 63 63
63 63 63
63 63 63
63 63 63
63 63 63
63 63 63
63 63 63
63 63 63
63 63 63
63 63 63
63 63 63
63 63 63
63 63 63
63 63 63
63 63 63
63 63 63
63 63 63
63 63 63
63 63 63
63 63 63
63 63 63
63 63 63
63 63 63
63 63 63
63 63 63
63 63 63
63 63 63
63 63 63
63 63 63
63 63 63
63 63 63
63 63 63
63 63 63
63 63 63
63 63 63
63 63 63
63 63 63
63 63 63
63 63 63
63 63 63
63 63 63
63 63 63
63 63 63
63 63 63
63 63 63
63 63 63
63 63 63
63 63 63
63 63 63
63 63 63
63 63 63
63 63 63
63 63 63
63 63 63
63 63 63
63 63 63
63 63 63
63 63 63
63 63 63
63 63 63
63 63 63
63 63 63
63 63 63
63 63 63
63 63 63
63 63 63
63 63 63
63 63 63
63 63 63
63 63 63
63 63 63
63 63 63
63 63 63
63 63 63
63 63 63
63 63 63
63 63 63
63 63 63
63 63 63
63 63 63
63 63 63
63 63 63
63 63 63
63 63 63
63 63 63
63 63 63
63 63 63
63 63 63
63 63 63
63 63 63
63 63 63
63 63 63
63 63 63
63 63 63
63 63 63
63 63 63
63 63 63
63 63 63
63 63 63
63 63 63
63 63 63
63 63 63
63 63 63
63 63 63
63 63 63
63 63 63
63 63 63
63 63 63
63 63 63
63 63 63
63 63 63
63 63 63
63 63 63
63 63 63
63 63 63
63 63 63
63 63 63
63 63 63
63 63 63
63 63 63
63 63 63
63 63 63
63 63 63
63 63 63
63 63 63
63 63 63
63 63 63
63 63 63
63 63 63
63 63 63
63 63 63
63 63 63
63 63 63
63 63 63
63 63 63
63 63 63
63 63 63
63 63 63
63 63 63
63 63 63
63 63 63
63 63 63
63 63 63
63 63 63
63 63 63
63 63 63
63 63 63
63 63 63
63 63 63
63 63 63
63 63 63
63 63 63
63 63 63
63 63 63
63 63 63
63 63 63
63 63 63
63 63 63
63 63 63
63 63 63
63 63 63
63 63 63
63 63 63
63 63 63
63 63 63
63 63 63
63 63 63
63 63 63
63 63 63
63 63 63
63 63 63
63 63 63
63 63 63
63 63 63
63 63 63
63 63 63
63 63 63
63 63 63
63 63 63
63 63 63
63 63 63
63 63 63
63 63 63
63 63 63
63 63 63
63 63 63
63 63 63
63 63 63
63 63 63
63 63 63
63 63 63
63 63 63
63 63 63
63 63 63
63 63 63
63 63 63
63 63 63
63 63 63
63 63 63
63 63 63
63 63 63
63 63 63
63 63 63
63 63 63
63 63 63
63 63 63
63 63 63
63 63 63
63 63 63
63 63 63
63 63 63
63 63 63
63 63 63
63 63 63
63 63 63
63 63 63
63 63 63
63 63 63
63 63 63
63 63 63
63 63 63
63 63 63
63 63 63
63 63 63
63 63 63
63 63 63
63 63 63
63 63 63
63 63 63
63 63 63
63 63 63
63 63 63
63 63 63
63 63 63
63 63 63
63 63 63
63 63 63
63 63 63
63 63 63
63 63 63
63 63 63
63 63 63
63 63 63
63 63 63
63 63 63
63 63 63
63 63 63
63 63 63
63 63 63
63 63 63
63 63 63
63 63 63
63 63 63
63 63 63
63 63 63
63 63 63
63 63 63
63 63 63
63 63 63
63 63 63
63 63 63
63 63 63
63 63 63
63 63 63
63 63 63
63 63 63
63 63 63
63 63 63
63 63 63
63 63 63
63 63 63
63 63 63
63 63 63
63 63 63
63 63 63
63 63 63
63 63 63
63 63 63
63 63 63
63 63 63
63 63 63
63 63 63
63 63 63
63 63 63
63 63 63
63 63 63
63 63 63
63 63 63
63 63 63
63 63 63
63 63 63
63 63 63
63 63 63
63 63 63
63 63 63
63 63 63
63 63 63
63 63 63
63 63 63
63 63 63
63 63 63
63 63 63
63 63 63
63 63 63
63 63 63
63 63 63
63 63 63
63 63 63
63 63 63
63 63 63
63 63 63
63 63 63
63 63 63
63 63 63
63 63 63
63 63 63
63 63 63
63 63 63
63 63 63
63 63 63
63 63 63
63 63 63
63 63 63
63 63 63
63 63 63
63 63 63
63 63 63
63 63 63
63 63 63
63 63 63
63 63 63
63 63 63
63 63 63
63 63 63
63 63 63
63 63 63
63 63 63
63 63 63
63 63 63
63 63 63
63 63 63
63 63 63
63 63 63
63 63 63
63 63 63
63 63 63
63 63 63
63 63 63
63 63 63
63 63 63
63 63 63
63 63 63
63 63 63
63 63 63
63 63 63
63 63 63
63 63 63
63 63 63
63 63 63
63 63 63
63 63 63
63 63 63
63 63 63
63 63 63
63 63 63
63 63 63
63 63 63
63 63 63
63 63 63
63 63 63
63 63 63
63 63 63
63 63 63
63 63 63
63 63 63
63 63 63
63 63 63
63 63 63
63 63 63
63 63 63
63 63 63
63 63 63
63 63 63
63 63 63
63 63 63
63 63 63
63 63 63
63 63 63
63 63 63
63 63 63
63 63 63
63 63 63
63 63 63
63 63 63
63 63 63
63 63 63
63 63 63
63 63 63
63 63 63
63 63 63
63 63 63
63 63 63
63 63 63
63 63 63
63 63 63
63 63 63
63 63 63
63 63 63
63 63 63
63 63 63
63 63 63
63 63 63
63 63 63
63 63 63
63 63 63
63 63 63
63 63 63
63 63 63
63 63 63
63 63 63
63 63 63
63 63 63
63 63 63
63 63 63
63 63 63
63 63 63
63 63 63
63 63 63
63 63 63
63 63 63
63 63 63
63 63 63
63 63 63
63 63 63
63 63 63
63 63 63
63 63 63
63 63 63
63 63 63
63 63 63
63 63 63
63 63 63
63 63 63
63 63 63
63 63 63
63 63 63
63 63 63
63 63 63
63 63 63
63 63 63
63 63 63
63 63 63
63 63 63
63 63 63
63 63 63
63 63 63
63 63 63
63 63 63
63 63 63
63 63 63
63 63 63
63 63 63
63 63 63
63 63 63
63 63 63
63 63 63
63 63 63
63 63 63
63 63 63
63 63 63
63 63 63
63 63 63
63 63 63
63 63 63
63 63 63
63 63 63
63 63 63
63 63 63
63 63 63
63 63 63
63 63 63
63 63 63
63 63 63
63 63 63
63 63 63
63 63 63
63 63 63
63 63 63
63 63 63
63 63 63
63 63 63
63 63 63
63 63 63
63 63 63
63 63 63
63 63 63
63 63 63
63 63 63
63 63 63
63 63 63
63 63 63
63 63 63
63 63 63
63 63 63
63 63 63
63 63 63
63 63 63
63 63 63
63 63 63
63 63 63
63 63 63
63 63 63
63 63 63
63 63 63
63 63 63
63 63 63
63 63 63
63 63 63
63 63 63
63 63 63
63 63 63
63 63 63
63 63 63
63 63 63
63 63 63
63 63 63
63 63 63
63 63 63
63 63 63
63 63 63
63 63 63
63 63 63
63 63 63
63 63 63
63 63 63
63 63 63
63 63 63
63 63 63
63 63 63
63 63 63
63 63 63
63 63 63
63 63 63
63 63 63
63 63 63
63 63 63
63 63 63
63 63 63
63 63 63
63 63 63
63 63 63
63 63 63
63 63 63
63 63 63
63 63 63
63 63 63
63 63 63
63 63 63
63 63 63
63 63 63
63 63 63
63 63 63
63 63 63
63 63 63
63 63 63
63 63 63
63 63 63
63 63 63
63 63 63
63 63 63
63 63 63
63 63 63
63 63 63
63 63 63
63 63 63
63 63 63
63 63 63
63 63 63
63 63 63
63 63 63
63 63 63
63 63 63
63 63 63
63 63 63
63 63 63
63 63 63
63 63 63
63 63 63
63 63 63
63 63 63
63 63 63
63 63 63
63 63 63
63 63 63
63 63 63
63 63 63
63 63 63
63 63 63
63 63 63
63 63 63
63 63 63
63 63 63
63 63 63
63 63 63
63 63 63
63 63 63
63 63 63
63 63 63
63 63 63
63 63 63
63 63 63
63 63 63
63 63 63
63 63 63
63 63 63
63 63 63
63 63 63
63 63 63
63 63 63
63 63 63
63 63 63
63 63 63
63 63 63
63 63 63
63 63 63
63 63 63
63 63 63
63 63 63
63 63 63
63 63 63
63 63 63
63 63 63
63 63 63
63 63 63
63 63 63
63 63 63
63 63 63
63 63 63
63 63 63
63 63 63
63 63 63
63 63 63
63 63 63
63 63 63
63 63 63
63 63 63
63 63 63
63 63 63
63 63 63
63 63 63
63 63 63
63 63 63
63 63 63
63 63 63
63 63 63
63 63 63
63 63 63
63 63 63
63 63 63
63 63 63
63 63 63
63 63 63
63 63 63
63 63 63
63 63 63
63 63 63
63 63 63
63 63 63
63 63 63
63 63 63
63 63 63
63 63 63
63 63 63
63 63 63
63 63 63
63 63 63
63 63 63
63 63 63
63 63 63
63 63 63
63 63 63
63 63 63
63 63 63
63 63 63
63 63 63
63 63 63
63 63 63
63 63 63
63 63 63
63 63 63
63 63 63
63 63 63
63 63 63
63 63 63
63 63 63
63 63 63
63 63 63
63 63 63
63 63 63
63 63 63
63 63 63
63 63 63
63 63 63
63 63 63
63 63 63
63 63 63
63 63 63
63 63 63
63 63 63
63 63 63
63 63 63
63 63 63
63 63 63
63 63 63
63 63 63
63 63 63
63 63 63
63 63 63
63 63 63
63 63 63
63 63 63
63 63 63
63 63 63
63 63 63
63 63 63
63 63 63
63 63 63
63 63 63
63 63 63
63 63 63
63 63 63
63 63 63
63 63 63
63 63 63
63 63 63
63 63 63
63 63 63
63 63 63
63 63 63
63 63 63
63 63 63
63 63 63
63 63 63
63 63 63
63 63 63
63 63 63
63 63 63
63 63 63
63 63 63
63 63 63
63 63 63
63 63 63
63 63 63
63 63 63
63 63 63
63 63 63
63 63 63
63 63 63
63 63 63
63 63 63
63 63 63
63 63 63
63 63 63
63 63 63
63 63 63
63 63 63
63 63 63
63 63 63
63 63 63
63 63 63
63 63 63
63 63 63
63 63 63
63 63 63
63 63 63
63 63 63
63 63 63
63 63 63
63 63 63
63 63 63
63 63 63
63 63 63
63 63 63
63 63 63
63 63 63
63 63 63
63 63 63
63 63 63
63 63 63
63 63 63
63 63 63
63 63 63
63 63 63
63 63 63
63 63 63
63 63 63
63 63 63
63 63 63
63 63 63
63 63 63
63 63 63
63 63 63
63 63 63
63 63 63
63 63 63
63 63 63
63 63 63
63 63 63
63 63 63
63 63 63
63 63 63
63 63 63
63 63 63
63 63 63
63 63 63
63 63 63
63 63 63
63 63 63
63 63 63
63 63 63
63 63 63
63 63 63
63 63 63
63 63 63
63 63 63
63 63 63
63 63 63
63 63 63
63 63 63
63 63 63
63 63 63
63 63 63
63 63 63
63 63 63
63 63 63
63 63 63
63 63 63
63 63 63
63 63 63
63 63 63
63 63 63
63 63 63
63 63 63
63 63 63
63 63 63
63 63 63
63 63 63
63 63 63
63 63 63
63 63 63
63 63 63
63 63 63
63 63 63
63 63 63
63 63 63
63 63 63
63 63 63
63 63 63
63 63 63
63 63 63
63 63 63
63 63 63
63 63 63
63 63 63
63 63 63
63 63 63
63 63 63
63 63 63
63 63 63
63 63 63
63 63 63
63 63 63
63 63 63
63 63 63
63 63 63
63 63 63
63 63 63
63 63 63
63 63 63
63 63 63
63 63 63
63 63 63
63 63 63
63 63 63
63 63 63
63 63 63
63 63 63
63 63 63
63 63 63
63 63 63
63 63 63
63 63 63
63 63 63
63 63 63
63 63 63
63 63 63
63 63 63
63 63 63
63 63 63
63 63 63
63 63 63
63 63 63
63 63 63
63 63 63
63 63 63
63 63 63
63 63 63
63 63 63
63 63 63
63 63 63
63 63 63
63 63 63
63 63 63
63 63 63
63 63 63
63 63 63
63 63 63
63 63 63
63 63 63
63 63 63
63 63 63
63 63 63
63 63 63
63 63 63
63 63 63
63 63 63
63 63 63
63 63 63
63 63 63
63 63 63
63 63 63
63 63 63
63 63 63
63 63 63
63 63 63
63 63 63
63 63 63
63 63 63
63 63 63
63 63 63
63 63 63
63 63 63
63 63 63
63 63 63
63 63 63
63 63 63
63 63 63
63 63 63
63 63 63
63 63 63
63 63 63
63 63 63
63 63 63
63 63 63
63 63 63
63 63 63
63 63 63
63 63 63
63 63 63
63 63 63
63 63 63
63 63 63
63 63 63
63 63 63
63 63 63
63 63 63
63 63 63
63 63 63
63 63 63
63 63 63
63 63 63
63 63 63
63 63 63
63 63 63
63 63 63
63 63 63
63 63 63
63 63 63
63 63 63
63 63 63
63 63 63
63 63 63
63 63 63
63 63 63
63 63 63
63 63 63
63 63 63
63 63 63
63 63 63
63 63 63
63 63 63
63 63 63
63 63 63
63 63 63
63 63 63
63 63 63
63 63 63
63 63 63
63 63 63
63 63 63
63 63 63
63 63 63
63 63 63
63 63 63
63 63 63
63 63 63
63 63 63
63 63 63
63 63 63
63 63 63
63 63 63
63 63 63
63 63 63
63 63 63
63 63 63
63 63 63
63 63 63
63 63 63
63 63 63
63 63 63
63 63 63
63 63 63
63 63 63
63 63 63
63 63 63
63 63 63
63 63 63
63 63 63
63 63 63
63 63 63
63 63 63
63 63 63
63 63 63
63 63 63
63 63 63
63 63 63
63 63 63
63 63 63
63 63 63
63 63 63
63 63 63
63 63 63
63 63 63
63 63 63
63 63 63
63 63 63
63 63 63
63 63 63
63 63 63
63 63 63
63 63 63
63 63 63
63 63 63
63 63 63
63 63 63
63 63 63
63 63 63
63 63 63
63 63 63
63 63 63
63 63 63
63 63 63
63 63 63
63 63 63
63 63 63
63 63 63
63 63 63
63 63 63
63 63 63
63 63 63
63 63 63
63 63 63
63 63 63
63 63 63
63 63 63
63 63 63
63 63 63
63 63 63
63 63 63
63 63 63
63 63 63
63 63 63
63 63 63
63 63 63
63 63 63
63 63 63
63 63 63
63 63 63
63 63 63
63 63 63
63 63 63
63 63 63
63 63 63
63 63 63
63 63 63
63 63 63
63 63 63
63 63 63
63 63 63
63 63 63
63 63 63
63 63 63
63 63 63
63 63 63
63 63 63
63 63 63
63 63 63
63 63 63
63 63 63
63 63 63
63 63 63
63 63 63
63 63 63
63 63 63
63 63 63
63 63 63
63 63 63
63 63 63
63 63 63
63 63 63
63 63 63
63 63 63
63 63 63
63 63 63
63 63 63
63 63 63
63 63 63
63 63 63
63 63 63
63 63 63
63 63 63
63 63 63
63 63 63
63 63 63
63 63 63
63 63 63
63 63 63
63 63 63
63 63 63
63 63 63
63 63 63
63 63 63
63 63 63
63 63 63
63 63 63
63 63 63
63 63 63
63 63 63
63 63 63
63 63 63
63 63 63
63 63 63
63 63 63
63 63 63
63 63 63
63 63 63
63 63 63
63 63 63
63 63 63
63 63 63
63 63 63
63 63 63
63 63 63
63 63 63
63 63 63
63 63 63
63 63 63
63 63 63
63 63 63
63 63 63
63 63 63
63 63 63
63 63 63
63 63 63
63 63 63
63 63 63
63 63 63
63 63 63
63 63 63
63 63 63
63 63 63
63 63 63
63 63 63
63 63 63
63 63 63
63 63 63
63 63 63
63 63 63
63 63 63
63 63 63
63 63 63
63 63 63
63 63 63
63 63 63
63 63 63
63 63 63
63 63 63
63 63 63
63 63 63
63 63 63
63 63 63
63 63 63
63 63 63
63 63 63
63 63 63
63 63 63
63 63 63
63 63 63
63 63 63
63 63 63
63 63 63
63 63 63
63 63 63
63 63 63
63 63 63
63 63 63
63 63 63
63 63 63
63 63 63
63 63 63
63 63 63
63 63 63
63 63 63
63 63 63
63 63 63
63 63 63
63 63 63
63 63 63
63 63 63
63 63 63
63 63 63
63 63 63
63 63 63
63 63 63
63 63 63
63 63 63
63 63 63
63 63 63
63 63 63
63 63 63
63 63 63
63 63 63
63 63 63
63 63 63
63 63 63
63 63 63
63 63 63
63 63 63
63 63 63
63 63 63
63 63 63
63 63 63
63 63 63
63 63 63
63 63 63
63 63 63
63 63 63
63 63 63
63 63 63
63 63 63
63 63 63
63 63 63
63 63 63
63 63 63
63 63 63
63 63 63
63 63 63
63 63 63
63 63 63
63 63 63
63 63 63
63 63 63
63 63 63
63 63 63
63 63 63
63 63 63
63 63 63
63 63 63
63 63 63
63 63 63
63 63 63
63 63 63
63 63 63
63 63 63
63 63 63
63 63 63
63 63 63
63 63 63
63 63 63
63 63 63
63 63 63
63 63 63
63 63 63
63 63 63
63 63 63
63 63 63
63 63 63
63 63 63
63 63 63
63 63 63
63 63 63
63 63 63
63 63 63
63 63 63
63 63 63
63 63 63
63 63 63
63 63 63
63 63 63
63 63 63
63 63 63
63 63 63
63 63 63
63 63 63
63 63 63
63 63 63
63 63 63
63 63 63
63 63 63
63 63 63
63 63 63
63 63 63
63 63 63
63 63 63
63 63 63
63 63 63
63 63 63
63 63 63
63 63 63
63 63 63
63 63 63
63 63 63
63 63 63
63 63 63
63 63 63
63 63 63
63 63 63
63 63 63
63 63 63
63 63 63
63 63 63
63 63 63
63 63 63
63 63 63
63 63 63
63 63 63
63 63 63
63 63 63
63 63 63
63 63 63
63 63 63
63 63 63
63 63 63
63 63 63
63 63 63
63 63 63
63 63 63
63 63 63
63 63 63
63 63 63
63 63 63
63 63 63
63 63 63
63 63 63
63 63 63
63 63 63
63 63 63
63 63 63
63 63 63
63 63 63
63 63 63
63 63 63
63 63 63
63 63 63
63 63 63
63 63 63
63 63 63
63 63 63
63 63 63
63 63 63
63 63 63
63 63 63
63 63 63
63 63 63
63 63 63
63 63 63
63 63 63
63 63 63
63 63 63
63 63 63
63 63 63
63 63 63
63 63 63
63 63 63
63 63 63
63 63 63
63 63 63
63 63 63
63 63 63
63 63 63
63 63 63
63 63 63
63 63 63
63 63 63
63 63 63
63 63 63
63 63 63
63 63 63
63 63 63
63 63 63
63 63 63
63 63 63
63 63 63
63 63 63
63 63 63
63 63 63
63 63 63
63 63 63
63 63 63
63 63 63
63 63 63
63 63 63
63 63 63
63 63 63
63 63 63
63 63 63
63 63 63
63 63 63
63 63 63
63 63 63
63 63 63
63 63 63
63 63 63
63 63 63
63 63 63
63 63 63
63 63 63
63 63 63
63 63 63
63 63 63
63 63 63
63 63 63
63 63 63
63 63 63
63 63 63
63 63 63
63 63 63
63 63 63
63 63 63
63 63 63
63 63 63
63 63 63
63 63 63
63 63 63
63 63 63
63 63 63
63 63 63
63 63 63
63 63 63
63 63 63
63 63 63
63 63 63
63 63 63
63 63 63
63 63 63
63 63 63
63 63 63
63 63 63
63 63 63
63 63 63
63 63 63
63 63 63
63 63 63
63 63 63
63 63 63
63 63 63
63 63 63
63 63 63
63 63 63
63 63 63
63 63 63
63 63 63
63 63 63
63 63 63
63 63 63
63 63 63
63 63 63
63 63 63
63 63 63
63 63 63
63 63 63
63 63 63
63 63 63
63 63 63
63 63 63
63 63 63
63 63 63
63 63 63
63 63 63
63 63 63
63 63 63
63 63 63
63 63 63
63 63 63
63 63 63
63 63 63
63 63 63
63 63 63
63 63 63
63 63 63
63 63 63
63 63 63
63 63 63
63 63 63
63 63 63
63 63 63
63 63 63
63 63 63
63 63 63
63 63 63
63 63 63
63 63 63
63 63 63
63 63 63
63 63 63
63 63 63
63 63 63
63 63 63
63 63 63
63 63 63
63 63 63
63 63 63
63 63 63
63 63 63
63 63 63
63 63 63
63 63 63
63 63 63
63 63 63
63 63 63
63 63 63
63 63 63
63 63 63
63 63 63
63 63 63
63 63 63
63 63 63
63 63 63
63 63 63
63 63 63
63 63 63
63 63 63
63 63 63
63 63 63
63 63 63
63 63 63
63 63 63
63 63 63
63 63 63
63 63 63
63 63 63
63 63 63
63 63 63
63 63 63
63 63 63
63 63 63
63 63 63
63 63 63
63 63 63
63 63 63
63 63 63
63 63 63
63 63 63
63 63 63
63 63 63
63 63 63
63 63 63
63 63 63
63 63 63
63 63 63
63 63 63
63 63 63
63 63 63
63 63 63
63 63 63
63 63 63
63 63 63
63 63 63
63 63 63
63 63 63
63 63 63
63 63 63
63 63 63
63 63 63
63 63 63
63 63 63
63 63 63
63 63 63
63 63 63
63 63 63
63 63 63
63 63 63
63 63 63
63 63 63
63 63 63
63 63 63
63 63 63
63 63 63
63 63 63
63 63 63
63 63 63
63 63 63
63 63 63
63 63 63
63 63 63
63 63 63
63 63 63
63 63 63
63 63 63
63 63 63
63 63 63
63 63 63
63 63 63
63 63 63
63 63 63
63 63 63
63 63 63
63 63 63
63 63 63
63 63 63
63 63 63
63 63 63
63 63 63
63 63 63
63 63 63
63 63 63
63 63 63
63 63 63
63 63 63
63 63 63
63 63 63
63 63 63
63 63 63
63 63 63
63 63 63
63 63 63
63 63 63
63 63 63
63 63 63
63 63 63
63 63 63
63 63 63
63 63 63
63 63 63
63 63 63
63 63 63
63 63 63
63 63 63
63 63 63
63 63 63
63 63 63
63 63 63
63 63 63
63 63 63
63 63 63
63 63 63
63 63 63
63 63 63
63 63 63
63 63 63
63 63 63
63 63 63
63 63 63
63 63 63
63 63 63
63 63 63
63 63 63
63 63 63
63 63 63
63 63 63
63 63 63
63 63 63
63 63 63
63 63 63
63 63 63
63 63 63
63 63 63
63 63 63
63 63 63
63 63 63
63 63 63
63 63 63
63 63 63
63 63 63
63 63 63
63 63 63
63 63 63
63 63 63
63 63 63
63 63 63
63 63 63
63 63 63
63 63 63
63 63 63
63 63 63
63 63 63
63 63 63
63 63 63
63 63 63
63 63 63
63 63 63
63 63 63
63 63 63
63 63 63
63 63 63
63 63 63
63 63 63
63 63 63
63 63 63
63 63 63
63 63 63
63 63 63
63 63 63
63 63 63
63 63 63
63 63 63
63 63 63
63 63 63
63 63 63
63 63 63
63 63 63
63 63 63
63 63 63
63 63 63
63 63 63
63 63 63
63 63 63
63 63 63
63 63 63
63 63 63
63 63 63
63 63 63
63 63 63
63 63 63
63 63 63
63 63 63
63 63 63
63 63 63
63 63 63
63 63 63
63 63 63
63 63 63
63 63 63
63 63 63
63 63 63
63 63 63
63 63 63
63 63 63
63 63 63
63 63 63
63 63 63
63 63 63
63 63 63
63 63 63
63 63 63
63 63 63
63 63 63
63 63 63
63 63 63
63 63 63
63 63 63
63 63 63
63 63 63
63 63 63
63 63 63
63 63 63
63 63 63
63 63 63
63 63 63
63 63 63
63 63 63
63 63 63
63 63 63
63 63 63
63 63 63
63 63 63
63 63 63
63 63 63
63 63 63
63 63 63
63 63 63
63 63 63
63 63 63
63 63 63
63 63 63
63 63 63
63 63 63
63 63 63
63 63 63
63 63 63
63 63 63
63 63 63
63 63 63
63 63 63
63 63 63
63 63 63
63 63 63
63 63 63
63 63 63
63 63 63
63 63 63
63 63 63
63 63 63
63 63 63
63 63 63
63 63 63
63 63 63
63 63 63
63 63 63
63 63 63
63 63 63
63 63 63
63 63 63
63 63 63
63 63 63
63 63 63
63 63 63
63 63 63
63 63 63
63 63 63
63 63 63
63 63 63
63 63 63
63 63 63
63 63 63
63 63 63
63 63 63
63 63 63
63 63 63
63 63 63
63 63 63
63 63 63
63 63 63
63 63 63
63 63 63
63 63 63
63 63 63
63 63 63
63 63 63
63 63 63
63 63 63
63 63 63
63 63 63
63 63 63
63 63 63
63 63 63
63 63 63
63 63 63
63 63 63
63 63 63
63 63 63
63 63 63
63 63 63
63 63 63
63 63 63
63 63 63
63 63 63
63 63 63
63 63 63
63 63 63
63 63 63
63 63 63
63 63 63
63 63 63
63 63 63
63 63 63
63 63 63
63 63 63
63 63 63
63 63 63
63 63 63
63 63 63
63 63 63
63 63 63
63 63 63
63 63 63
63 63 63
63 63 63
63 63 63
63 63 63
63 63 63
63 63 63
63 63 63
63 63 63
63 63 63
63 63 63
63 63 63
63 63 63
63 63 63
63 63 63
63 63 63
63 63 63
63 63 63
63 63 63
63 63 63
63 63 63
63 63 63
63 63 63
63 63 63
63 63 63
63 63 63
63 63 63
63 63 63
63 63 63
63 63 63
63 63 63
63 63 63
63 63 63
63 63 63
63 63 63
63 63 63
63 63 63
63 63 63
63 63 63
63 63 63
63 63 63
63 63 63
63 63 63
63 63 63
63 63 63
63 63 63
63 63 63
63 63 63
63 63 63
63 63 63
63 63 63
63 63 63
63 63 63
63 63 63
63 63 63
63 63 63
63 63 63
63 63 63
63 63 63
63 63 63
63 63 63
63 63 63
63 63 63
63 63 63
63 63 63
63 63 63
63 63 63
63 63 63
63 63 63
63 63 63
63 63 63
63 63 63
63 63 63
63 63 63
63 63 63
63 63 63
63 63 63
63 63 63
63 63 63
63 63 63
63 63 63
63 63 63
63 63 63
63 63 63
63 63 63
63 63 63
63 63 63
63 63 63
63 63 63
63 63 63
63 63 63
63 63 63
63 63 63
63 63 63
63 63 63
63 63 63
63 63 63
63 63 63
63 63 63
63 63 63
63 63 63
63 63 63
63 63 63
63 63 63
63 63 63
63 63 63
63 63 63
63 63 63
63 63 63
63 63 63
63 63 63
63 63 63
63 63 63
63 63 63
63 63 63
63 63 63
63 63 63
63 63 63
63 63 63
63 63 63
63 63 63
63 63 63
63 63 63
63 63 63
63 63 63
63 63 63
63 63 63
63 63 63
63 63 63
63 63 63
63 63 63
63 63 63
63 63 63
63 63 63
63 63 63
63 63 63
63 63 63
63 63 63
63 63 63
63 63 63
63 63 63
63 63 63
63 63 63
63 63 63
63 63 63
63 63 63
63 63 63
63 63 63
63 63 63
63 63 63
63 63 63
63 63 63
63 63 63
63 63 63
63 63 63
63 63 63
63 63 63
63 63 63
63 63 63
63 63 63
63 63 63
63 63 63
63 63 63
63 63 63
63 63 63
63 63 63
63 63 63
63 63 63
63 63 63
63 63 63
63 63 63
63 63 63
63 63 63
63 63 63
63 63 63
63 63 63
63 63 63
63 63 63
63 63 63
63 63 63
63 63 63
63 63 63
63 63 63
63 63 63
63 63 63
63 63 63
63 63 63
63 63 63
63 63 63
63 63 63
63 63 63
63 63 63
63 63 63
63 63 63
63 63 63
63 63 63
63 63 63
63 63 63
63 63 63
63 63 63
63 63 63
63 63 63
63 63 63
63 63 63
63 63 63
63 63 63
63 63 63
63 63 63
63 63 63
63 63 63
63 63 63
63 63 63
63 63 63
63 63 63
63 63 63
63 63 63
63 63 63
63 63 63
63 63 63
63 63 63
63 63 63
63 63 63
63 63 63
63 63 63
63 63 63
63 63 63
63 63 63
63 63 63
63 63 63
63 63 63
63 63 63
63 63 63
63 63 63
63 63 63
63 63 63
63 63 63
63 63 63
63 63 63
63 63 63
63 63 63
63 63 63
63 63 63
63 63 63
63 63 63
63 63 63
63 63 63
63 63 63
63 63 63
63 63 63
63 63 63
63 63 63
63 63 63
63 63 63
63 63 63
63 63 63
63 63 63
63 63 63
63 63 63
63 63 63
63 63 63
63 63 63
63 63 63
63 63 63
63 63 63
63 63 63
63 63 63
63 63 63
63 63 63
63 63 63
63 63 63
63 63 63
63 63 63
63 63 63
63 63 63
63 63 63
63 63 63
63 63 63
63 63 63
63 63 63
63 63 63
63 63 63
63 63 63
63 63 63
63 63 63
63 63 63
63 63 63
63 63 63
63 63 63
63 63 63
63 63 63
63 63 63
63 63 63
63 63 63
63 63 63
63 63 63
63 63 63
63 63 63
63 63 63
63 63 63
63 63 63
63 63 63
63 63 63
63 63 63
63 63 63
63 63 63
63 63 63
63 63 63
63 63 63
63 63 63
63 63 63
63 63 63
63 63 63
63 63 63
63 63 63
63 63 63
63 63 63
63 63 63
63 63 63
63 63 63
63 63 63
63 63 63
63 63 63
63 63 63
63 63 63
63 63 63
63 63 63
63 63 63
63 63 63
63 63 63
63 63 63
63 63 63
63 63 63
63 63 63
63 63 63
63 63 63
63 63 63
63 63 63
63 63 63
63 63 63
63 63 63
63 63 63
63 63 63
63 63 63
63 63 63
63 63 63
63 63 63
63 63 63
63 63 63
63 63 63
63 63 63
63 63 63
63 63 63
63 63 63
63 63 63
63 63 63
63 63 63
63 63 63
63 63 63
63 63 63
63 63 63
63 63 63
63 63 63
63 63 63
63 63 63
63 63 63
63 63 63
63 63 63
63 63 63
63 63 63
63 63 63
63 63 63
63 63 63
63 63 63
63 63 63
63 63 63
63 63 63
63 63 63
63 63 63
63 63 63
63 63 63
63 63 63
63 63 63
63 63 63
63 63 63
63 63 63
63 63 63
63 63 63
63 63 63
63 63 63
63 63 63
63 63 63
63 63 63
63 63 63
63 63 63
63 63 63
63 63 63
63 63 63
63 63 63
63 63 63
63 63 63
63 63 63
63 63 63
63 63 63
63 63 63
63 63 63
63 63 63
63 63 63
63 63 63
63 63 63
63 63 63
63 63 63
63 63 63
63 63 63
63 63 63
63 63 63
63 63 63
63 63 63
63 63 63
63 63 63
63 63 63
63 63 63
63 63 63
63 63 63
63 63 63
63 63 63
63 63 63
63 63 63
63 63 63
63 63 63
63 63 63
63 63 63
63 63 63
63 63 63
63 63 63
63 63 63
63 63 63
63 63 63
63 63 63
63 63 63
63 63 63
63 63 63
63 63 63
63 63 63
63 63 63
63 63 63
63 63 63
63 63 63
63 63 63
63 63 63
63 63 63
63 63 63
63 63 63
63 63 63
63 63 63
63 63 63
63 63 63
63 63 63
63 63 63
63 63 63
63 63 63
63 63 63
63 63 63
63 63 63
63 63 63
63 63 63
63 63 63
63 63 63
63 63 63
63 63 63
63 63 63
63 63 63
63 63 63
63 63 63
63 63 63
63 63 63
63 63 63
63 63 63
63 63 63
63 63 63
63 63 63
63 63 63
63 63 63
63 63 63
63 63 63
63 63 63
63 63 63
63 63 63
63 63 63
63 63 63
63 63 63
63 63 63
63 63 63
63 63 63
63 63 63
63 63 63
63 63 63
63 63 63
63 63 63
63 63 63
63 63 63
63 63 63
63 63 63
63 63 63
63 63 63
63 63 63
63 63 63
63 63 63
63 63 63
63 63 63
63 63 63
63 63 63
63 63 63
63 63 63
63 63 63
63 63 63
63 63 63
63 63 63
63 63 63
63 63 63
63 63 63
63 63 63
63 63 63
63 63 63
63 63 63
63 63 63
63 63 63
63 63 63
63 63 63
63 63 63
63 63 63
63 63 63
63 63 63
63 63 63
63 63 63
63 63 63
63 63 63
63 63 63
63 63 63
63 63 63
63 63 63
63 63 63
63 63 63
63 63 63
63 63 63
63 63 63
63 63 63
63 63 63
63 63 63
63 63 63
63 63 63
63 63 63
63 63 63
63 63 63
63 63 63
63 63 63
63 63 63
63 63 63
63 63 63
63 63 63
63 63 63
63 63 63
63 63 63
63 63 63
63 63 63
63 63 63
63 63 63
63 63 63
63 63 63
63 63 63
63 63 63
63 63 63
63 63 63
63 63 63
63 63 63
63 63 63
63 63 63
63 63 63
63 63 63
63 63 63
63 63 63
63 63 63
63 63 63
63 63 63
63 63 63
63 63 63
63 63 63
63 63 63
63 63 63
63 63 63
63 63 63
63 63 63
63 63 63
63 63 63
63 63 63
63 63 63
63 63 63
63 63 63
63 63 63
63 63 63
63 63 63
63 63 63
63 63 63
63 63 63
63 63 63
63 63 63
63 63 63
63 63 63
63 63 63
63 63 63
63 63 63
63 63 63
63 63 63
63 63 63
63 63 63
63 63 63
63 63 63
63 63 63
63 63 63
63 63 63
63 63 63
63 63 63
63 63 63
63 63 63
63 63 63
63 63 63
63 63 63
63 63 63
63 63 63
63 63 63
63 63 63
63 63 63
63 63 63
63 63 63
63 63 63
63 63 63
63 63 63
63 63 63
63 63 63
63 63 63
63 63 63
63 63 63
63 63 63
63 63 63
63 63 63
63 63 63
63 63 63
63 63 63
63 63 63
63 63 63
63 63 63
63 63 63
63 63 63
63 63 63
63 63 63
63 63 63
63 63 63
63 63 63
63 63 63
63 63 63
63 63 63
63 63 63
63 63 63
63 63 63
63 63 63
63 63 63
63 63 63
63 63 63
63 63 63
63 63 63
63 63 63
63 63 63
63 63 63
63 63 63
63 63 63
63 63 63
63 63 63
63 63 63
63 63 63
63 63 63
63 63 63
63 63 63
63 63 63
63 63 63
63 63 63
63 63 63
63 63 63
63 63 63
63 63 63
63 63 63
63 63 63
63 63 63
63 63 63
63 63 63
63 63 63
63 63 63
63 63 63
63 63 63
63 63 63
63 63 63
63 63 63
63 63 63
63 63 63
63 63 63
63 63 63
63 63 63
63 63 63
63 63 63
63 63 63
63 63 63
63 63 63
63 63 63
63 63 63
63 63 63
63 63 63
63 63 63
63 63 63
63 63 63
63 63 63
63 63 63
63 63 63
63 63 63
63 63 63
63 63 63
63 63 63
63 63 63
63 63 63
63 63 63
63 63 63
63 63 63
63 63 63
63 63 63
63 63 63
63 63 63
63 63 63
63 63 63
63 63 63
63 63 63
63 63 63
63 63 63
63 63 63
63 63 63
63 63 63
63 63 63
63 63 63
63 63 63
63 63 63
63 63 63
63 63 63
63 63 63
63 63 63
63 63 63
63 63 63
63 63 63
63 63 63
63 63 63
63 63 63
63 63 63
63 63 63
63 63 63
63 63 63
63 63 63
63 63 63
63 63 63
63 63 63
63 63 63
63 63 63
63 63 63
63 63 63
63 63 63
63 63 63
63 63 63
63 63 63
63 63 63
63 63 63
63 63 63
63 63 63
63 63 63
63 63 63
63 63 63
63 63 63
63 63 63
63 63 63
63 63 63
63 63 63
63 63 63
63 63 63
63 63 63
63 63 63
63 63 63
63 63 63
63 63 63
63 63 63
63 63 63
63 63 63
63 63 63
63 63 63
63 63 63
63 63 63
63 63 63
63 63 63
63 63 63
63 63 63
63 63 63
63 63 63
63 63 63
63 63 63
63 63 63
63 63 63
63 63 63
63 63 63
63 63 63
63 63 63
63 63 63
63 63 63
63 63 63
63 63 63
63 63 63
63 63 63
63 63 63
63 63 63
63 63 63
63 63 63
63 63 63
63 63 63
63 63 63
63 63 63
63 63 63
63 63 63
63 63 63
63 63 63
63 63 63
63 63 63
63 63 63
63 63 63
63 63 63
63 63 63
63 63 63
63 63 63
63 63 63
63 63 63
63 63 63
63 63 63
63 63 63
63 63 63
63 63 63
63 63 63
63 63 63
63 63 63
63 63 63
63 63 63
63 63 63
63 63 63
63 63 63
63 63 63
63 63 63
63 63 63
63 63 63
63 63 63
63 63 63
63 63 63
63 63 63
63 63 63
63 63 63
63 63 63
63 63 63
63 63 63
63 63 63
63 63 63
63 63 63
63 63 63
63 63 63
63 63 63
63 63 63
63 63 63
63 63 63
63 63 63
63 63 63
63 63 63
63 63 63
63 63 63
63 63 63
63 63 63
63 63 63
63 63 63
63 63 63
63 63 63
63 63 63
63 63 63
63 63 63
63 63 63
63 63 63
63 63 63
63 63 63
63 63 63
63 63 63
63 63 63
63 63 63
63 63 63
63 63 63
63 63 63
63 63 63
63 63 63
63 63 63
63 63 63
63 63 63
63 63 63
63 63 63
63 63 63
63 63 63
63 63 63
63 63 63
63 63 63
63 63 63
63 63 63
63 63 63
63 63 63
63 63 63
63 63 63
63 63 63
63 63 63
63 63 63
63 63 63
63 63 63
63 63 63
63 63 63
63 63 63
63 63 63
63 63 63
63 63 63
63 63 63
63 63 63
63 63 63
63 63 63
63 63 63
63 63 63
63 63 63
63 63 63
63 63 63
63 63 63
63 63 63
63 63 63
63 63 63
63 63 63
63 63 63
63 63 63
63 63 63
63 63 63
63 63 63
63 63 63
63 63 63
63 63 63
63 63 63
63 63 63
63 63 63
63 63 63
63 63 63
63 63 63
63 63 63
63 63 63
63 63 63
63 63 63
63 63 63
63 63 63
63 63 63
63 63 63
63 63 63
63 63 63
63 63 63
63 63 63
63 63 63
63 63 63
63 63 63
63 63 63
63 63 63
63 63 63
63 63 63
63 63 63
63 63 63
63 63 63
63 63 63
63 63 63
63 63 63
63 63 63
63 63 63
63 63 63
63 63 63
63 63 63
63 63 63
63 63 63
63 63 63
63 63 63
63 63 63
63 63 63
63 63 63
63 63 63
63 63 63
63 63 63
63 63 63
63 63 63
63 63 63
63 63 63
63 63 63
63 63 63
63 63 63
63 63 63
63 63 63
63 63 63
63 63 63
63 63 63
63 63 63
63 63 63
63 63 63
63 63 63
63 63 63
63 63 63
63 63 63
63 63 63
63 63 63
63 63 63
63 63 63
63 63 63
63 63 63
63 63 63
63 63 63
63 63 63
63 63 63
63 63 63
63 63 63
63 63 63
63 63 63
63 63 63
63 63 63
63 63 63
63 63 63
63 63 63
63 63 63
63 63 63
63 63 63
63 63 63
63 63 63
63 63 63
63 63 63
63 63 63
63 63 63
63 63 63
63 63 63
63 63 63
63 63 63
63 63 63
63 63 63
63 63 63
63 63 63
63 63 63
63 63 63
63 63 63
63 63 63
63 63 63
63 63 63
63 63 63
63 63 63
63 63 63
63 63 63
63 63 63
63 63 63
63 63 63
63 63 63
63 63 63
63 63 63
63 63 63
63 63 63
63 63 63
63 63 63
63 63 63
63 63 63
63 63 63
63 63 63
63 63 63
63 63 63
63 63 63
63 63 63
63 63 63
63 63 63
63 63 63
63 63 63
63 63 63
63 63 63
63 63 63
63 63 63
63 63 63
63 63 63
63 63 63
63 63 63
63 63 63
63 63 63
63 63 63
63 63 63
63 63 63
63 63 63
63 63 63
63 63 63
63 63 63
63 63 63
63 63 63
63 63 63
63 63 63
63 63 63
63 63 63
63 63 63
63 63 63
63 63 63
63 63 63
63 63 63
63 63 63
63 63 63
63 63 63
63 63 63
63 63 63
63 63 63
63 63 63
63 63 63
63 63 63
63 63 63
63 63 63
63 63 63
63 63 63
63 63 63
63 63 63
63 63 63
63 63 63
63 63 63
63 63 63
63 63 63
63 63 63
63 63 63
63 63 63
63 63 63
63 63 63
63 63 63
63 63 63
63 63 63
63 63 63
63 63 63
63 63 63
63 63 63
63 63 63
63 63 63
63 63 63
63 63 63
63 63 63
63 63 63
63 63 63
63 63 63
63 63 63
63 63 63
63 63 63
63 63 63
63 63 63
63 63 63
63 63 63
63 63 63
63 63 63
63 63 63
63 63 63
63 63 63
63 63 63
63 63 63
63 63 63
63 63 63
63 63 63
63 63 63
63 63 63
63 63 63
63 63 63
63 63 63
63 63 63
63 63 63
63 63 63
63 63 63
63 63 63
63 63 63
63 63 63
63 63 63
63 63 63
63 63 63
63 63 63
63 63 63
63 63 63
63 63 63
63 63 63
63 63 63
63 63 63
63 63 63
63 63 63
63 63 63
63 63 63
63 63 63
63 63 63
63 63 63
63 63 63
63 63 63
63 63 63
63 63 63
63 63 63
63 63 63
63 63 63
63 63 63
63 63 63
63 63 63
63 63 63
63 63 63
63 63 63
63 63 63
63 63 63
63 63 63
63 63 63
63 63 63
63 63 63
63 63 63
63 63 63
63 63 63
63 63 63
63 63 63
63 63 63
63 63 63
63 63 63
63 63 63
63 63 63
63 63 63
63 63 63
63 63 63
63 63 63
63 63 63
63 63 63
63 63 63
63 63 63
63 63 63
63 63 63
63 63 63
63 63 63
63 63 63
63 63 63
63 63 63
63 63 63
63 63 63
63 63 63
63 63 63
63 63 63
63 63 63
63 63 63
63 63 63
63 63 63
63 63 63
63 63 63
63 63 63
63 63 63
63 63 63
63 63 63
63 63 63
63 63 63
63 63 63
63 63 63
63 63 63
63 63 63
63 63 63
63 63 63
63 63 63
63 63 63
63 63 63
63 63 63
63 63 63
63 63 63
63 63 63
63 63 63
63 63 63
63 63 63
63 63 63
63 63 63
63 63 63
63 63 63
63 63 63
63 63 63
63 63 63
63 63 63
63 63 63
63 63 63
63 63 63
63 63 63
63 63 63
63 63 63
63 63 63
63 63 63
63 63 63
63 63 63
63 63 63
63 63 63
63 63 63
63 63 63
63 63 63
63 63 63
63 63 63
63 63 63
63 63 63
63 63 63
63 63 63
63 63 63
63 63 63
63 63 63
63 63 63
63 63 63
63 63 63
63 63 63
63 63 63
63 63 63
63 63 63
63 63 63
63 63 63
63 63 63
63 63 63
63 63 63
63 63 63
63 63 63
63 63 63
63 63 63
63 63 63
63 63 63
63 63 63
63 63 63
63 63 63
63 63 63
63 63 63
63 63 63
63 63 63
63 63 63
63 63 63
63 63 63
63 63 63
63 63 63
63 63 63
63 63 63
63 63 63
63 63 63
63 63 63
63 63 63
63 63 63
63 63 63
63 63 63
63 63 63
63 63 63
63 63 63
63 63 63
63 63 63
63 63 63
63 63 63
63 63 63
63 63 63
63 63 63
63 63 63
63 63 63
63 63 63
63 63 63
63 63 63
63 63 63
63 63 63
63 63 63
63 63 63
63 63 63
63 63 63
63 63 63
63 63 63
63 63 63
63 63 63
63 63 63
63 63 63
63 63 63
63 63 63
63 63 63
63 63 63
63 63 63
63 63 63
63 63 63
63 63 63
63 63 63
63 63 63
63 63 63
63 63 63
63 63 63
63 63 63
63 63 63
63 63 63
63 63 63
63 63 63
63 63 63
63 63 63
63 63 63
63 63 63
63 63 63
63 63 63
63 63 63
63 63 63
63 63 63
63 63 63
63 63 63
63 63 63
63 63 63
63 63 63
63 63 63
63 63 63
63 63 63
63 63 63
63 63 63
63 63 63
63 63 63
63 63 63
63 63 63
63 63 63
63 63 63
63 63 63
63 63 63
63 63 63
63 63 63
63 63 63
63 63 63
63 63 63
63 63 63
63 63 63
63 63 63
63 63 63
63 63 63
63 63 63
63 63 63
63 63 63
63 63 63
63 63 63
63 63 63
63 63 63
63 63 63
63 63 63
63 63 63
63 63 63
63 63 63
63 63 63
63 63 63
63 63 63
63 63 63
63 63 63
63 63 63
63 63 63
63 63 63
63 63 63
63 63 63
63 63 63
63 63 63
63 63 63
63 63 63
63 63 63
63 63 63
63 63 63
63 63 63
63 63 63
63 63 63
63 63 63
63 63 63
63 63 63
63 63 63
63 63 63
63 63 63
63 63 63
63 63 63
63 63 63
63 63 63
63 63 63
63 63 63
63 63 63
63 63 63
63 63 63
63 63 63
63 63 63
63 63 63
63 63 63
63 63 63
63 63 63
63 63 63
63 63 63
63 63 63
63 63 63
63 63 63
63 63 63
63 63 63
63 63 63
63 63 63
63 63 63
63 63 63
63 63 63
63 63 63
63 63 63
63 63 63
63 63 63
63 63 63
63 63 63
63 63 63
63 63 63
63 63 63
63 63 63
63 63 63
63 63 63
63 63 63
63 63 63
63 63 63
63 63 63
63 63 63
63 63 63
63 63 63
63 63 63
63 63 63
63 63 63
63 63 63
63 63 63
63 63 63
63 63 63
63 63 63
63 63 63
63 63 63
63 63 63
63 63 63
63 63 63
63 63 63
63 63 63
63 63 63
63 63 63
63 63 63
63 63 63
63 63 63
63 63 63
63 63 63
63 63 63
63 63 63
63 63 63
63 63 63
63 63 63
63 63 63
63 63 63
63 63 63
63 63 63
63 63 63
63 63 63
63 63 63
63 63 63
63 63 63
63 63 63
63 63 63
63 63 63
63 63 63
63 63 63
63 63 63
63 63 63
63 63 63
63 63 63
63 63 63
63 63 63
63 63 63
63 63 63
63 63 63
63 63 63
63 63 63
63 63 63
63 63 63
63 63 63
63 63 63
63 63 63
63 63 63
63 63 63
63 63 63
63 63 63
63 63 63
63 63 63
63 63 63
63 63 63
63 63 63
63 63 63
63 63 63
63 63 63
63 63 63
63 63 63
63 63 63
63 63 63
63 63 63
63 63 63
63 63 63
63 63 63
63 63 63
63 63 63
63 63 63
63 63 63
63 63 63
63 63 63
63 63 63
63 63 63
63 63 63
63 63 63
63 63 63
63 63 63
63 63 63
63 63 63
63 63 63
63 63 63
63 63 63
63 63 63
63 63 63
63 63 63
63 63 63
63 63 63
63 63 63
63 63 63
63 63 63
63 63 63
63 63 63
63 63 63
63 63 63
63 63 63
63 63 63
63 63 63
63 63 63
63 63 63
63 63 63
63 63 63
63 63 63
63 63 63
63 63 63
63 63 63
63 63 63
63 63 63
63 63 63
63 63 63
63 63 63
63 63 63
63 63 63
63 63 63
63 63 63
63 63 63
63 63 63
63 63 63
63 63 63
63 63 63
63 63 63
63 63 63
63 63 63
63 63 63
63 63 63
63 63 63
63 63 63
63 63 63
63 63 63
63 63 63
63 63 63
63 63 63
63 63 63
63 63 63
63 63 63
63 63 63
63 63 63
63 63 63
63 63 63
63 63 63
63 63 63
63 63 63
63 63 63
63 63 63
63 63 63
63 63 63
63 63 63
63 63 63
63 63 63
63 63 63
63 63 63
63 63 63
63 63 63
63 63 63
63 63 63
63 63 63
63 63 63
63 63 63
63 63 63
63 63 63
63 63 63
63 63 63
63 63 63
63 63 63
63 63 63
63 63 63
63 63 63
63 63 63
63 63 63
63 63 63
63 63 63
63 63 63
63 63 63
63 63 63
63 63 63
63 63 63
63 63 63
63 63 63
63 63 63
63 63 63
63 63 63
63 63 63
63 63 63
63 63 63
63 63 63
63 63 63
63 63 63
63 63 63
63 63 63
63 63 63
63 63 63
63 63 63
63 63 63
63 63 63
63 63 63
63 63 63
63 63 63
63 63 63
63 63 63
63 63 63
63 63 63
63 63 63
63 63 63
63 63 63
63 63 63
63 63 63
63 63 63
63 63 63
63 63 63
63 63 63
63 63 63
63 63 63
63 63 63
63 63 63
63 63 63
63 63 63
63 63 63
63 63 63
63 63 63
63 63 63
63 63 63
63 63 63
63 63 63
63 63 63
63 63 63
63 63 63
63 63 63
63 63 63
63 63 63
63 63 63
63 63 63
63 63 63
63 63 63
63 63 63
63 63 63
63 63 63
63 63 63
63 63 63
63 63 63
63 63 63
63 63 63
63 63 63
63 63 63
63 63 63
63 63 63
63 63 63
63 63 63
63 63 63
63 63 63
63 63 63
63 63 63
63 63 63
63 63 63
63 63 63
63 63 63
63 63 63
63 63 63
63 63 63
63 63 63
63 63 63
63 63 63
63 63 63
63 63 63
63 63 63
63 63 63
63 63 63
63 63 63
63 63 63
63 63 63
63 63 63
63 63 63
63 63 63
63 63 63
63 63 63
63 63 63
63 63 63
63 63 63
63 63 63
63 63 63
63 63 63
63 63 63
63 63 63
63 63 63
63 63 63
63 63 63
63 63 63
63 63 63
63 63 63
63 63 63
63 63 63
63 63 63
63 63 63
63 63 63
63 63 63
63 63 63
63 63 63
63 63 63
63 63 63
63 63 63
63 63 63
63 63 63
63 63 63
63 63 63
63 63 63
63 63 63
63 63 63
63 63 63
63 63 63
63 63 63
63 63 63
63 63 63
63 63 63
63 63 63
63 63 63
63 63 63
63 63 63
63 63 63
63 63 63
63 63 63
63 63 63
63 63 63
63 63 63
63 63 63
63 63 63
63 63 63
63 63 63
63 63 63
63 63 63
63 63 63
63 63 63
63 63 63
63 63 63
63 63 63
63 63 63
63 63 63
63 63 63
63 63 63
63 63 63
63 63 63
63 63 63
63 63 63
63 63 63
63 63 63
63 63 63
63 63 63
63 63 63
63 63 63
63 63 63
63 63 63
63 63 63
63 63 63
63 63 63
63 63 63
63 63 63
63 63 63
63 63 63
63 63 63
63 63 63
63 63 63
63 63 63
63 63 63
63 63 63
63 63 63
63 63 63
63 63 63
63 63 63
63 63 63
63 63 63
63 63 63
63 63 63
63 63 63
63 63 63
63 63 63
63 63 63
63 63 63
63 63 63
63 63 63
63 63 63
63 63 63
63 63 63
63 63 63
63 63 63
63 63 63
63 63 63
63 63 63
63 63 63
63 63 63
63 63 63
63 63 63
63 63 63
63 63 63
63 63 63
63 63 63
63 63 63
63 63 63
63 63 63
63 63 63
63 63 63
63 63 63
63 63 63
63 63 63
63 63 63
63 63 63
63 63 63
63 63 63
63 63 63
63 63 63
63 63 63
63 63 63
63 63 63
63 63 63
63 63 63
63 63 63
63 63 63
63 63 63
63 63 63
63 63 63
63 63 63
63 63 63
63 63 63
63 63 63
63 63 63
63 63 63
63 63 63
63 63 63
63 63 63
63 63 63
63 63 63
63 63 63
63 63 63
63 63 63
63 63 63
63 63 63
63 63 63
63 63 63
63 63 63
63 63 63
63 63 63
63 63 63
63 63 63
63 63 63
63 63 63
63 63 63
63 63 63
63 63 63
63 63 63
63 63 63
63 63 63
63 63 63
63 63 63
63 63 63
63 63 63
63 63 63
63 63 63
63 63 63
63 63 63
63 63 63
63 63 63
63 63 63
63 63 63
63 63 63
63 63 63
63 63 63
63 63 63
63 63 63
63 63 63
63 63 63
63 63 63
63 63 63
63 63 63
63 63 63
63 63 63
63 63 63
63 63 63
63 63 63
63 63 63
63 63 63
63 63 63
63 63 63
63 63 63
63 63 63
63 63 63
63 63 63
63 63 63
63 63 63
63 63 63
63 63 63
63 63 63
63 63 63
63 63 63
63 63 63
63 63 63
63 63 63
63 63 63
63 63 63
63 63 63
63 63 63
63 63 63
63 63 63
63 63 63
63 63 63
63 63 63
63 63 63
63 63 63
63 63 63
63 63 63
63 63 63
63 63 63
63 63 63
63 63 63
63 63 63
63 63 63
63 63 63
63 63 63
63 63 63
63 63 63
63 63 63
63 63 63
63 63 63
63 63 63
63 63 63
63 63 63
63 63 63
63 63 63
63 63 63
63 63 63
63 63 63
63 63 63
63 63 63
63 63 63
63 63 63
63 63 63
63 63 63
63 63 63
63 63 63
63 63 63
63 63 63
63 63 63
63 63 63
63 63 63
63 63 63
63 63 63
63 63 63
63 63 63
63 63 63
63 63 63
63 63 63
63 63 63
63 63 63
63 63 63
63 63 63
63 63 63
63 63 63
63 63 63
63 63 63
63 63 63
63 63 63
63 63 63
63 63 63
63 63 63
63 63 63
63 63 63
63 63 63
63 63 63
63 63 63
63 63 63
63 63 63
63 63 63
63 63 63
63 63 63
63 63 63
63 63 63
63 63 63
63 63 63
63 63 63
63 63 63
63 63 63
63 63 63
63 63 63
63 63 63
63 63 63
63 63 63
63 63 63
63 63 63
63 63 63
63 63 63
63 63 63
63 63 63
63 63 63
63 63 63
63 63 63
63 63 63
63 63 63
63 63 63
63 63 63
63 63 63
63 63 63
63 63 63
63 63 63
63 63 63
63 63 63
63 63 63
63 63 63
63 63 63
63 63 63
63 63 63
63 63 63
63 63 63
63 63 63
63 63 63
63 63 63
63 63 63
63 63 63
63 63 63
63 63 63
63 63 63
63 63 63
63 63 63
63 63 63
63 63 63
63 63 63
63 63 63
63 63 63
63 63 63
63 63 63
63 63 63
63 63 63
63 63 63
63 63 63
63 63 63
63 63 63
63 63 63
63 63 63
63 63 63
63 63 63
63 63 63
63 63 63
63 63 63
63 63 63
63 63 63
63 63 63
63 63 63
63 63 63
63 63 63
63 63 63
63 63 63
63 63 63
63 63 63
63 63 63
63 63 63
63 63 63
63 63 63
63 63 63
63 63 63
63 63 63
63 63 63
63 63 63
63 63 63
63 63 63
63 63 63
63 63 63
63 63 63
63 63 63
63 63 63
63 63 63
63 63 63
63 63 63
63 63 63
63 63 63
63 63 63
63 63 63
63 63 63
63 63 63
63 63 63
63 63 63
63 63 63
63 63 63
63 63 63
63 63 63
63 63 63
63 63 63
63 63 63
63 63 63
63 63 63
63 63 63
63 63 63
63 63 63
63 63 63
63 63 63
63 63 63
63 63 63
63 63 63
63 63 63
63 63 63
63 63 63
63 63 63
63 63 63
63 63 63
63 63 63
63 63 63
63 63 63
63 63 63
63 63 63
63 63 63
63 63 63
63 63 63
63 63 63
63 63 63
63 63 63
63 63 63
63 63 63
63 63 63
63 63 63
63 63 63
63 63 63
63 63 63
63 63 63
63 63 63
63 63 63
63 63 63
63 63 63
63 63 63
63 63 63
63 63 63
63 63 63
63 63 63
63 63 63
63 63 63
63 63 63
63 63 63
63 63 63
63 63 63
63 63 63
63 63 63
63 63 63
63 63 63
63 63 63
63 63 63
63 63 63
63 63 63
63 63 63
63 63 63
63 63 63
63 63 63
63 63 63
63 63 63
63 63 63
63 63 63
63 63 63
63 63 63
63 63 63
63 63 63
63 63 63
63 63 63
63 63 63
63 63 63
63 63 63
63 63 63
63 63 63
63 63 63
63 63 63
63 63 63
63 63 63
63 63 63
63 63 63
63 63 63
63 63 63
63 63 63
63 63 63
63 63 63
63 63 63
63 63 63
63 63 63
63 63 63
63 63 63
63 63 63
63 63 63
63 63 63
63 63 63
63 63 63
63 63 63
63 63 63
63 63 63
63 63 63
63 63 63
63 63 63
63 63 63
63 63 63
63 63 63
63 63 63
63 63 63
63 63 63
63 63 63
63 63 63
63 63 63
63 63 63
63 63 63
63 63 63
63 63 63
63 63 63
63 63 63
63 63 63
63 63 63
63 63 63
63 63 63
63 63 63
63 63 63
63 63 63
63 63 63
63 63 63
63 63 63
63 63 63
63 63 63
63 63 63
63 63 63
63 63 63
63 63 63
63 63 63
63 63 63
63 63 63
63 63 63
63 63 63
63 63 63
63 63 63
63 63 63
63 63 63
63 63 63
63 63 63
63 63 63
63 63 63
63 63 63
63 63 63
63 63 63
63 63 63
63 63 63
63 63 63
63 63 63
63 63 63
63 63 63
63 63 63
63 63 63
63 63 63
63 63 63
63 63 63
63 63 63
63 63 63
63 63 63
63 63 63
63 63 63
63 63 63
63 63 63
63 63 63
63 63 63
63 63 63
63 63 63
63 63 63
63 63 63
63 63 63
63 63 63
63 63 63
63 63 63
63 63 63
63 63 63
63 63 63
63 63 63
63 63 63
63 63 63
63 63 63
63 63 63
63 63 63
63 63 63
63 63 63
63 63 63
63 63 63
63 63 63
63 63 63
63 63 63
63 63 63
63 63 63
63 63 63
63 63 63
63 63 63
63 63 63
63 63 63
63 63 63
63 63 63
63 63 63
63 63 63
63 63 63
63 63 63
63 63 63
63 63 63
63 63 63
63 63 63
63 63 63
63 63 63
63 63 63
63 63 63
63 63 63
63 63 63
63 63 63
63 63 63
63 63 63
63 63 63
63 63 63
63 63 63
63 63 63
63 63 63
63 63 63
63 63 63
63 63 63
63 63 63
63 63 63
63 63 63
63 63 63
63 63 63
63 63 63
63 63 63
63 63 63
63 63 63
63 63 63
63 63 63
63 63 63
63 63 63
63 63 63
63 63 63
63 63 63
63 63 63
63 63 63
63 63 63
63 63 63
63 63 63
63 63 63
63 63 63
63 63 63
63 63 63
63 63 63
63 63 63
63 63 63
63 63 63
63 63 63
63 63 63
63 63 63
63 63 63
63 63 63
63 63 63
63 63 63
63 63 63
63 63 63
63 63 63
63 63 63
63 63 63
63 63 63
63 63 63
63 63 63
63 63 63
63 63 63
63 63 63
63 63 63
63 63 63
63 63 63
63 63 63
63 63 63
63 63 63
63 63 63
63 63 63
63 63 63
63 63 63
63 63 63
63 63 63
63 63 63
63 63 63
63 63 63
63 63 63
63 63 63
63 63 63
63 63 63
63 63 63
63 63 63
63 63 63
63 63 63
63 63 63
63 63 63
63 63 63
63 63 63
63 63 63
63 63 63
63 63 63
63 63 63
63 63 63
63 63 63
63 63 63
63 63 63
63 63 63
63 63 63
63 63 63
63 63 63
63 63 63
63 63 63
63 63 63
63 63 63
63 63 63
63 63 63
63 63 63
63 63 63
63 63 63
63 63 63
63 63 63
63 63 63
63 63 63
63 63 63
63 63 63
63 63 63
63 63 63
63 63 63
63 63 63
63 63 63
63 63 63
63 63 63
63 63 63
63 63 63
63 63 63
63 63 63
63 63 63
63 63 63
63 63 63
63 63 63
63 63 63
63 63 63
63 63 63
63 63 63
63 63 63
63 63 63
63 63 63
63 63 63
63 63 63
63 63 63
63 63 63
63 63 63
63 63 63
63 63 63
63 63 63
63 63 63
63 63 63
63 63 63
63 63 63
63 63 63
63 63 63
63 63 63
63 63 63
63 63 63
63 63 63
63 63 63
63 63 63
63 63 63
63 63 63
63 63 63
63 63 63
63 63 63
63 63 63
63 63 63
63 63 63
63 63 63
63 63 63
63 63 63
63 63 63
63 63 63
63 63 63
63 63 63
63 63 63
63 63 63
63 63 63
63 63 63
63 63 63
63 63 63
63 63 63
63 63 63
63 63 63
63 63 63
63 63 63
63 63 63
63 63 63
63 63 63
63 63 63
63 63 63
63 63 63
63 63 63
63 63 63
63 63 63
63 63 63
63 63 63
63 63 63
63 63 63
63 63 63
63 63 63
63 63 63
63 63 63
63 63 63
63 63 63
63 63 63
63 63 63
63 63 63
63 63 63
63 63 63
63 63 63
63 63 63
63 63 63
63 63 63
63 63 63
63 63 63
63 63 63
63 63 63
63 63 63
63 63 63
63 63 63
63 63 63
63 63 63
63 63 63
63 63 63
63 63 63
63 63 63
63 63 63
63 63 63
63 63 63
63 63 63
63 63 63
63 63 63
63 63 63
63 63 63
63 63 63
63 63 63
63 63 63
63 63 63
63 63 63
63 63 63
63 63 63
63 63 63
63 63 63
63 63 63
63 63 63
63 63 63
63 63 63
63 63 63
63 63 63
63 63 63
63 63 63
63 63 63
63 63 63
63 63 63
63 63 63
63 63 63
63 63 63
63 63 63
63 63 63
63 63 63
63 63 63
63 63 63
63 63 63
63 63 63
63 63 63
63 63 63
63 63 63
63 63 63
63 63 63
63 63 63
63 63 63
63 63 63
63 63 63
63 63 63
63 63 63
63 63 63
63 63 63
63 63 63
63 63 63
63 63 63
63 63 63
63 63 63
63 63 63
63 63 63
63 63 63
63 63 63
63 63 63
63 63 63
63 63 63
63 63 63
63 63 63
63 63 63
63 63 63
63 63 63
63 63 63
63 63 63
63 63 63
63 63 63
63 63 63
63 63 63
63 63 63
63 63 63
63 63 63
63 63 63
63 63 63
63 63 63
63 63 63
63 63 63
63 63 63
63 63 63
63 63 63
63 63 63
63 63 63
63 63 63
63 63 63
63 63 63
63 63 63
63 63 63
63 63 63
63 63 63
63 63 63
63 63 63
63 63 63
63 63 63
63 63 63
63 63 63
63 63 63
63 63 63
63 63 63
63 63 63
63 63 63
63 63 63
63 63 63
63 63 63
63 63 63
63 63 63
63 63 63
63 63 63
63 63 63
63 63 63
63 63 63
63 63 63
63 63 63
63 63 63
63 63 63
63 63 63
63 63 63
63 63 63
63 63 63
63 63 63
63 63 63
63 63 63
63 63 63
63 63 63
63 63 63
63 63 63
63 63 63
63 63 63
63 63 63
63 63 63
63 63 63
63 63 63
63 63 63
63 63 63
63 63 63
63 63 63
63 63 63
63 63 63
63 63 63
63 63 63
63 63 63
63 63 63
63 63 63
63 63 63
63 63 63
63 63 63
63 63 63
63 63 63
63 63 63
63 63 63
63 63 63
63 63 63
63 63 63
63 63 63
63 63 63
63 63 63
63 63 63
63 63 63
63 63 63
63 63 63
63 63 63
63 63 63
63 63 63
63 63 63
63 63 63
63 63 63
63 63 63
63 63 63
63 63 63
63 63 63
63 63 63
63 63 63
63 63 63
63 63 63
63 63 63
63 63 63
63 63 63
63 63 63
63 63 63
63 63 63
63 63 63
63 63 63
63 63 63
63 63 63
63 63 63
63 63 63
63 63 63
63 63 63
63 63 63
63 63 63
63 63 63
63 63 63
63 63 63
63 63 63
63 63 63
63 63 63
63 63 63
63 63 63
63 63 63
63 63 63
63 63 63
63 63 63
63 63 63
63 63 63
63 63 63
63 63 63
63 63 63
63 63 63
63 63 63
63 63 63
63 63 63
63 63 63
63 63 63
63 63 63
63 63 63
63 63 63
63 63 63
63 63 63
63 63 63
63 63 63
63 63 63
63 63 63
63 63 63
63 63 63
63 63 63
63 63 63
63 63 63
63 63 63
63 63 63
63 63 63
63 63 63
63 63 63
63 63 63
63 63 63
63 63 63
63 63 63
63 63 63
63 63 63
63 63 63
63 63 63
63 63 63
63 63 63
63 63 63
63 63 63
63 63 63
63 63 63
63 63 63
63 63 63
63 63 63
63 63 63
63 63 63
63 63 63
63 63 63
63 63 63
63 63 63
63 63 63
63 63 63
63 63 63
63 63 63
63 63 63
63 63 63
63 63 63
63 63 63
63 63 63
63 63 63
63 63 63
63 63 63
63 63 63
63 63 63
63 63 63
63 63 63
63 63 63
63 63 63
63 63 63
63 63 63
63 63 63
63 63 63
63 63 63
63 63 63
63 63 63
63 63 63
63 63 63
63 63 63
63 63 63
63 63 63
63 63 63
63 63 63
63 63 63
63 63 63
63 63 63
63 63 63
63 63 63
63 63 63
63 63 63
63 63 63
63 63 63
63 63 63
63 63 63
63 63 63
63 63 63
63 63 63
63 63 63
63 63 63
63 63 63
63 63 63
63 63 63
63 63 63
63 63 63
63 63 63
63 63 63
63 63 63
63 63 63
63 63 63
63 63 63
63 63 63
63 63 63
63 63 63
63 63 63
63 63 63
63 63 63
63 63 63
63 63 63
63 63 63
63 63 63
63 63 63
63 63 63
63 63 63
63 63 63
63 63 63
63 63 63
63 63 63
63 63 63
63 63 63
63 63 63
63 63 63
63 63 63
63 63 63
63 63 63
63 63 63
63 63 63
63 63 63
63 63 63
63 63 63
63 63 63
63 63 63
63 63 63
63 63 63
63 63 63
63 63 63
63 63 63
63 63 63
63 63 63
63 63 63
63 63 63
63 63 63
63 63 63
63 63 63
63 63 63
63 63 63
63 63 63
63 63 63
63 63 63
63 63 63
63 63 63
63 63 63
63 63 63
63 63 63
63 63 63
63 63 63
63 63 63
63 63 63
63 63 63
63 63 63
63 63 63
63 63 63
63 63 63
63 63 63
63 63 63
63 63 63
63 63 63
63 63 63
63 63 63
63 63 63
63 63 63
63 63 63
63 63 63
63 63 63
63 63 63
63 63 63
63 63 63
63 63 63
63 63 63
63 63 63
63 63 63
63 63 63
63 63 63
63 63 63
63 63 63
63 63 63
63 63 63
63 63 63
63 63 63
63 63 63
63 63 63
63 63 63
63 63 63
63 63 63
63 63 63
63 63 63
63 63 63
63 63 63
63 63 63
63 63 63
63 63 63
63 63 63
63 63 63
63 63 63
63 63 63
63 63 63
63 63 63
63 63 63
63 63 63
63 63 63
63 63 63
63 63 63
63 63 63
63 63 63
63 63 63
63 63 63
63 63 63
63 63 63
63 63 63
63 63 63
63 63 63
63 63 63
63 63 63
63 63 63
63 63 63
63 63 63
63 63 63
63 63 63
63 63 63
63 63 63
63 63 63
63 63 63
63 63 63
63 63 63
63 63 63
63 63 63
63 63 63
63 63 63
63 63 63
63 63 63
63 63 63
63 63 63
63 63 63
63 63 63
63 63 63
63 63 63
63 63 63
63 63 63
63 63 63
63 63 63
63 63 63
63 63 63
63 63 63
63 63 63
63 63 63
63 63 63
63 63 63
63 63 63
63 63 63
63 63 63
63 63 63
63 63 63
63 63 63
63 63 63
63 63 63
63 63 63
63 63 63
63 63 63
63 63 63
63 63 63
63 63 63
63 63 63
63 63 63
63 63 63
63 63 63
63 63 63
63 63 63
63 63 63
63 63 63
63 63 63
63 63 63
63 63 63
63 63 63
63 63 63
63 63 63
63 63 63
63 63 63
63 63 63
63 63 63
63 63 63
63 63 63
63 63 63
63 63 63
63 63 63
63 63 63
63 63 63
63 63 63
63 63 63
63 63 63
63 63 63
63 63 63
63 63 63
63 63 63
63 63 63
63 63 63
63 63 63
63 63 63
63 63 63
63 63 63
63 63 63
63 63 63
63 63 63
63 63 63
63 63 63
63 63 63
63 63 63
63 63 63
63 63 63
63 63 63
63 63 63
63 63 63
63 63 63
63 63 63
63 63 63
63 63 63
63 63 63
63 63 63
63 63 63
63 63 63
63 63 63
63 63 63
63 63 63
63 63 63
63 63 63
63 63 63
63 63 63
63 63 63
63 63 63
63 63 63
63 63 63
63 63 63
63 63 63
63 63 63
63 63 63
63 63 63
63 63 63
63 63 63
63 63 63
63 63 63
63 63 63
63 63 63
63 63 63
63 63 63
63 63 63
63 63 63
63 63 63
63 63 63
63 63 63
63 63 63
63 63 63
63 63 63
63 63 63
63 63 63
63 63 63
63 63 63
63 63 63
63 63 63
63 63 63
63 63 63
63 63 63
63 63 63
63 63 63
63 63 63
63 63 63
63 63 63
63 63 63
63 63 63
63 63 63
63 63 63
63 63 63
63 63 63
63 63 63
63 63 63
63 63 63
63 63 63
63 63 63
63 63 63
63 63 63
63 63 63
63 63 63
63 63 63
63 63 63
63 63 63
63 63 63
63 63 63
63 63 63
63 63 63
63 63 63
63 63 63
63 63 63
63 63 63
63 63 63
63 63 63
63 63 63
63 63 63
63 63 63
63 63 63
63 63 63
63 63 63
63 63 63
63 63 63
63 63 63
63 63 63
63 63 63
63 63 63
63 63 63
63 63 63
63 63 63
63 63 63
63 63 63
63 63 63
63 63 63
63 63 63
63 63 63
63 63 63
63 63 63
63 63 63
63 63 63
63 63 63
63 63 63
63 63 63
63 63 63
63 63 63
63 63 63
63 63 63
63 63 63
63 63 63
63 63 63
63 63 63
63 63 63
63 63 63
63 63 63
63 63 63
63 63 63
63 63 63
63 63 63
63 63 63
63 63 63
63 63 63
63 63 63
63 63 63
63 63 63
63 63 63
63 63 63
63 63 63
63 63 63
63 63 63
63 63 63
63 63 63
63 63 63
63 63 63
63 63 63
63 63 63
63 63 63
63 63 63
63 63 63
63 63 63
63 63 63
63 63 63
63 63 63
63 63 63
63 63 63
63 63 63
63 63 63
63 63 63
63 63 63
63 63 63
63 63 63
63 63 63
63 63 63
63 63 63
63 63 63
63 63 63
63 63 63
63 63 63
63 63 63
63 63 63
63 63 63
63 63 63
63 63 63
63 63 63
63 63 63
63 63 63
63 63 63
63 63 63
63 63 63
63 63 63
63 63 63
63 63 63
63 63 63
63 63 63
63 63 63
63 63 63
63 63 63
63 63 63
63 63 63
63 63 63
63 63 63
63 63 63
63 63 63
63 63 63
63 63 63
63 63 63
63 63 63
63 63 63
63 63 63
63 63 63
63 63 63
63 63 63
63 63 63
63 63 63
63 63 63
63 63 63
63 63 63
63 63 63
63 63 63
63 63 63
63 63 63
63 63 63
63 63 63
63 63 63
63 63 63
63 63 63
63 63 63
63 63 63
63 63 63
63 63 63
63 63 63
63 63 63
63 63 63
63 63 63
63 63 63
63 63 63
63 63 63
63 63 63
63 63 63
63 63 63
63 63 63
63 63 63
63 63 63
63 63 63
63 63 63
63 63 63
63 63 63
63 63 63
63 63 63
63 63 63
63 63 63
63 63 63
63 63 63
63 63 63
63 63 63
63 63 63
63 63 63
63 63 63
63 63 63
63 63 63
63 63 63
63 63 63
63 63 63
63 63 63
63 63 63
63 63 63
63 63 63
63 63 63
63 63 63
63 63 63
63 63 63
63 63 63
63 63 63
63 63 63
63 63 63
63 63 63
63 63 63
63 63 63
63 63 63
63 63 63
63 63 63
63 63 63
63 63 63
63 63 63
63 63 63
63 63 63
63 63 63
63 63 63
63 63 63
63 63 63
63 63 63
63 63 63
63 63 63
63 63 63
63 63 63
63 63 63
63 63 63
63 63 63
63 63 63
63 63 63
63 63 63
63 63 63
63 63 63
63 63 63
63 63 63
63 63 63
63 63 63
63 63 63
63 63 63
63 63 63
63 63 63
63 63 63
63 63 63
63 63 63
63 63 63
63 63 63
63 63 63
63 63 63
63 63 63
63 63 63
63 63 63
63 63 63
63 63 63
63 63 63
63 63 63
63 63 63
63 63 63
63 63 63
63 63 63
63 63 63
63 63 63
63 63 63
63 63 63
63 63 63
63 63 63
63 63 63
63 63 63
63 63 63
63 63 63
63 63 63
63 63 63
63 63 63
63 63 63
63 63 63
63 63 63
63 63 63
63 63 63
63 63 63
63 63 63
63 63 63
63 63 63
63 63 63
63 63 63
63 63 63
63 63 63
63 63 63
63 63 63
63 63 63
63 63 63
63 63 63
63 63 63
63 63 63
63 63 63
63 63 63
63 63 63
63 63 63
63 63 63
63 63 63
63 63 63
63 63 63
63 63 63
63 63 63
63 63 63
63 63 63
63 63 63
63 63 63
63 63 63
63 63 63
63 63 63
63 63 63
63 63 63
63 63 63
63 63 63
63 63 63
63 63 63
63 63 63
63 63 63
63 63 63
63 63 63
63 63 63
63 63 63
63 63 63
63 63 63
63 63 63
63 63 63
63 63 63
63 63 63
63 63 63
63 63 63
63 63 63
63 63 63
63 63 63
63 63 63
63 63 63
63 63 63
63 63 63
63 63 63
63 63 63
63 63 63
63 63 63
63 63 63
63 63 63
63 63 63
63 63 63
63 63 63
63 63 63
63 63 63
63 63 63
63 63 63
63 63 63
63 63 63
63 63 63
63 63 63
63 63 63
63 63 63
63 63 63
63 63 63
63 63 63
63 63 63
63 63 63
63 63 63
63 63 63
63 63 63
63 63 63
63 63 63
63 63 63
63 63 63
63 63 63
63 63 63
63 63 63
63 63 63
63 63 63
63 63 63
63 63 63
63 63 63
63 63 63
63 63 63
63 63 63
63 63 63
63 63 63
63 63 63
63 63 63
63 63 63
63 63 63
63 63 63
63 63 63
63 63 63
63 63 63
63 63 63
63 63 63
63 63 63
63 63 63
63 63 63
63 63 63
63 63 63
63 63 63
63 63 63
63 63 63
63 63 63
63 63 63
63 63 63
63 63 63
63 63 63
63 63 63
63 63 63
63 63 63
63 63 63
63 63 63
63 63 63
63 63 63
63 63 63
63 63 63
63 63 63
63 63 63
63 63 63
63 63 63
63 63 63
63 63 63
63 63 63
63 63 63
63 63 63
63 63 63
63 63 63
63 63 63
63 63 63
63 63 63
63 63 63
63 63 63
63 63 63
63 63 63
63 63 63
63 63 63
63 63 63
63 63 63
63 63 63
63 63 63
63 63 63
63 63 63
63 63 63
63 63 63
63 63 63
63 63 63
63 63 63
63 63 63
63 63 63
63 63 63
63 63 63
63 63 63
63 63 63
63 63 63
63 63 63
63 63 63
63 63 63
63 63 63
63 63 63
63 63 63
63 63 63
63 63 63
63 63 63
63 63 63
63 63 63
63 63 63
63 63 63
63 63 63
63 63 63
63 63 63
63 63 63
63 63 63
63 63 63
63 63 63
63 63 63
63 63 63
63 63 63
63 63 63
63 63 63
63 63 63
63 63 63
63 63 63
63 63 63
63 63 63
63 63 63
63 63 63
63 63 63
63 63 63
63 63 63
63 63 63
63 63 63
63 63 63
63 63 63
63 63 63
63 63 63
63 63 63
63 63 63
63 63 63
63 63 63
63 63 63
63 63 63
63 63 63
63 63 63
63 63 63
63 63 63
63 63 63
63 63 63
63 63 63
63 63 63
63 63 63
63 63 63
63 63 63
63 63 63
63 63 63
63 63 63
63 63 63
63 63 63
63 63 63
63 63 63
63 63 63
63 63 63
63 63 63
63 63 63
63 63 63
63 63 63
63 63 63
63 63 63
63 63 63
63 63 63
63 63 63
63 63 63
63 63 63
63 63 63
63 63 63
63 63 63
63 63 63
63 63 63
63 63 63
63 63 63
63 63 63
63 63 63
63 63 63
63 63 63
63 63 63
63 63 63
63 63 63
63 63 63
63 63 63
63 63 63
63 63 63
63 63 63
63 63 63
63 63 63
63 63 63
63 63 63
63 63 63
63 63 63
63 63 63
63 63 63
63 63 63
63 63 63
63 63 63
63 63 63
63 63 63
63 63 63
63 63 63
63 63 63
63 63 63
63 63 63
63 63 63
63 63 63
63 63 63
63 63 63
63 63 63
63 63 63
63 63 63
63 63 63
63 63 63
63 63 63
63 63 63
63 63 63
63 63 63
63 63 63
63 63 63
63 63 63
63 63 63
63 63 63
63 63 63
63 63 63
63 63 63
63 63 63
63 63 63
63 63 63
63 63 63
63 63 63
63 63 63
63 63 63
63 63 63
63 63 63
63 63 63
63 63 63
63 63 63
63 63 63
63 63 63
63 63 63
63 63 63
63 63 63
63 63 63
63 63 63
63 63 63
63 63 63
63 63 63
63 63 63
63 63 63
63 63 63
63 63 63
63 63 63
63 63 63
63 63 63
63 63 63
63 63 63
63 63 63
63 63 63
63 63 63
63 63 63
63 63 63
63 63 63
63 63 63
63 63 63
63 63 63
63 63 63
63 63 63
63 63 63
63 63 63
63 63 63
63 63 63
63 63 63
63 63 63
63 63 63
63 63 63
63 63 63
63 63 63
63 63 63
63 63 63
63 63 63
63 63 63
63 63 63
63 63 63
63 63 63
63 63 63
63 63 63
63 63 63
63 63 63
63 63 63
63 63 63
63 63 63
63 63 63
63 63 63
63 63 63
63 63 63
63 63 63
63 63 63
63 63 63
63 63 63
63 63 63
63 63 63
63 63 63
63 63 63
63 63 63
63 63 63
63 63 63
63 63 63
63 63 63
63 63 63
63 63 63
63 63 63
63 63 63
63 63 63
63 63 63
63 63 63
63 63 63
63 63 63
63 63 63
63 63 63
63 63 63
63 63 63
63 63 63
63 63 63
63 63 63
63 63 63
63 63 63
63 63 63
63 63 63
63 63 63
63 63 63
63 63 63
63 63 63
63 63 63
63 63 63
63 63 63
63 63 63
63 63 63
63 63 63
63 63 63
63 63 63
63 63 63
63 63 63
63 63 63
63 63 63
63 63 63
63 63 63
63 63 63
63 63 63
63 63 63
63 63 63
63 63 63
63 63 63
63 63 63
63 63 63
63 63 63
63 63 63
63 63 63
63 63 63
63 63 63
63 63 63
63 63 63
63 63 63
63 63 63
63 63 63
63 63 63
63 63 63
63 63 63
63 63 63
63 63 63
63 63 63
63 63 63
63 63 63
63 63 63
63 63 63
63 63 63
63 63 63
63 63 63
63 63 63
63 63 63
63 63 63
63 63 63
63 63 63
63 63 63
63 63 63
63 63 63
63 63 63
63 63 63
63 63 63
63 63 63
63 63 63
63 63 63
63 63 63
63 63 63
63 63 63
63 63 63
63 63 63
63 63 63
63 63 63
63 63 63
63 63 63
63 63 63
63 63 63
63 63 63
63 63 63
63 63 63
63 63 63
63 63 63
63 63 63
63 63 63
63 63 63
63 63 63
63 63 63
63 63 63
63 63 63
63 63 63
63 63 63
63 63 63
63 63 63
63 63 63
63 63 63
63 63 63
63 63 63
63 63 63
63 63 63
63 63 63
63 63 63
63 63 63
63 63 63
63 63 63
63 63 63
63 63 63
63 63 63
63 63 63
63 63 63
63 63 63
63 63 63
63 63 63
63 63 63
63 63 63
63 63 63
63 63 63
63 63 63
63 63 63
63 63 63
63 63 63
63 63 63
63 63 63
63 63 63
63 63 63
63 63 63
63 63 63
63 63 63
63 63 63
63 63 63
63 63 63
63 63 63
63 63 63
63 63 63
63 63 63
63 63 63
63 63 63
63 63 63
63 63 63
63 63 63
63 63 63
63 63 63
63 63 63
63 63 63
63 63 63
63 63 63
63 63 63
63 63 63
63 63 63
63 63 63
63 63 63
63 63 63
63 63 63
63 63 63
63 63 63
63 63 63
63 63 63
63 63 63
63 63 63
63 63 63
63 63 63
63 63 63
63 63 63
63 63 63
63 63 63
63 63 63
63 63 63
63 63 63
63 63 63
63 63 63
63 63 63
63 63 63
63 63 63
63 63 63
63 63 63
63 63 63
63 63 63
63 63 63
63 63 63
63 63 63
63 63 63
63 63 63
63 63 63
63 63 63
63 63 63
63 63 63
63 63 63
63 63 63
63 63 63
63 63 63
63 63 63
63 63 63
63 63 63
63 63 63
63 63 63
63 63 63
63 63 63
63 63 63
63 63 63
63 63 63
63 63 63
63 63 63
63 63 63
63 63 63
63 63 63
63 63 63
63 63 63
63 63 63
63 63 63
63 63 63
63 63 63
63 63 63
63 63 63
63 63 63
63 63 63
63 63 63
63 63 63
63 63 63
63 63 63
63 63 63
63 63 63
63 63 63
63 63 63
63 63 63
63 63 63
63 63 63
63 63 63
63 63 63
63 63 63
63 63 63
63 63 63
63 63 63
63 63 63
63 63 63
63 63 63
63 63 63
63 63 63
63 63 63
63 63 63
63 63 63
63 63 63
63 63 63
63 63 63
63 63 63
63 63 63
63 63 63
63 63 63
63 63 63
63 63 63
63 63 63
63 63 63
63 63 63
63 63 63
63 63 63
63 63 63
63 63 63
63 63 63
63 63 63
63 63 63
63 63 63
63 63 63
63 63 63
63 63 63
63 63 63
63 63 63
63 63 63
63 63 63
63 63 63
63 63 63
63 63 63
63 63 63
63 63 63
63 63 63
63 63 63
63 63 63
63 63 63
63 63 63
63 63 63
63 63 63
63 63 63
63 63 63
63 63 63
63 63 63
63 63 63
63 63 63
63 63 63
63 63 63
63 63 63
63 63 63
63 63 63
63 63 63
63 63 63
63 63 63
63 63 63
63 63 63
63 63 63
63 63 63
63 63 63
63 63 63
63 63 63
63 63 63
63 63 63
63 63 63
63 63 63
63 63 63
63 63 63
63 63 63
63 63 63
63 63 63
63 63 63
63 63 63
63 63 63
63 63 63
63 63 63
63 63 63
63 63 63
63 63 63
63 63 63
63 63 63
63 63 63
63 63 63
63 63 63
63 63 63
63 63 63
63 63 63
63 63 63
63 63 63
63 63 63
63 63 63
63 63 63
63 63 63
63 63 63
63 63 63
63 63 63
63 63 63
63 63 63
63 63 63
63 63 63
63 63 63
63 63 63
63 63 63
63 63 63
63 63 63
63 63 63
63 63 63
63 63 63
63 63 63
63 63 63
63 63 63
63 63 63
63 63 63
63 63 63
63 63 63
63 63 63
63 63 63
63 63 63
63 63 63
63 63 63
63 63 63
63 63 63
63 63 63
63 63 63
63 63 63
63 63 63
63 63 63
63 63 63
63 63 63
63 63 63
63 63 63
63 63 63
63 63 63
63 63 63
63 63 63
63 63 63
63 63 63
63 63 63
63 63 63
63 63 63
63 63 63
63 63 63
63 63 63
63 63 63
63 63 63
63 63 63
63 63 63
63 63 63
63 63 63
63 63 63
63 63 63
63 63 63
63 63 63
63 63 63
63 63 63
63 63 63
63 63 63
63 63 63
63 63 63
63 63 63
63 63 63
63 63 63
63 63 63
63 63 63
63 63 63
63 63 63
63 63 63
63 63 63
63 63 63
63 63 63
63 63 63
63 63 63
63 63 63
63 63 63
63 63 63
63 63 63
63 63 63
63 63 63
63 63 63
63 63 63
63 63 63
63 63 63
63 63 63
63 63 63
63 63 63
63 63 63
63 63 63
63 63 63
63 63 63
63 63 63
63 63 63
63 63 63
63 63 63
63 63 63
63 63 63
63 63 63
63 63 63
63 63 63
63 63 63
63 63 63
63 63 63
63 63 63
63 63 63
63 63 63
63 63 63
63 63 63
63 63 63
63 63 63
63 63 63
63 63 63
63 63 63
63 63 63
63 63 63
63 63 63
63 63 63
63 63 63
63 63 63
63 63 63
63 63 63
63 63 63
63 63 63
63 63 63
63 63 63
63 63 63
63 63 63
63 63 63
63 63 63
63 63 63
63 63 63
63 63 63
63 63 63
63 63 63
63 63 63
63 63 63
63 63 63
63 63 63
63 63 63
63 63 63
63 63 63
63 63 63
63 63 63
63 63 63
63 63 63
63 63 63
63 63 63
63 63 63
63 63 63
63 63 63
63 63 63
63 63 63
63 63 63
63 63 63
63 63 63
63 63 63
63 63 63
63 63 63
63 63 63
63 63 63
63 63 63
63 63 63
63 63 63
63 63 63
63 63 63
63 63 63
63 63 63
63 63 63
63 63 63
63 63 63
63 63 63
63 63 63
63 63 63
63 63 63
63 63 63
63 63 63
63 63 63
63 63 63
63 63 63
63 63 63
63 63 63
63 63 63
63 63 63
63 63 63
63 63 63
63 63 63
63 63 63
63 63 63
63 63 63
63 63 63
63 63 63
63 63 63
63 63 63
63 63 63
63 63 63
63 63 63
63 63 63
63 63 63
63 63 63
63 63 63
63 63 63
63 63 63
63 63 63
63 63 63
63 63 63
63 63 63
63 63 63
63 63 63
63 63 63
63 63 63
63 63 63
63 63 63
63 63 63
63 63 63
63 63 63
63 63 63
63 63 63
63 63 63
63 63 63
63 63 63
63 63 63
63 63 63
63 63 63
63 63 63
63 63 63
63 63 63
63 63 63
63 63 63
63 63 63
63 63 63
63 63 63
63 63 63
63 63 63
63 63 63
63 63 63
63 63 63
63 63 63
63 63 63
63 63 63
63 63 63
63 63 63
63 63 63
63 63 63
63 63 63
63 63 63
63 63 63
63 63 63
63 63 63
63 63 63
63 63 63
63 63 63
63 63 63
63 63 63
63 63 63
63 63 63
63 63 63
63 63 63
63 63 63
63 63 63
63 63 63
63 63 63
63 63 63
63 63 63
63 63 63
63 63 63
63 63 63
63 63 63
63 63 63
63 63 63
63 63 63
63 63 63
63 63 63
63 63 63
63 63 63
63 63 63
63 63 63
63 63 63
63 63 63
63 63 63
63 63 63
63 63 63
63 63 63
63 63 63
63 63 63
63 63 63
63 63 63
63 63 63
63 63 63
63 63 63
63 63 63
63 63 63
63 63 63
63 63 63
63 63 63
63 63 63
63 63 63
63 63 63
63 63 63
63 63 63
63 63 63
63 63 63
63 63 63
63 63 63
63 63 63
63 63 63
63 63 63
63 63 63
63 63 63
63 63 63
63 63 63
63 63 63
63 63 63
63 63 63
63 63 63
63 63 63
63 63 63
63 63 63
63 63 63
63 63 63
63 63 63
63 63 63
63 63 63
63 63 63
63 63 63
63 63 63
63 63 63
63 63 63
63 63 63
63 63 63
63 63 63
63 63 63
63 63 63
63 63 63
63 63 63
63 63 63
63 63 63
63 63 63
63 63 63
63 63 63
63 63 63
63 63 63
63 63 63
63 63 63
63 63 63
63 63 63
63 63 63
63 63 63
63 63 63
63 63 63
63 63 63
63 63 63
63 63 63
63 63 63
63 63 63
63 63 63
63 63 63
63 63 63
63 63 63
63 63 63
63 63 63
63 63 63
63 63 63
63 63 63
63 63 63
63 63 63
63 63 63
63 63 63
63 63 63
63 63 63
63 63 63
63 63 63
63 63 63
63 63 63
63 63 63
63 63 63
63 63 63
63 63 63
63 63 63
63 63 63
63 63 63
63 63 63
63 63 63
63 63 63
63 63 63
63 63 63
63 63 63
63 63 63
63 63 63
63 63 63
63 63 63
63 63 63
63 63 63
63 63 63
63 63 63
63 63 63
63 63 63
63 63 63
63 63 63
63 63 63
63 63 63
63 63 63
63 63 63
63 63 63
63 63 63
63 63 63
63 63 63
63 63 63
63 63 63
63 63 63
63 63 63
63 63 63
63 63 63
63 63 63
63 63 63
63 63 63
63 63 63
63 63 63
63 63 63
63 63 63
63 63 63
63 63 63
63 63 63
63 63 63
63 63 63
63 63 63
63 63 63
63 63 63
63 63 63
63 63 63
63 63 63
63 63 63
63 63 63
63 63 63
63 63 63
63 63 63
63 63 63
63 63 63
63 63 63
63 63 63
63 63 63
63 63 63
63 63 63
63 63 63
63 63 63
63 63 63
63 63 63
63 63 63
63 63 63
63 63 63
63 63 63
63 63 63
63 63 63
63 63 63
63 63 63
63 63 63
63 63 63
63 63 63
63 63 63
63 63 63
63 63 63
63 63 63
63 63 63
63 63 63
63 63 63
63 63 63
63 63 63
63 63 63
63 63 63
63 63 63
63 63 63
63 63 63
63 63 63
63 63 63
63 63 63
63 63 63
63 63 63
63 63 63
63 63 63
63 63 63
63 63 63
63 63 63
63 63 63
63 63 63
63 63 63
63 63 63
63 63 63
63 63 63
63 63 63
63 63 63
63 63 63
63 63 63
63 63 63
63 63 63
63 63 63
63 63 63
63 63 63
63 63 63
63 63 63
63 63 63
63 63 63
63 63 63
63 63 63
63 63 63
63 63 63
63 63 63
63 63 63
63 63 63
63 63 63
63 63 63
63 63 63
63 63 63
63 63 63
63 63 63
63 63 63
63 63 63
63 63 63
63 63 63
63 63 63
63 63 63
63 63 63
63 63 63
63 63 63
63 63 63
63 63 63
63 63 63
63 63 63
63 63 63
63 63 63
63 63 63
63 63 63
63 63 63
63 63 63
63 63 63
63 63 63
63 63 63
63 63 63
63 63 63
63 63 63
63 63 63
63 63 63
63 63 63
63 63 63
63 63 63
63 63 63
63 63 63
63 63 63
63 63 63
63 63 63
63 63 63
63 63 63
63 63 63
63 63 63
63 63 63
63 63 63
63 63 63
63 63 63
63 63 63
63 63 63
63 63 63
63 63 63
63 63 63
63 63 63
63 63 63
63 63 63
63 63 63
63 63 63
63 63 63
63 63 63
63 63 63
63 63 63
63 63 63
63 63 63
63 63 63
63 63 63
63 63 63
63 63 63
63 63 63
63 63 63
63 63 63
63 63 63
63 63 63
63 63 63
63 63 63
63 63 63
63 63 63
63 63 63
63 63 63
63 63 63
63 63 63
63 63 63
63 63 63
63 63 63
63 63 63
63 63 63
63 63 63
63 63 63
63 63 63
63 63 63
63 63 63
63 63 63
63 63 63
63 63 63
63 63 63
63 63 63
63 63 63
63 63 63
63 63 63
63 63 63
63 63 63
63 63 63
63 63 63
63 63 63
63 63 63
63 63 63
63 63 63
63 63 63
63 63 63
63 63 63
63 63 63
63 63 63
63 63 63
63 63 63
63 63 63
63 63 63
63 63 63
63 63 63
63 63 63
63 63 63
63 63 63
63 63 63
63 63 63
63 63 63
63 63 63
63 63 63
63 63 63
63 63 63
63 63 63
63 63 63
63 63 63
63 63 63
63 63 63
63 63 63
63 63 63
63 63 63
63 63 63
63 63 63
63 63 63
63 63 63
63 63 63
63 63 63
63 63 63
63 63 63
63 63 63
63 63 63
63 63 63
63 63 63
63 63 63
63 63 63
63 63 63
63 63 63
63 63 63
63 63 63
63 63 63
63 63 63
63 63 63
63 63 63
63 63 63
63 63 63
63 63 63
63 63 63
63 63 63
63 63 63
63 63 63
63 63 63
63 63 63
63 63 63
63 63 63
63 63 63
63 63 63
63 63 63
63 63 63
63 63 63
63 63 63
63 63 63
63 63 63
63 63 63
63 63 63
63 63 63
63 63 63
63 63 63
63 63 63
63 63 63
63 63 63
63 63 63
63 63 63
63 63 63
63 63 63
63 63 63
63 63 63
63 63 63
63 63 63
63 63 63
63 63 63
63 63 63
63 63 63
63 63 63
63 63 63
63 63 63
63 63 63
63 63 63
63 63 63
63 63 63
63 63 63
63 63 63
63 63 63
63 63 63
63 63 63
63 63 63
63 63 63
63 63 63
63 63 63
63 63 63
63 63 63
63 63 63
63 63 63
63 63 63
63 63 63
63 63 63
63 63 63
63 63 63
63 63 63
63 63 63
63 63 63
63 63 63
63 63 63
63 63 63
63 63 63
63 63 63
63 63 63
63 63 63
63 63 63
63 63 63
63 63 63
63 63 63
63 63 63
63 63 63
63 63 63
63 63 63
63 63 63
63 63 63
63 63 63
63 63 63
63 63 63
63 63 63
63 63 63
63 63 63
63 63 63
63 63 63
63 63 63
63 63 63
63 63 63
63 63 63
63 63 63
63 63 63
63 63 63
63 63 63
63 63 63
63 63 63
63 63 63
63 63 63
63 63 63
63 63 63
63 63 63
63 63 63
63 63 63
63 63 63
63 63 63
63 63 63
63 63 63
63 63 63
63 63 63
63 63 63
63 63 63
63 63 63
63 63 63
63 63 63
63 63 63
63 63 63
63 63 63
63 63 63
63 63 63
63 63 63
63 63 63
63 63 63
63 63 63
63 63 63
63 63 63
63 63 63
63 63 63
63 63 63
63 63 63
63 63 63
63 63 63
63 63 63
63 63 63
63 63 63
63 63 63
63 63 63
63 63 63
63 63 63
63 63 63
63 63 63
63 63 63
63 63 63
63 63 63
63 63 63
63 63 63
63 63 63
63 63 63
63 63 63
63 63 63
63 63 63
63 63 63
63 63 63
63 63 63
63 63 63
63 63 63
63 63 63
63 63 63
63 63 63
63 63 63
63 63 63
63 63 63
63 63 63
63 63 63
63 63 63
63 63 63
63 63 63
63 63 63
63 63 63
63 63 63
63 63 63
63 63 63
63 63 63
63 63 63
63 63 63
63 63 63
63 63 63
63 63 63
63 63 63
63 63 63
63 63 63
63 63 63
63 63 63
63 63 63
63 63 63
63 63 63
63 63 63
63 63 63
63 63 63
63 63 63
63 63 63
63 63 63
63 63 63
63 63 63
63 63 63
63 63 63
63 63 63
63 63 63
63 63 63
63 63 63
63 63 63
63 63 63
63 63 63
63 63 63
63 63 63
63 63 63
63 63 63
63 63 63
63 63 63
63 63 63
63 63 63
63 63 63
63 63 63
63 63 63
63 63 63
63 63 63
63 63 63
63 63 63
63 63 63
63 63 63
63 63 63
63 63 63
63 63 63
63 63 63
63 63 63
63 63 63
63 63 63
63 63 63
63 63 63
63 63 63
63 63 63
63 63 63
63 63 63
63 63 63
63 63 63
63 63 63
63 63 63
63 63 63
63 63 63
63 63 63
63 63 63
63 63 63
63 63 63
63 63 63
63 63 63
63 63 63
63 63 63
63 63 63
63 63 63
63 63 63
63 63 63
63 63 63
63 63 63
63 63 63
63 63 63
63 63 63
63 63 63
63 63 63
63 63 63
63 63 63
63 63 63
63 63 63
63 63 63
63 63 63
63 63 63
63 63 63
63 63 63
63 63 63
63 63 63
63 63 63
63 63 63
63 63 63
63 63 63
63 63 63
63 63 63
63 63 63
63 63 63
63 63 63
63 63 63
63 63 63
63 63 63
63 63 63
63 63 63
63 63 63
63 63 63
63 63 63
63 63 63
63 63 63
63 63 63
63 63 63
63 63 63
63 63 63
63 63 63
63 63 63
63 63 63
63 63 63
63 63 63
63 63 63
63 63 63
63 63 63
63 63 63
63 63 63
63 63 63
63 63 63
63 63 63
63 63 63
63 63 63
63 63 63
63 63 63
63 63 63
63 63 63
63 63 63
63 63 63
63 63 63
63 63 63
63 63 63
63 63 63
63 63 63
63 63 63
63 63 63
63 63 63
63 63 63
63 63 63
63 63 63
63 63 63
63 63 63
63 63 63
63 63 63
63 63 63
63 63 63
63 63 63
63 63 63
63 63 63
63 63 63
63 63 63
63 63 63
63 63 63
63 63 63
63 63 63
63 63 63
63 63 63
63 63 63
63 63 63
63 63 63
63 63 63
63 63 63
63 63 63
63 63 63
63 63 63
63 63 63
63 63 63
63 63 63
63 63 63
63 63 63
63 63 63
63 63 63
63 63 63
63 63 63
63 63 63
63 63 63
63 63 63
63 63 63
63 63 63
63 63 63
63 63 63
63 63 63
63 63 63
63 63 63
63 63 63
63 63 63
63 63 63
63 63 63
63 63 63
63 63 63
63 63 63
63 63 63
63 63 63
63 63 63
63 63 63
63 63 63
63 63 63
63 63 63
63 63 63
63 63 63
63 63 63
63 63 63
63 63 63
63 63 63
63 63 63
63 63 63
63 63 63
63 63 63
63 63 63
63 63 63
63 63 63
63 63 63
63 63 63
63 63 63
63 63 63
63 63 63
63 63 63
63 63 63
63 63 63
63 63 63
63 63 63
63 63 63
63 63 63
63 63 63
63 63 63
63 63 63
63 63 63
63 63 63
63 63 63
63 63 63
63 63 63
63 63 63
63 63 63
63 63 63
63 63 63
63 63 63
63 63 63
63 63 63
63 63 63
63 63 63
63 63 63
63 63 63
63 63 63
63 63 63
63 63 63
63 63 63
63 63 63
63 63 63
63 63 63
63 63 63
63 63 63
63 63 63
63 63 63
63 63 63
63 63 63
63 63 63
63 63 63
63 63 63
63 63 63
63 63 63
63 63 63
63 63 63
63 63 63
63 63 63
63 63 63
63 63 63
63 63 63
63 63 63
63 63 63
63 63 63
63 63 63
63 63 63
63 63 63
63 63 63
63 63 63
63 63 63
63 63 63
63 63 63
63 63 63
63 63 63
63 63 63
63 63 63
63 63 63
63 63 63
63 63 63
63 63 63
63 63 63
63 63 63
63 63 63
63 63 63
63 63 63
63 63 63
63 63 63
63 63 63
63 63 63
63 63 63
63 63 63
63 63 63
63 63 63
63 63 63
63 63 63
63 63 63
63 63 63
63 63 63
63 63 63
63 63 63
63 63 63
63 63 63
63 63 63
63 63 63
63 63 63
63 63 63
63 63 63
63 63 63
63 63 63
63 63 63
63 63 63
63 63 63
63 63 63
63 63 63
63 63 63
63 63 63
63 63 63
63 63 63
63 63 63
63 63 63
63 63 63
63 63 63
63 63 63
63 63 63
63 63 63
63 63 63
63 63 63
63 63 63
63 63 63
63 63 63
63 63 63
63 63 63
63 63 63
63 63 63
63 63 63
63 63 63
63 63 63
63 63 63
63 63 63
63 63 63
63 63 63
63 63 63
63 63 63
63 63 63
63 63 63
63 63 63
63 63 63
63 63 63
63 63 63
63 63 63
63 63 63
63 63 63
63 63 63
63 63 63
63 63 63
63 63 63
63 63 63
63 63 63
63 63 63
63 63 63
63 63 63
63 63 63
63 63 63
63 63 63
63 63 63
63 63 63
63 63 63
63 63 63
63 63 63
63 63 63
63 63 63
63 63 63
63 63 63
63 63 63
63 63 63
63 63 63
63 63 63
63 63 63
63 63 63
63 63 63
63 63 63
63 63 63
63 63 63
63 63 63
63 63 63
63 63 63
63 63 63
63 63 63
63 63 63
63 63 63
63 63 63
63 63 63
63 63 63
63 63 63
63 63 63
63 63 63
63 63 63
63 63 63
63 63 63
63 63 63
63 63 63
63 63 63
63 63 63
63 63 63
63 63 63
63 63 63
63 63 63
63 63 63
63 63 63
63 63 63
63 63 63
63 63 63
63 63 63
63 63 63
63 63 63
63 63 63
63 63 63
63 63 63
63 63 63
63 63 63
63 63 63
63 63 63
63 63 63
63 63 63
63 63 63
63 63 63
63 63 63
63 63 63
63 63 63
63 63 63
63 63 63
63 63 63
63 63 63
63 63 63
63 63 63
63 63 63
63 63 63
63 63 63
63 63 63
63 63 63
63 63 63
63 63 63
63 63 63
63 63 63
63 63 63
63 63 63
63 63 63
63 63 63
63 63 63
63 63 63
63 63 63
63 63 63
63 63 63
63 63 63
63 63 63
63 63 63
63 63 63
63 63 63
63 63 63
63 63 63
63 63 63
63 63 63
63 63 63
63 63 63
63 63 63
63 63 63
63 63 63
63 63 63
63 63 63
63 63 63
63 63 63
63 63 63
63 63 63
63 63 63
63 63 63
63 63 63
63 63 63
63 63 63
63 63 63
63 63 63
63 63 63
63 63 63
63 63 63
63 63 63
63 63 63
63 63 63
63 63 63
63 63 63
63 63 63
63 63 63
63 63 63
63 63 63
63 63 63
63 63 63
63 63 63
63 63 63
63 63 63
63 63 63
63 63 63
63 63 63
63 63 63
63 63 63
63 63 63
63 63 63
63 63 63
63 63 63
63 63 63
63 63 63
63 63 63
63 63 63
63 63 63
63 63 63
63 63 63
63 63 63
63 63 63
63 63 63
63 63 63
63 63 63
63 63 63
63 63 63
63 63 63
63 63 63
63 63 63
63 63 63
63 63 63
63 63 63
63 63 63
63 63 63
63 63 63
63 63 63
63 63 63
63 63 63
63 63 63
63 63 63
63 63 63
63 63 63
63 63 63
63 63 63
63 63 63
63 63 63
63 63 63
63 63 63
63 63 63
63 63 63
63 63 63
63 63 63
63 63 63
63 63 63
63 63 63
63 63 63
63 63 63
63 63 63
63 63 63
63 63 63
63 63 63
63 63 63
63 63 63
63 63 63
63 63 63
63 63 63
63 63 63
63 63 63
63 63 63
63 63 63
63 63 63
63 63 63
63 63 63
63 63 63
63 63 63
63 63 63
63 63 63
63 63 63
63 63 63
63 63 63
63 63 63
63 63 63
63 63 63
63 63 63
63 63 63
63 63 63
63 63 63
63 63 63
63 63 63
63 63 63
63 63 63
63 63 63
63 63 63
63 63 63
63 63 63
63 63 63
63 63 63
63 63 63
63 63 63
63 63 63
63 63 63
63 63 63
63 63 63
63 63 63
63 63 63
63 63 63
63 63 63
63 63 63
63 63 63
63 63 63
63 63 63
63 63 63
63 63 63
63 63 63
63 63 63
63 63 63
63 63 63
63 63 63
63 63 63
63 63 63
63 63 63
63 63 63
63 63 63
63 63 63
63 63 63
63 63 63
63 63 63
63 63 63
63 63 63
63 63 63
63 63 63
63 63 63
63 63 63
63 63 63
63 63 63
63 63 63
63 63 63
63 63 63
63 63 63
63 63 63
63 63 63
63 63 63
63 63 63
63 63 63
63 63 63
63 63 63
63 63 63
63 63 63
63 63 63
63 63 63
63 63 63
63 63 63
63 63 63
63 63 63
63 63 63
63 63 63
63 63 63
63 63 63
63 63 63
63 63 63
63 63 63
63 63 63
63 63 63
63 63 63
63 63 63
63 63 63
63 63 63
63 63 63
63 63 63
63 63 63
63 63 63
63 63 63
63 63 63
63 63 63
63 63 63
63 63 63
63 63 63
63 63 63
63 63 63
63 63 63
63 63 63
63 63 63
63 63 63
63 63 63
63 63 63
63 63 63
63 63 63
63 63 63
63 63 63
63 63 63
63 63 63
63 63 63
63 63 63
63 63 63
63 63 63
63 63 63
63 63 63
63 63 63
63 63 63
63 63 63
63 63 63
63 63 63
63 63 63
63 63 63
63 63 63
63 63 63
63 63 63
63 63 63
63 63 63
63 63 63
63 63 63
63 63 63
63 63 63
63 63 63
63 63 63
63 63 63
63 63 63
63 63 63
63 63 63
63 63 63
63 63 63
63 63 63
63 63 63
63 63 63
63 63 63
63 63 63
63 63 63
63 63 63
63 63 63
63 63 63
63 63 63
63 63 63
63 63 63
63 63 63
63 63 63
63 63 63
63 63 63
63 63 63
63 63 63
63 63 63
63 63 63
63 63 63
63 63 63
63 63 63
63 63 63
63 63 63
63 63 63
63 63 63
63 63 63
63 63 63
63 63 63
63 63 63
63 63 63
63 63 63
63 63 63
63 63 63
63 63 63
63 63 63
63 63 63
63 63 63
63 63 63
63 63 63
63 63 63
63 63 63
63 63 63
63 63 63
63 63 63
63 63 63
63 63 63
63 63 63
63 63 63
63 63 63
63 63 63
63 63 63
63 63 63
63 63 63
63 63 63
63 63 63
63 63 63
63 63 63
63 63 63
63 63 63
63 63 63
63 63 63
63 63 63
63 63 63
63 63 63
63 63 63
63 63 63
63 63 63
63 63 63
63 63 63
63 63 63
63 63 63
63 63 63
63 63 63
63 63 63
63 63 63
63 63 63
63 63 63
63 63 63
63 63 63
63 63 63
63 63 63
63 63 63
63 63 63
63 63 63
63 63 63
63 63 63
63 63 63
63 63 63
63 63 63
63 63 63
63 63 63
63 63 63
63 63 63
63 63 63
63 63 63
63 63 63
63 63 63
63 63 63
63 63 63
63 63 63
63 63 63
63 63 63
63 63 63
63 63 63
63 63 63
63 63 63
63 63 63
63 63 63
63 63 63
63 63 63
63 63 63
63 63 63
63 63 63
63 63 63
63 63 63
63 63 63
63 63 63
63 63 63
63 63 63
63 63 63
63 63 63
63 63 63
63 63 63
63 63 63
63 63 63
63 63 63
63 63 63
63 63 63
63 63 63
63 63 63
63 63 63
63 63 63
63 63 63
63 63 63
63 63 63
63 63 63
63 63 63
63 63 63
63 63 63
63 63 63
63 63 63
63 63 63
63 63 63
63 63 63
63 63 63
63 63 63
63 63 63
63 63 63
63 63 63
63 63 63
63 63 63
63 63 63
63 63 63
63 63 63
63 63 63
63 63 63
63 63 63
63 63 63
63 63 63
63 63 63
63 63 63
63 63 63
63 63 63
63 63 63
63 63 63
63 63 63
63 63 63
63 63 63
63 63 63
63 63 63
63 63 63
63 63 63
63 63 63
63 63 63
63 63 63
63 63 63
63 63 63
63 63 63
63 63 63
63 63 63
63 63 63
63 63 63
63 63 63
63 63 63
63 63 63
63 63 63
63 63 63
63 63 63
63 63 63
63 63 63
63 63 63
63 63 63
63 63 63
63 63 63
63 63 63
63 63 63
63 63 63
63 63 63
63 63 63
63 63 63
63 63 63
63 63 63
63 63 63
63 63 63
63 63 63
63 63 63
63 63 63
63 63 63
63 63 63
63 63 63
63 63 63
63 63 63
63 63 63
63 63 63
63 63 63
63 63 63
63 63 63
63 63 63
63 63 63
63 63 63
63 63 63
63 63 63
63 63 63
63 63 63
63 63 63
63 63 63
63 63 63
63 63 63
63 63 63
63 63 63
63 63 63
63 63 63
63 63 63
63 63 63
63 63 63
63 63 63
63 63 63
63 63 63
63 63 63
63 63 63
63 63 63
63 63 63
63 63 63
63 63 63
63 63 63
63 63 63
63 63 63
63 63 63
63 63 63
63 63 63
63 63 63
63 63 63
63 63 63
63 63 63
63 63 63
63 63 63
63 63 63
63 63 63
63 63 63
63 63 63
63 63 63
63 63 63
63 63 63
63 63 63
63 63 63
63 63 63
63 63 63
63 63 63
63 63 63
63 63 63
63 63 63
63 63 63
63 63 63
63 63 63
63 63 63
63 63 63
63 63 63
63 63 63
63 63 63
63 63 63
63 63 63
63 63 63
63 63 63
63 63 63
63 63 63
63 63 63
63 63 63
63 63 63
63 63 63
63 63 63
63 63 63
63 63 63
63 63 63
63 63 63
63 63 63
63 63 63
63 63 63
63 63 63
63 63 63
63 63 63
63 63 63
63 63 63
63 63 63
63 63 63
63 63 63
63 63 63
63 63 63
63 63 63
63 63 63
63 63 63
63 63 63
63 63 63
63 63 63
63 63 63
63 63 63
63 63 63
63 63 63
63 63 63
63 63 63
63 63 63
63 63 63
63 63 63
63 63 63
63 63 63
63 63 63
63 63 63
63 63 63
63 63 63
63 63 63
63 63 63
63 63 63
63 63 63
63 63 63
63 63 63
63 63 63
63 63 63
63 63 63
63 63 63
63 63 63
63 63 63
63 63 63
63 63 63
63 63 63
63 63 63
63 63 63
63 63 63
63 63 63
63 63 63
63 63 63
63 63 63
63 63 63
63 63 63
63 63 63
63 63 63
63 63 63
63 63 63
63 63 63
63 63 63
63 63 63
63 63 63
63 63 63
63 63 63
63 63 63
63 63 63
63 63 63
63 63 63
63 63 63
63 63 63
63 63 63
63 63 63
63 63 63
63 63 63
63 63 63
63 63 63
63 63 63
63 63 63
63 63 63
63 63 63
63 63 63
63 63 63
63 63 63
63 63 63
63 63 63
63 63 63
63 63 63
63 63 63
63 63 63
63 63 63
63 63 63
63 63 63
63 63 63
63 63 63
63 63 63
63 63 63
63 63 63
63 63 63
63 63 63
63 63 63
63 63 63
63 63 63
63 63 63
63 63 63
63 63 63
63 63 63
63 63 63
63 63 63
63 63 63
63 63 63
63 63 63
63 63 63
63 63 63
63 63 63
63 63 63
63 63 63
63 63 63
63 63 63
63 63 63
63 63 63
63 63 63
63 63 63
63 63 63
63 63 63
63 63 63
63 63 63
63 63 63
63 63 63
63 63 63
63 63 63
63 63 63
63 63 63
63 63 63
63 63 63
63 63 63
63 63 63
63 63 63
63 63 63
63 63 63
63 63 63
63 63 63
63 63 63
63 63 63
63 63 63
63 63 63
63 63 63
63 63 63
63 63 63
63 63 63
63 63 63
63 63 63
63 63 63
63 63 63
63 63 63
63 63 63
63 63 63
63 63 63
63 63 63
63 63 63
63 63 63
63 63 63
63 63 63
63 63 63
63 63 63
63 63 63
63 63 63
63 63 63
63 63 63
63 63 63
63 63 63
63 63 63
63 63 63
63 63 63
63 63 63
63 63 63
63 63 63
63 63 63
63 63 63
63 63 63
63 63 63
63 63 63
63 63 63
63 63 63
63 63 63
63 63 63
63 63 63
63 63 63
63 63 63
63 63 63
63 63 63
63 63 63
63 63 63
63 63 63
63 63 63
63 63 63
63 63 63
63 63 63
63 63 63
63 63 63
63 63 63
63 63 63
63 63 63
63 63 63
63 63 63
63 63 63
63 63 63
63 63 63
63 63 63
63 63 63
63 63 63
63 63 63
63 63 63
63 63 63
63 63 63
63 63 63
63 63 63
63 63 63
63 63 63
63 63 63
63 63 63
63 63 63
63 63 63
63 63 63
63 63 63
63 63 63
63 63 63
63 63 63
63 63 63
63 63 63
63 63 63
63 63 63
63 63 63
63 63 63
63 63 63
63 63 63
63 63 63
63 63 63
63 63 63
63 63 63
63 63 63
63 63 63
63 63 63
63 63 63
63 63 63
63 63 63
63 63 63
63 63 63
63 63 63
63 63 63
63 63 63
63 63 63
63 63 63
63 63 63
63 63 63
63 63 63
63 63 63
63 63 63
63 63 63
63 63 63
63 63 63
63 63 63
63 63 63
63 63 63
63 63 63
63 63 63
63 63 63
63 63 63
63 63 63
63 63 63
63 63 63
63 63 63
63 63 63
63 63 63
63 63 63
63 63 63
63 63 63
63 63 63
63 63 63
63 63 63
63 63 63
63 63 63
63 63 63
63 63 63
63 63 63
63 63 63
63 63 63
63 63 63
63 63 63
63 63 63
63 63 63
63 63 63
63 63 63
63 63 63
63 63 63
63 63 63
63 63 63
63 63 63
63 63 63
63 63 63
63 63 63
63 63 63
63 63 63
63 63 63
63 63 63
63 63 63
63 63 63
63 63 63
63 63 63
63 63 63
63 63 63
63 63 63
63 63 63
63 63 63
63 63 63
63 63 63
63 63 63
63 63 63
63 63 63
63 63 63
63 63 63
63 63 63
63 63 63
63 63 63
63 63 63
63 63 63
63 63 63
63 63 63
63 63 63
63 63 63
63 63 63
63 63 63
63 63 63
63 63 63
63 63 63
63 63 63
63 63 63
63 63 63
63 63 63
63 63 63
63 63 63
63 63 63
63 63 63
63 63 63
63 63 63
63 63 63
63 63 63
63 63 63
63 63 63
63 63 63
63 63 63
63 63 63
63 63 63
63 63 63
63 63 63
63 63 63
63 63 63
63 63 63
63 63 63
63 63 63
63 63 63
63 63 63
63 63 63
63 63 63
63 63 63
63 63 63
63 63 63
63 63 63
63 63 63
63 63 63
63 63 63
63 63 63
63 63 63
63 63 63
63 63 63
63 63 63
63 63 63
63 63 63
63 63 63
63 63 63
63 63 63
63 63 63
63 63 63
63 63 63
63 63 63
63 63 63
63 63 63
63 63 63
63 63 63
63 63 63
63 63 63
63 63 63
63 63 63
63 63 63
63 63 63
63 63 63
63 63 63
63 63 63
63 63 63
63 63 63
63 63 63
63 63 63
63 63 63
63 63 63
63 63 63
63 63 63
63 63 63
63 63 63
63 63 63
63 63 63
63 63 63
63 63 63
63 63 63
63 63 63
63 63 63
63 63 63
63 63 63
63 63 63
63 63 63
63 63 63
63 63 63
63 63 63
63 63 63
63 63 63
63 63 63
63 63 63
63 63 63
63 63 63
63 63 63
63 63 63
63 63 63
63 63 63
63 63 63
63 63 63
63 63 63
63 63 63
63 63 63
63 63 63
63 63 63
63 63 63
63 63 63
63 63 63
63 63 63
63 63 63
63 63 63
63 63 63
63 63 63
63 63 63
63 63 63
63 63 63
63 63 63
63 63 63
63 63 63
63 63 63
63 63 63
63 63 63
63 63 63
63 63 63
63 63 63
63 63 63
63 63 63
63 63 63
63 63 63
63 63 63
63 63 63
63 63 63
63 63 63
63 63 63
63 63 63
63 63 63
63 63 63
63 63 63
63 63 63
63 63 63
63 63 63
63 63 63
63 63 63
63 63 63
63 63 63
63 63 63
63 63 63
63 63 63
63 63 63
63 63 63
63 63 63
63 63 63
63 63 63
63 63 63
63 63 63
63 63 63
63 63 63
63 63 63
63 63 63
63 63 63
63 63 63
63 63 63
63 63 63
63 63 63
63 63 63
63 63 63
63 63 63
63 63 63
63 63 63
63 63 63
63 63 63
63 63 63
63 63 63
63 63 63
63 63 63
63 63 63
63 63 63
63 63 63
63 63 63
63 63 63
63 63 63
63 63 63
63 63 63
63 63 63
63 63 63
63 63 63
63 63 63
63 63 63
63 63 63
63 63 63
63 63 63
63 63 63
63 63 63
63 63 63
63 63 63
63 63 63
63 63 63
63 63 63
63 63 63
63 63 63
63 63 63
63 63 63
63 63 63
63 63 63
63 63 63
63 63 63
63 63 63
63 63 63
63 63 63
63 63 63
63 63 63
63 63 63
63 63 63
63 63 63
63 63 63
63 63 63
63 63 63
63 63 63
63 63 63
63 63 63
63 63 63
63 63 63
63 63 63
63 63 63
63 63 63
63 63 63
63 63 63
63 63 63
63 63 63
63 63 63
63 63 63
63 63 63
63 63 63
63 63 63
63 63 63
63 63 63
63 63 63
63 63 63
63 63 63
63 63 63
63 63 63
63 63 63
63 63 63
63 63 63
63 63 63
63 63 63
63 63 63
63 63 63
63 63 63
63 63 63
63 63 63
63 63 63
63 63 63
63 63 63
63 63 63
63 63 63
63 63 63
63 63 63
63 63 63
63 63 63
63 63 63
63 63 63
63 63 63
63 63 63
63 63 63
63 63 63
63 63 63
63 63 63
63 63 63
63 63 63
63 63 63
63 63 63
63 63 63
63 63 63
63 63 63
63 63 63
63 63 63
63 63 63
63 63 63
63 63 63
63 63 63
63 63 63
63 63 63
63 63 63
63 63 63
63 63 63
63 63 63
63 63 63
63 63 63
63 63 63
63 63 63
63 63 63
63 63 63
63 63 63
63 63 63
63 63 63
63 63 63
63 63 63
63 63 63
63 63 63
63 63 63
63 63 63
63 63 63
63 63 63
63 63 63
63 63 63
63 63 63
63 63 63
63 63 63
63 63 63
63 63 63
63 63 63
63 63 63
63 63 63
63 63 63
63 63 63
63 63 63
63 63 63
63 63 63
63 63 63
63 63 63
63 63 63
63 63 63
63 63 63
63 63 63
63 63 63
63 63 63
63 63 63
63 63 63
63 63 63
63 63 63
63 63 63
63 63 63
63 63 63
63 63 63
63 63 63
63 63 63
63 63 63
63 63 63
63 63 63
63 63 63
63 63 63
63 63 63
63 63 63
63 63 63
63 63 63
63 63 63
63 63 63
63 63 63
63 63 63
63 63 63
63 63 63
63 63 63
63 63 63
63 63 63
63 63 63
63 63 63
63 63 63
63 63 63
63 63 63
63 63 63
63 63 63
63 63 63
63 63 63
63 63 63
63 63 63
63 63 63
63 63 63
63 63 63
63 63 63
63 63 63
63 63 63
63 63 63
63 63 63
63 63 63
63 63 63
63 63 63
63 63 63
63 63 63
63 63 63
63 63 63
63 63 63
63 63 63
63 63 63
63 63 63
63 63 63
63 63 63
63 63 63
63 63 63
63 63 63
63 63 63
63 63 63
63 63 63
63 63 63
63 63 63
63 63 63
63 63 63
63 63 63
63 63 63
63 63 63
63 63 63
63 63 63
63 63 63
63 63 63
63 63 63
63 63 63
63 63 63
63 63 63
63 63 63
63 63 63
63 63 63
63 63 63
63 63 63
63 63 63
63 63 63
63 63 63
63 63 63
63 63 63
63 63 63
63 63 63
63 63 63
63 63 63
63 63 63
63 63 63
63 63 63
63 63 63
63 63 63
63 63 63
63 63 63
63 63 63
63 63 63
63 63 63
63 63 63
63 63 63
63 63 63
63 63 63
63 63 63
63 63 63
63 63 63
63 63 63
63 63 63
63 63 63
63 63 63
63 63 63
63 63 63
63 63 63
63 63 63
63 63 63
63 63 63
63 63 63
63 63 63
63 63 63
63 63 63
63 63 63
63 63 63
63 63 63
63 63 63
63 63 63
63 63 63
63 63 63
63 63 63
63 63 63
63 63 63
63 63 63
63 63 63
63 63 63
63 63 63
63 63 63
63 63 63
63 63 63
63 63 63
63 63 63
63 63 63
63 63 63
63 63 63
63 63 63
63 63 63
63 63 63
63 63 63
63 63 63
63 63 63
63 63 63
63 63 63
63 63 63
63 63 63
63 63 63
63 63 63
63 63 63
63 63 63
63 63 63
63 63 63
63 63 63
63 63 63
63 63 63
63 63 63
63 63 63
63 63 63
63 63 63
63 63 63
63 63 63
63 63 63
63 63 63
63 63 63
63 63 63
63 63 63
63 63 63
63 63 63
63 63 63
63 63 63
63 63 63
63 63 63
63 63 63
63 63 63
63 63 63
63 63 63
63 63 63
63 63 63
63 63 63
63 63 63
63 63 63
63 63 63
63 63 63
63 63 63
63 63 63
63 63 63
63 63 63
63 63 63
63 63 63
63 63 63
63 63 63
63 63 63
63 63 63
63 63 63
63 63 63
63 63 63
63 63 63
63 63 63
63 63 63
63 63 63
63 63 63
63 63 63
63 63 63
63 63 63
63 63 63
63 63 63
63 63 63
63 63 63
63 63 63
63 63 63
63 63 63
63 63 63
63 63 63
63 63 63
63 63 63
63 63 63
63 63 63
63 63 63
63 63 63
63 63 63
63 63 63
63 63 63
63 63 63
63 63 63
63 63 63
63 63 63
63 63 63
63 63 63
63 63 63
63 63 63
63 63 63
63 63 63
63 63 63
63 63 63
63 63 63
63 63 63
63 63 63
63 63 63
63 63 63
63 63 63
63 63 63
63 63 63
63 63 63
63 63 63
63 63 63
63 63 63
63 63 63
63 63 63
63 63 63
63 63 63
63 63 63
63 63 63
63 63 63
63 63 63
63 63 63
63 63 63
63 63 63
63 63 63
63 63 63
63 63 63
63 63 63
63 63 63
63 63 63
63 63 63
63 63 63
63 63 63
63 63 63
63 63 63
63 63 63
63 63 63
63 63 63
63 63 63
63 63 63
63 63 63
63 63 63
63 63 63
63 63 63
63 63 63
63 63 63
63 63 63
63 63 63
63 63 63
63 63 63
63 63 63
63 63 63
63 63 63
63 63 63
63 63 63
63 63 63
63 63 63
63 63 63
63 63 63
63 63 63
63 63 63
63 63 63
63 63 63
63 63 63
63 63 63
63 63 63
63 63 63
63 63 63
63 63 63
63 63 63
63 63 63
63 63 63
63 63 63
63 63 63
63 63 63
63 63 63
63 63 63
63 63 63
63 63 63
63 63 63
63 63 63
63 63 63
63 63 63
63 63 63
63 63 63
63 63 63
63 63 63
63 63 63
63 63 63
63 63 63
63 63 63
63 63 63
63 63 63
63 63 63
63 63 63
63 63 63
63 63 63
63 63 63
63 63 63
63 63 63
63 63 63
63 63 63
63 63 63
63 63 63
63 63 63
63 63 63
63 63 63
63 63 63
63 63 63
63 63 63
63 63 63
63 63 63
63 63 63
63 63 63
63 63 63
63 63 63
63 63 63
63 63 63
63 63 63
63 63 63
63 63 63
63 63 63
63 63 63
63 63 63
63 63 63
63 63 63
63 63 63
63 63 63
63 63 63
63 63 63
63 63 63
63 63 63
63 63 63
63 63 63
63 63 63
63 63 63
63 63 63
63 63 63
63 63 63
63 63 63
63 63 63
63 63 63
63 63 63
63 63 63
63 63 63
63 63 63
63 63 63
63 63 63
63 63 63
63 63 63
63 63 63
63 63 63
63 63 63
63 63 63
63 63 63
63 63 63
63 63 63
63 63 63
63 63 63
63 63 63
63 63 63
63 63 63
63 63 63
63 63 63
63 63 63
63 63 63
63 63 63
63 63 63
63 63 63
63 63 63
63 63 63
63 63 63
63 63 63
63 63 63
63 63 63
63 63 63
63 63 63
63 63 63
63 63 63
63 63 63
63 63 63
63 63 63
63 63 63
63 63 63
63 63 63
63 63 63
63 63 63
63 63 63
63 63 63
63 63 63
63 63 63
63 63 63
63 63 63
63 63 63
63 63 63
63 63 63
63 63 63
63 63 63
63 63 63
63 63 63
63 63 63
63 63 63
63 63 63
63 63 63
63 63 63
63 63 63
63 63 63
63 63 63
63 63 63
63 63 63
63 63 63
63 63 63
63 63 63
63 63 63
63 63 63
63 63 63
63 63 63
63 63 63
63 63 63
63 63 63
63 63 63
63 63 63
63 63 63
63 63 63
63 63 63
63 63 63
63 63 63
63 63 63
63 63 63
63 63 63
63 63 63
63 63 63
63 63 63
63 63 63
63 63 63
63 63 63
63 63 63
63 63 63
63 63 63
63 63 63
63 63 63
63 63 63
63 63 63
63 63 63
63 63 63
63 63 63
63 63 63
63 63 63
63 63 63
63 63 63
63 63 63
63 63 63
63 63 63
63 63 63
63 63 63
63 63 63
63 63 63
63 63 63
63 63 63
63 63 63
63 63 63
63 63 63
63 63 63
63 63 63
63 63 63
63 63 63
63 63 63
63 63 63
63 63 63
63 63 63
63 63 63
63 63 63
63 63 63
63 63 63
63 63 63
63 63 63
63 63 63
63 63 63
63 63 63
63 63 63
63 63 63
63 63 63
63 63 63
63 63 63
63 63 63
63 63 63
63 63 63
63 63 63
63 63 63
63 63 63
63 63 63
63 63 63
63 63 63
63 63 63
63 63 63
63 63 63
63 63 63
63 63 63
63 63 63
63 63 63
63 63 63
63 63 63
63 63 63
63 63 63
63 63 63
63 63 63
63 63 63
63 63 63
63 63 63
63 63 63
63 63 63
63 63 63
63 63 63
63 63 63
63 63 63
63 63 63
63 63 63
63 63 63
63 63 63
63 63 63
63 63 63
63 63 63
63 63 63
63 63 63
63 63 63
63 63 63
63 63 63
63 63 63
63 63 63
63 63 63
63 63 63
63 63 63
63 63 63
63 63 63
63 63 63
63 63 63
63 63 63
63 63 63
63 63 63
63 63 63
63 63 63
63 63 63
63 63 63
63 63 63
63 63 63
63 63 63
63 63 63
63 63 63
63 63 63
63 63 63
63 63 63
63 63 63
63 63 63
63 63 63
63 63 63
63 63 63
63 63 63
63 63 63
63 63 63
63 63 63
63 63 63
63 63 63
63 63 63
63 63 63
63 63 63
63 63 63
63 63 63
63 63 63
63 63 63
63 63 63
63 63 63
63 63 63
63 63 63
63 63 63
63 63 63
63 63 63
63 63 63
63 63 63
63 63 63
63 63 63
63 63 63
63 63 63
63 63 63
63 63 63
63 63 63
63 63 63
63 63 63
63 63 63
63 63 63
63 63 63
63 63 63
63 63 63
63 63 63
63 63 63
63 63 63
63 63 63
63 63 63
63 63 63
63 63 63
63 63 63
63 63 63
63 63 63
63 63 63
63 63 63
63 63 63
63 63 63
63 63 63
63 63 63
63 63 63
63 63 63
63 63 63
63 63 63
63 63 63
63 63 63
63 63 63
63 63 63
63 63 63
63 63 63
63 63 63
63 63 63
63 63 63
63 63 63
63 63 63
63 63 63
63 63 63
63 63 63
63 63 63
63 63 63
63 63 63
63 63 63
63 63 63
63 63 63
63 63 63
63 63 63
63 63 63
63 63 63
63 63 63
63 63 63
63 63 63
63 63 63
63 63 63
63 63 63
63 63 63
63 63 63
63 63 63
63 63 63
63 63 63
63 63 63
63 63 63
63 63 63
63 63 63
63 63 63
63 63 63
63 63 63
63 63 63
63 63 63
63 63 63
63 63 63
63 63 63
63 63 63
63 63 63
63 63 63
63 63 63
63 63 63
63 63 63
63 63 63
63 63 63
63 63 63
63 63 63
63 63 63
63 63 63
63 63 63
63 63 63
63 63 63
63 63 63
63 63 63
63 63 63
63 63 63
63 63 63
63 63 63
63 63 63
63 63 63
63 63 63
63 63 63
63 63 63
63 63 63
63 63 63
63 63 63
63 63 63
63 63 63
63 63 63
63 63 63
63 63 63
63 63 63
63 63 63
63 63 63
63 63 63
63 63 63
63 63 63
63 63 63
63 63 63
63 63 63
63 63 63
63 63 63
63 63 63
63 63 63
63 63 63
63 63 63
63 63 63
63 63 63
63 63 63
63 63 63
63 63 63
63 63 63
63 63 63
63 63 63
63 63 63
63 63 63
63 63 63
63 63 63
63 63 63
63 63 63
63 63 63
63 63 63
63 63 63
63 63 63
63 63 63
63 63 63
63 63 63
63 63 63
63 63 63
63 63 63
63 63 63
63 63 63
63 63 63
63 63 63
63 63 63
63 63 63
63 63 63
63 63 63
63 63 63
63 63 63
63 63 63
63 63 63
63 63 63
63 63 63
63 63 63
63 63 63
63 63 63
63 63 63
63 63 63
63 63 63
63 63 63
63 63 63
63 63 63
63 63 63
63 63 63
63 63 63
63 63 63
63 63 63
63 63 63
63 63 63
63 63 63
63 63 63
63 63 63
63 63 63
63 63 63
63 63 63
63 63 63
63 63 63
63 63 63
63 63 63
63 63 63
63 63 63
63 63 63
63 63 63
63 63 63
63 63 63
63 63 63
63 63 63
63 63 63
63 63 63
63 63 63
63 63 63
63 63 63
63 63 63
63 63 63
63 63 63
63 63 63
63 63 63
63 63 63
63 63 63
63 63 63
63 63 63
63 63 63
63 63 63
63 63 63
63 63 63
63 63 63
63 63 63
63 63 63
63 63 63
63 63 63
63 63 63
63 63 63
63 63 63
63 63 63
63 63 63
63 63 63
63 63 63
63 63 63
63 63 63
63 63 63
63 63 63
63 63 63
63 63 63
63 63 63
63 63 63
63 63 63
63 63 63
63 63 63
63 63 63
63 63 63
63 63 63
63 63 63
63 63 63
63 63 63
63 63 63
63 63 63
63 63 63
63 63 63
63 63 63
63 63 63
63 63 63
63 63 63
63 63 63
63 63 63
63 63 63
63 63 63
63 63 63
63 63 63
63 63 63
63 63 63
63 63 63
63 63 63
63 63 63
63 63 63
63 63 63
63 63 63
63 63 63
63 63 63
63 63 63
63 63 63
63 63 63
63 63 63
63 63 63
63 63 63
63 63 63
63 63 63
63 63 63
63 63 63
63 63 63
63 63 63
63 63 63
63 63 63
63 63 63
63 63 63
63 63 63
63 63 63
63 63 63
63 63 63
63 63 63
63 63 63
63 63 63
63 63 63
63 63 63
63 63 63
63 63 63
63 63 63
63 63 63
63 63 63
63 63 63
63 63 63
63 63 63
63 63 63
63 63 63
63 63 63
63 63 63
63 63 63
63 63 63
63 63 63
63 63 63
63 63 63
63 63 63
63 63 63
63 63 63
63 63 63
63 63 63
63 63 63
63 63 63
63 63 63
63 63 63
63 63 63
63 63 63
63 63 63
63 63 63
63 63 63
63 63 63
63 63 63
63 63 63
63 63 63
63 63 63
63 63 63
63 63 63
63 63 63
63 63 63
63 63 63
63 63 63
63 63 63
63 63 63
63 63 63
63 63 63
63 63 63
63 63 63
63 63 63
63 63 63
63 63 63
63 63 63
63 63 63
63 63 63
63 63 63
63 63 63
63 63 63
63 63 63
63 63 63
63 63 63
63 63 63
63 63 63
63 63 63
63 63 63
63 63 63
63 63 63
63 63 63
63 63 63
63 63 63
63 63 63
63 63 63
63 63 63
63 63 63
63 63 63
63 63 63
63 63 63
63 63 63
63 63 63
63 63 63
63 63 63
63 63 63
63 63 63
63 63 63
63 63 63
63 63 63
63 63 63
63 63 63
63 63 63
63 63 63
63 63 63
63 63 63
63 63 63
63 63 63
63 63 63
63 63 63
63 63 63
63 63 63
63 63 63
63 63 63
63 63 63
63 63 63
63 63 63
63 63 63
63 63 63
63 63 63
63 63 63
63 63 63
63 63 63
63 63 63
63 63 63
63 63 63
63 63 63
63 63 63
63 63 63
63 63 63
63 63 63
63 63 63
63 63 63
63 63 63
63 63 63
63 63 63
63 63 63
63 63 63
63 63 63
63 63 63
63 63 63
63 63 63
63 63 63
63 63 63
63 63 63
63 63 63
63 63 63
63 63 63
63 63 63
63 63 63
63 63 63
63 63 63
63 63 63
63 63 63
63 63 63
63 63 63
63 63 63
63 63 63
63 63 63
63 63 63
63 63 63
63 63 63
63 63 63
63 63 63
63 63 63
63 63 63
63 63 63
63 63 63
63 63 63
63 63 63
63 63 63
63 63 63
63 63 63
63 63 63
63 63 63
63 63 63
63 63 63
63 63 63
63 63 63
63 63 63
63 63 63
63 63 63
63 63 63
63 63 63
63 63 63
63 63 63
63 63 63
63 63 63
63 63 63
63 63 63
63 63 63
63 63 63
63 63 63
63 63 63
63 63 63
63 63 63
63 63 63
63 63 63
63 63 63
63 63 63
63 63 63
63 63 63
63 63 63
63 63 63
63 63 63
63 63 63
63 63 63
63 63 63
63 63 63
63 63 63
63 63 63
63 63 63
63 63 63
63 63 63
63 63 63
63 63 63
63 63 63
63 63 63
63 63 63
63 63 63
63 63 63
63 63 63
63 63 63
63 63 63
63 63 63
63 63 63
63 63 63
63 63 63
63 63 63
63 63 63
63 63 63
63 63 63
63 63 63
63 63 63
63 63 63
63 63 63
63 63 63
63 63 63
63 63 63
63 63 63
63 63 63
63 63 63
63 63 63
63 63 63
63 63 63
63 63 63
63 63 63
63 63 63
63 63 63
63 63 63
63 63 63
63 63 63
63 63 63
63 63 63
63 63 63
63 63 63
63 63 63
63 63 63
63 63 63
63 63 63
63 63 63
63 63 63
63 63 63
63 63 63
63 63 63
63 63 63
63 63 63
63 63 63
63 63 63
63 63 63
63 63 63
63 63 63
63 63 63
63 63 63
63 63 63
63 63 63
63 63 63
63 63 63
63 63 63
63 63 63
63 63 63
63 63 63
63 63 63
63 63 63
63 63 63
63 63 63
63 63 63
63 63 63
63 63 63
63 63 63
63 63 63
63 63 63
63 63 63
63 63 63
63 63 63
63 63 63
63 63 63
63 63 63
63 63 63
63 63 63
63 63 63
63 63 63
63 63 63
63 63 63
63 63 63
63 63 63
63 63 63
63 63 63
63 63 63
63 63 63
63 63 63
63 63 63
63 63 63
63 63 63
63 63 63
63 63 63
63 63 63
63 63 63
63 63 63
63 63 63
63 63 63
63 63 63
63 63 63
63 63 63
63 63 63
63 63 63
63 63 63
63 63 63
63 63 63
63 63 63
63 63 63
63 63 63
63 63 63
63 63 63
63 63 63
63 63 63
63 63 63
63 63 63
63 63 63
63 63 63
63 63 63
63 63 63
63 63 63
63 63 63
63 63 63
63 63 63
63 63 63
63 63 63
63 63 63
63 63 63
63 63 63
63 63 63
63 63 63
63 63 63
63 63 63
63 63 63
63 63 63
63 63 63
63 63 63
63 63 63
63 63 63
63 63 63
63 63 63
63 63 63
63 63 63
63 63 63
63 63 63
63 63 63
63 63 63
63 63 63
63 63 63
63 63 63
63 63 63
63 63 63
63 63 63
63 63 63
63 63 63
63 63 63
63 63 63
63 63 63
63 63 63
63 63 63
63 63 63
63 63 63
63 63 63
63 63 63
63 63 63
63 63 63
63 63 63
63 63 63
63 63 63
63 63 63
63 63 63
63 63 63
63 63 63
63 63 63
63 63 63
63 63 63
63 63 63
63 63 63
63 63 63
63 63 63
63 63 63
63 63 63
63 63 63
63 63 63
63 63 63
63 63 63
63 63 63
63 63 63
63 63 63
63 63 63
63 63 63
63 63 63
63 63 63
63 63 63
63 63 63
63 63 63
63 63 63
63 63 63
63 63 63
63 63 63
63 63 63
63 63 63
63 63 63
63 63 63
63 63 63
63 63 63
63 63 63
63 63 63
63 63 63
63 63 63
63 63 63
63 63 63
63 63 63
63 63 63
63 63 63
63 63 63
63 63 63
63 63 63
63 63 63
63 63 63
63 63 63
63 63 63
63 63 63
63 63 63
63 63 63
63 63 63
63 63 63
63 63 63
63 63 63
63 63 63
63 63 63
63 63 63
63 63 63
63 63 63
63 63 63
63 63 63
63 63 63
63 63 63
63 63 63
63 63 63
63 63 63
63 63 63
63 63 63
63 63 63
63 63 63
63 63 63
63 63 63
63 63 63
63 63 63
63 63 63
63 63 63
63 63 63
63 63 63
63 63 63
63 63 63
63 63 63
63 63 63
63 63 63
63 63 63
63 63 63
63 63 63
63 63 63
63 63 63
63 63 63
63 63 63
63 63 63
63 63 63
63 63 63
63 63 63
63 63 63
63 63 63
63 63 63
63 63 63
63 63 63
63 63 63
63 63 63
63 63 63
63 63 63
63 63 63
63 63 63
63 63 63
63 63 63
63 63 63
63 63 63
63 63 63
63 63 63
63 63 63
63 63 63
63 63 63
63 63 63
63 63 63
63 63 63
63 63 63
63 63 63
63 63 63
63 63 63
63 63 63
63 63 63
63 63 63
63 63 63
63 63 63
63 63 63
63 63 63
63 63 63
63 63 63
63 63 63
63 63 63
63 63 63
63 63 63
63 63 63
63 63 63
63 63 63
63 63 63
63 63 63
63 63 63
63 63 63
63 63 63
63 63 63
63 63 63
63 63 63
63 63 63
63 63 63
63 63 63
63 63 63
63 63 63
63 63 63
63 63 63
63 63 63
63 63 63
63 63 63
63 63 63
63 63 63
63 63 63
63 63 63
63 63 63
63 63 63
63 63 63
63 63 63
63 63 63
63 63 63
63 63 63
63 63 63
63 63 63
63 63 63
63 63 63
63 63 63
63 63 63
63 63 63
63 63 63
63 63 63
63 63 63
63 63 63
63 63 63
63 63 63
63 63 63
63 63 63
63 63 63
63 63 63
63 63 63
63 63 63
63 63 63
63 63 63
63 63 63
63 63 63
63 63 63
63 63 63
63 63 63
63 63 63
63 63 63
63 63 63
63 63 63
63 63 63
63 63 63
63 63 63
63 63 63
63 63 63
63 63 63
63 63 63
63 63 63
63 63 63
63 63 63
63 63 63
63 63 63
63 63 63
63 63 63
63 63 63
63 63 63
63 63 63
63 63 63
63 63 63
63 63 63
63 63 63
63 63 63
63 63 63
63 63 63
63 63 63
63 63 63
63 63 63
63 63 63
63 63 63
63 63 63
63 63 63
63 63 63
63 63 63
63 63 63
63 63 63
63 63 63
63 63 63
63 63 63
63 63 63
63 63 63
63 63 63
63 63 63
63 63 63
63 63 63
63 63 63
63 63 63
63 63 63
63 63 63
63 63 63
63 63 63
63 63 63
63 63 63
63 63 63
63 63 63
63 63 63
63 63 63
63 63 63
63 63 63
63 63 63
63 63 63
63 63 63
63 63 63
63 63 63
63 63 63
63 63 63
63 63 63
63 63 63
63 63 63
63 63 63
63 63 63
63 63 63
63 63 63
63 63 63
63 63 63
63 63 63
63 63 63
63 63 63
63 63 63
63 63 63
63 63 63
63 63 63
63 63 63
63 63 63
63 63 63
63 63 63
63 63 63
63 63 63
63 63 63
63 63 63
63 63 63
63 63 63
63 63 63
63 63 63
63 63 63
63 63 63
63 63 63
63 63 63
63 63 63
63 63 63
63 63 63
63 63 63
63 63 63
63 63 63
63 63 63
63 63 63
63 63 63
63 63 63
63 63 63
63 63 63
63 63 63
63 63 63
63 63 63
63 63 63
63 63 63
63 63 63
63 63 63
63 63 63
63 63 63
63 63 63
63 63 63
63 63 63
63 63 63
63 63 63
63 63 63
63 63 63
63 63 63
63 63 63
63 63 63
63 63 63
63 63 63
63 63 63
63 63 63
63 63 63
63 63 63
63 63 63
63 63 63
63 63 63
63 63 63
63 63 63
63 63 63
63 63 63
63 63 63
63 63 63
63 63 63
63 63 63
63 63 63
63 63 63
63 63 63
63 63 63
63 63 63
63 63 63
63 63 63
63 63 63
63 63 63
63 63 63
63 63 63
63 63 63
63 63 63
63 63 63
63 63 63
63 63 63
63 63 63
63 63 63
63 63 63
63 63 63
63 63 63
63 63 63
63 63 63
63 63 63
63 63 63
63 63 63
63 63 63
63 63 63
63 63 63
63 63 63
63 63 63
63 63 63
63 63 63
63 63 63
63 63 63
63 63 63
63 63 63
63 63 63
63 63 63
63 63 63
63 63 63
63 63 63
63 63 63
63 63 63
63 63 63
63 63 63
63 63 63
63 63 63
63 63 63
63 63 63
63 63 63
63 63 63
63 63 63
63 63 63
63 63 63
63 63 63
63 63 63
63 63 63
63 63 63
63 63 63
63 63 63
63 63 63
63 63 63
63 63 63
63 63 63
63 63 63
63 63 63
63 63 63
63 63 63
63 63 63
63 63 63
63 63 63
63 63 63
63 63 63
63 63 63
63 63 63
63 63 63
63 63 63
63 63 63
63 63 63
63 63 63
63 63 63
63 63 63
63 63 63
63 63 63
63 63 63
63 63 63
63 63 63
63 63 63
63 63 63
63 63 63
63 63 63
63 63 63
63 63 63
63 63 63
63 63 63
63 63 63
63 63 63
63 63 63
63 63 63
63 63 63
63 63 63
63 63 63
63 63 63
63 63 63
63 63 63
63 63 63
63 63 63
63 63 63
63 63 63
63 63 63
63 63 63
63 63 63
63 63 63
63 63 63
63 63 63
63 63 63
63 63 63
63 63 63
63 63 63
63 63 63
63 63 63
63 63 63
63 63 63
63 63 63
63 63 63
63 63 63
63 63 63
63 63 63
63 63 63
63 63 63
63 63 63
63 63 63
63 63 63
63 63 63
63 63 63
63 63 63
63 63 63
63 63 63
63 63 63
63 63 63
63 63 63
63 63 63
63 63 63
63 63 63
63 63 63
63 63 63
63 63 63
63 63 63
63 63 63
63 63 63
63 63 63
63 63 63
63 63 63
63 63 63
63 63 63
63 63 63
63 63 63
63 63 63
63 63 63
63 63 63
63 63 63
63 63 63
63 63 63
63 63 63
63 63 63
63 63 63
63 63 63
63 63 63
63 63 63
63 63 63
63 63 63
63 63 63
63 63 63
63 63 63
63 63 63
63 63 63
63 63 63
63 63 63
63 63 63
63 63 63
63 63 63
63 63 63
63 63 63
63 63 63
63 63 63
63 63 63
63 63 63
63 63 63
63 63 63
63 63 63
63 63 63
63 63 63
63 63 63
63 63 63
63 63 63
63 63 63
63 63 63
63 63 63
63 63 63
63 63 63
63 63 63
63 63 63
63 63 63
63 63 63
63 63 63
63 63 63
63 63 63
63 63 63
63 63 63
63 63 63
63 63 63
63 63 63
63 63 63
63 63 63
63 63 63
63 63 63
63 63 63
63 63 63
63 63 63
63 63 63
63 63 63
63 63 63
63 63 63
63 63 63
63 63 63
63 63 63
63 63 63
63 63 63
63 63 63
63 63 63
63 63 63
63 63 63
63 63 63
63 63 63
63 63 63
63 63 63
63 63 63
63 63 63
63 63 63
63 63 63
63 63 63
63 63 63
63 63 63
63 63 63
63 63 63
63 63 63
63 63 63
63 63 63
63 63 63
63 63 63
63 63 63
63 63 63
63 63 63
63 63 63
63 63 63
63 63 63
63 63 63
63 63 63
63 63 63
63 63 63
63 63 63
63 63 63
63 63 63
63 63 63
63 63 63
63 63 63
63 63 63
63 63 63
63 63 63
63 63 63
63 63 63
63 63 63
63 63 63
63 63 63
63 63 63
63 63 63
63 63 63
63 63 63
63 63 63
63 63 63
63 63 63
63 63 63
63 63 63
63 63 63
63 63 63
63 63 63
63 63 63
63 63 63
63 63 63
63 63 63
63 63 63
63 63 63
63 63 63
63 63 63
63 63 63
63 63 63
63 63 63
63 63 63
63 63 63
63 63 63
63 63 63
63 63 63
63 63 63
63 63 63
63 63 63
63 63 63
63 63 63
63 63 63
63 63 63
63 63 63
63 63 63
63 63 63
63 63 63
63 63 63
63 63 63
63 63 63
63 63 63
63 63 63
63 63 63
63 63 63
63 63 63
63 63 63
63 63 63
63 63 63
63 63 63
63 63 63
63 63 63
63 63 63
63 63 63
63 63 63
63 63 63
63 63 63
63 63 63
63 63 63
63 63 63
63 63 63
63 63 63
63 63 63
63 63 63
63 63 63
63 63 63
63 63 63
63 63 63
63 63 63
63 63 63
63 63 63
63 63 63
63 63 63
63 63 63
63 63 63
63 63 63
63 63 63
63 63 63
63 63 63
63 63 63
63 63 63
63 63 63
63 63 63
63 63 63
63 63 63
63 63 63
63 63 63
63 63 63
63 63 63
63 63 63
63 63 63
63 63 63
63 63 63
63 63 63
63 63 63
63 63 63
63 63 63
63 63 63
63 63 63
63 63 63
63 63 63
63 63 63
63 63 63
63 63 63
63 63 63
63 63 63
63 63 63
63 63 63
63 63 63
63 63 63
63 63 63
63 63 63
63 63 63
63 63 63
63 63 63
63 63 63
63 63 63
63 63 63
63 63 63
63 63 63
63 63 63
63 63 63
63 63 63
63 63 63
63 63 63
63 63 63
63 63 63
63 63 63
63 63 63
63 63 63
63 63 63
63 63 63
63 63 63
63 63 63
63 63 63
63 63 63
63 63 63
63 63 63
63 63 63
63 63 63
63 63 63
63 63 63
63 63 63
63 63 63
63 63 63
63 63 63
63 63 63
63 63 63
63 63 63
63 63 63
63 63 63
63 63 63
63 63 63
63 63 63
63 63 63
63 63 63
63 63 63
63 63 63
63 63 63
63 63 63
63 63 63
63 63 63
63 63 63
63 63 63
63 63 63
63 63 63
63 63 63
63 63 63
63 63 63
63 63 63
63 63 63
63 63 63
63 63 63
63 63 63
63 63 63
63 63 63
63 63 63
63 63 63
63 63 63
63 63 63
63 63 63
63 63 63
63 63 63
63 63 63
63 63 63
63 63 63
63 63 63
63 63 63
63 63 63
63 63 63
63 63 63
63 63 63
63 63 63
63 63 63
63 63 63
63 63 63
63 63 63
63 63 63
63 63 63
63 63 63
63 63 63
63 63 63
63 63 63
63 63 63
63 63 63
63 63 63
63 63 63
63 63 63
63 63 63
63 63 63
63 63 63
63 63 63
63 63 63
63 63 63
63 63 63
63 63 63
63 63 63
63 63 63
63 63 63
63 63 63
63 63 63
63 63 63
63 63 63
63 63 63
63 63 63
63 63 63
63 63 63
63 63 63
63 63 63
63 63 63
63 63 63
63 63 63
63 63 63
63 63 63
63 63 63
63 63 63
63 63 63
63 63 63
63 63 63
63 63 63
63 63 63
63 63 63
63 63 63
63 63 63
63 63 63
63 63 63
63 63 63
63 63 63
63 63 63
63 63 63
63 63 63
63 63 63
63 63 63
63 63 63
63 63 63
63 63 63
63 63 63
63 63 63
63 63 63
63 63 63
63 63 63
63 63 63
63 63 63
63 63 63
63 63 63
63 63 63
63 63 63
63 63 63
63 63 63
63 63 63
63 63 63
63 63 63
63 63 63
63 63 63
63 63 63
63 63 63
63 63 63
63 63 63
63 63 63
63 63 63
63 63 63
63 63 63
63 63 63
63 63 63
63 63 63
63 63 63
63 63 63
63 63 63
63 63 63
63 63 63
63 63 63
63 63 63
63 63 63
63 63 63
63 63 63
63 63 63
63 63 63
63 63 63
63 63 63
63 63 63
63 63 63
63 63 63
63 63 63
63 63 63
63 63 63
63 63 63
63 63 63
63 63 63
63 63 63
63 63 63
63 63 63
63 63 63
63 63 63
63 63 63
63 63 63
63 63 63
63 63 63
63 63 63
63 63 63
63 63 63
63 63 63
63 63 63
63 63 63
63 63 63
63 63 63
63 63 63
63 63 63
63 63 63
63 63 63
63 63 63
63 63 63
63 63 63
63 63 63
63 63 63
63 63 63
63 63 63
63 63 63
63 63 63
63 63 63
63 63 63
63 63 63
63 63 63
63 63 63
63 63 63
63 63 63
63 63 63
63 63 63
63 63 63
63 63 63
63 63 63
63 63 63
63 63 63
63 63 63
63 63 63
63 63 63
63 63 63
63 63 63
63 63 63
63 63 63
63 63 63
63 63 63
63 63 63
63 63 63
63 63 63
63 63 63
63 63 63
63 63 63
63 63 63
63 63 63
63 63 63
63 63 63
63 63 63
63 63 63
63 63 63
63 63 63
63 63 63
63 63 63
63 63 63
63 63 63
63 63 63
63 63 63
63 63 63
63 63 63
63 63 63
63 63 63
63 63 63
63 63 63
63 63 63
63 63 63
63 63 63
63 63 63
63 63 63
63 63 63
63 63 63
63 63 63
63 63 63
63 63 63
63 63 63
63 63 63
63 63 63
63 63 63
63 63 63
63 63 63
63 63 63
63 63 63
63 63 63
63 63 63
63 63 63
63 63 63
63 63 63
63 63 63
63 63 63
63 63 63
63 63 63
63 63 63
63 63 63
63 63 63
63 63 63
63 63 63
63 63 63
63 63 63
63 63 63
63 63 63
63 63 63
63 63 63
63 63 63
63 63 63
63 63 63
63 63 63
63 63 63
63 63 63
63 63 63
63 63 63
63 63 63
63 63 63
63 63 63
63 63 63
63 63 63
63 63 63
63 63 63
63 63 63
63 63 63
63 63 63
63 63 63
63 63 63
63 63 63
63 63 63
63 63 63
63 63 63
63 63 63
63 63 63
63 63 63
63 63 63
63 63 63
63 63 63
63 63 63
63 63 63
63 63 63
63 63 63
63 63 63
63 63 63
63 63 63
63 63 63
63 63 63
63 63 63
63 63 63
63 63 63
63 63 63
63 63 63
63 63 63
63 63 63
63 63 63
63 63 63
63 63 63
63 63 63
63 63 63
63 63 63
63 63 63
63 63 63
63 63 63
63 63 63
63 63 63
63 63 63
63 63 63
63 63 63
63 63 63
63 63 63
63 63 63
63 63 63
63 63 63
63 63 63
63 63 63
63 63 63
63 63 63
63 63 63
63 63 63
63 63 63
63 63 63
63 63 63
63 63 63
63 63 63
63 63 63
63 63 63
63 63 63
63 63 63
63 63 63
63 63 63
63 63 63
63 63 63
63 63 63
63 63 63
63 63 63
63 63 63
63 63 63
63 63 63
63 63 63
63 63 63
63 63 63
63 63 63
63 63 63
63 63 63
63 63 63
63 63 63
63 63 63
63 63 63
63 63 63
63 63 63
63 63 63
63 63 63
63 63 63
63 63 63
63 63 63
63 63 63
63 63 63
63 63 63
63 63 63
63 63 63
63 63 63
63 63 63
63 63 63
63 63 63
63 63 63
63 63 63
63 63 63
63 63 63
63 63 63
63 63 63
63 63 63
63 63 63
63 63 63
63 63 63
63 63 63
63 63 63
63 63 63
63 63 63
63 63 63
63 63 63
63 63 63
63 63 63
63 63 63
63 63 63
63 63 63
63 63 63
63 63 63
63 63 63
63 63 63
63 63 63
63 63 63
63 63 63
63 63 63
63 63 63
63 63 63
63 63 63
63 63 63
63 63 63
63 63 63
63 63 63
63 63 63
63 63 63
63 63 63
63 63 63
63 63 63
63 63 63
63 63 63
63 63 63
63 63 63
63 63 63
63 63 63
63 63 63
63 63 63
63 63 63
63 63 63
63 63 63
63 63 63
63 63 63
63 63 63
63 63 63
63 63 63
63 63 63
63 63 63
63 63 63
63 63 63
63 63 63
63 63 63
63 63 63
63 63 63
63 63 63
63 63 63
63 63 63
63 63 63
63 63 63
63 63 63
63 63 63
63 63 63
63 63 63
63 63 63
63 63 63
63 63 63
63 63 63
63 63 63
63 63 63
63 63 63
63 63 63
63 63 63
63 63 63
63 63 63
63 63 63
63 63 63
63 63 63
63 63 63
63 63 63
63 63 63
63 63 63
63 63 63
63 63 63
63 63 63
63 63 63
63 63 63
63 63 63
63 63 63
63 63 63
63 63 63
63 63 63
63 63 63
63 63 63
63 63 63
63 63 63
63 63 63
63 63 63
63 63 63
63 63 63
63 63 63
63 63 63
63 63 63
63 63 63
63 63 63
63 63 63
63 63 63
63 63 63
63 63 63
63 63 63
63 63 63
63 63 63
63 63 63
63 63 63
63 63 63
63 63 63
63 63 63
63 63 63
63 63 63
63 63 63
63 63 63
63 63 63
63 63 63
63 63 63
63 63 63
63 63 63
63 63 63
63 63 63
63 63 63
63 63 63
63 63 63
63 63 63
63 63 63
63 63 63
63 63 63
63 63 63
63 63 63
63 63 63
63 63 63
63 63 63
63 63 63
63 63 63
63 63 63
63 63 63
63 63 63
63 63 63
63 63 63
63 63 63
63 63 63
63 63 63
63 63 63
63 63 63
63 63 63
63 63 63
63 63 63
63 63 63
63 63 63
63 63 63
63 63 63
63 63 63
63 63 63
63 63 63
63 63 63
63 63 63
63 63 63
63 63 63
63 63 63
63 63 63
63 63 63
63 63 63
63 63 63
63 63 63
63 63 63
63 63 63
63 63 63
63 63 63
63 63 63
63 63 63
63 63 63
63 63 63
63 63 63
63 63 63
63 63 63
63 63 63
63 63 63
63 63 63
63 63 63
63 63 63
63 63 63
63 63 63
63 63 63
63 63 63
63 63 63
63 63 63
63 63 63
63 63 63
63 63 63
63 63 63
63 63 63
63 63 63
63 63 63
63 63 63
63 63 63
63 63 63
63 63 63
63 63 63
63 63 63
63 63 63
63 63 63
63 63 63
63 63 63
63 63 63
63 63 63
63 63 63
63 63 63
63 63 63
63 63 63
63 63 63
63 63 63
63 63 63
63 63 63
63 63 63
63 63 63
63 63 63
63 63 63
63 63 63
63 63 63
63 63 63
63 63 63
63 63 63
63 63 63
63 63 63
63 63 63
63 63 63
63 63 63
63 63 63
63 63 63
63 63 63
63 63 63
63 63 63
63 63 63
63 63 63
63 63 63
63 63 63
63 63 63
63 63 63
63 63 63
63 63 63
63 63 63
63 63 63
63 63 63
63 63 63
63 63 63
63 63 63
63 63 63
63 63 63
63 63 63
63 63 63
63 63 63
63 63 63
63 63 63
63 63 63
63 63 63
63 63 63
63 63 63
63 63 63
63 63 63
63 63 63
63 63 63
63 63 63
63 63 63
63 63 63
63 63 63
63 63 63
63 63 63
63 63 63
63 63 63
63 63 63
63 63 63
63 63 63
63 63 63
63 63 63
63 63 63
63 63 63
63 63 63
63 63 63
63 63 63
63 63 63
63 63 63
63 63 63
63 63 63
63 63 63
63 63 63
63 63 63
63 63 63
63 63 63
63 63 63
63 63 63
63 63 63
63 63 63
63 63 63
63 63 63
63 63 63
63 63 63
63 63 63
63 63 63
63 63 63
63 63 63
63 63 63
63 63 63
63 63 63
63 63 63
63 63 63
63 63 63
63 63 63
63 63 63
63 63 63
63 63 63
63 63 63
63 63 63
63 63 63
63 63 63
63 63 63
63 63 63
63 63 63
63 63 63
63 63 63
63 63 63
63 63 63
63 63 63
63 63 63
63 63 63
63 63 63
63 63 63
63 63 63
63 63 63
63 63 63
63 63 63
63 63 63
63 63 63
63 63 63
63 63 63
63 63 63
63 63 63
63 63 63
63 63 63
63 63 63
63 63 63
63 63 63
63 63 63
63 63 63
63 63 63
63 63 63
63 63 63
63 63 63
63 63 63
63 63 63
63 63 63
63 63 63
63 63 63
63 63 63
63 63 63
63 63 63
63 63 63
63 63 63
63 63 63
63 63 63
63 63 63
63 63 63
63 63 63
63 63 63
63 63 63
63 63 63
63 63 63
63 63 63
63 63 63
63 63 63
63 63 63
63 63 63
63 63 63
63 63 63
63 63 63
63 63 63
63 63 63
63 63 63
63 63 63
63 63 63
63 63 63
63 63 63
63 63 63
63 63 63
63 63 63
63 63 63
63 63 63
63 63 63
63 63 63
63 63 63
63 63 63
63 63 63
63 63 63
63 63 63
63 63 63
63 63 63
63 63 63
63 63 63
63 63 63
63 63 63
63 63 63
63 63 63
63 63 63
63 63 63
63 63 63
63 63 63
63 63 63
63 63 63
63 63 63
63 63 63
63 63 63
63 63 63
63 63 63
63 63 63
63 63 63
63 63 63
63 63 63
63 63 63
63 63 63
63 63 63
63 63 63
63 63 63
63 63 63
63 63 63
63 63 63
63 63 63
63 63 63
63 63 63
63 63 63
63 63 63
63 63 63
63 63 63
63 63 63
63 63 63
63 63 63
63 63 63
63 63 63
63 63 63
63 63 63
63 63 63
63 63 63
63 63 63
63 63 63
63 63 63
63 63 63
63 63 63
63 63 63
63 63 63
63 63 63
63 63 63
63 63 63
63 63 63
63 63 63
63 63 63
63 63 63
63 63 63
63 63 63
63 63 63
63 63 63
63 63 63
63 63 63
63 63 63
63 63 63
63 63 63
63 63 63
63 63 63
63 63 63
63 63 63
63 63 63
63 63 63
63 63 63
63 63 63
63 63 63
63 63 63
63 63 63
63 63 63
63 63 63
63 63 63
63 63 63
63 63 63
63 63 63
63 63 63
63 63 63
63 63 63
63 63 63
63 63 63
63 63 63
63 63 63
63 63 63
63 63 63
63 63 63
63 63 63
63 63 63
63 63 63
63 63 63
63 63 63
63 63 63
63 63 63
63 63 63
63 63 63
63 63 63
63 63 63
63 63 63
63 63 63
63 63 63
63 63 63
63 63 63
63 63 63
63 63 63
63 63 63
63 63 63
63 63 63
63 63 63
63 63 63
63 63 63
63 63 63
63 63 63
63 63 63
63 63 63
63 63 63
63 63 63
63 63 63
63 63 63
63 63 63
63 63 63
63 63 63
63 63 63
63 63 63
63 63 63
63 63 63
63 63 63
63 63 63
63 63 63
63 63 63
63 63 63
63 63 63
63 63 63
63 63 63
63 63 63
63 63 63
63 63 63
63 63 63
63 63 63
63 63 63
63 63 63
63 63 63
63 63 63
63 63 63
63 63 63
63 63 63
63 63 63
63 63 63
63 63 63
63 63 63
63 63 63
63 63 63
63 63 63
63 63 63
63 63 63
63 63 63
63 63 63
63 63 63
63 63 63
63 63 63
63 63 63
63 63 63
63 63 63
63 63 63
63 63 63
63 63 63
63 63 63
63 63 63
63 63 63
63 63 63
63 63 63
63 63 63
63 63 63
63 63 63
63 63 63
63 63 63
63 63 63
63 63 63
63 63 63
63 63 63
63 63 63
63 63 63
63 63 63
63 63 63
63 63 63
63 63 63
63 63 63
63 63 63
63 63 63
63 63 63
63 63 63
63 63 63
63 63 63
63 63 63
63 63 63
63 63 63
63 63 63
63 63 63
63 63 63
63 63 63
63 63 63
63 63 63
63 63 63
63 63 63
63 63 63
63 63 63
63 63 63
63 63 63
63 63 63
63 63 63
63 63 63
63 63 63
63 63 63
63 63 63
63 63 63
63 63 63
63 63 63
63 63 63
63 63 63
63 63 63
63 63 63
63 63 63
63 63 63
63 63 63
63 63 63
63 63 63
63 63 63
63 63 63
63 63 63
63 63 63
63 63 63
63 63 63
63 63 63
63 63 63
63 63 63
63 63 63
63 63 63
63 63 63
63 63 63
63 63 63
63 63 63
63 63 63
63 63 63
63 63 63
63 63 63
63 63 63
63 63 63
63 63 63
63 63 63
63 63 63
63 63 63
63 63 63
63 63 63
63 63 63
63 63 63
63 63 63
63 63 63
63 63 63
63 63 63
63 63 63
63 63 63
63 63 63
63 63 63
63 63 63
63 63 63
63 63 63
63 63 63
63 63 63
63 63 63
63 63 63
63 63 63
63 63 63
63 63 63
63 63 63
63 63 63
63 63 63
63 63 63
63 63 63
63 63 63
63 63 63
63 63 63
63 63 63
63 63 63
63 63 63
63 63 63
63 63 63
63 63 63
63 63 63
63 63 63
63 63 63
63 63 63
63 63 63
63 63 63
63 63 63
63 63 63
63 63 63
63 63 63
63 63 63
63 63 63
63 63 63
63 63 63
63 63 63
63 63 63
63 63 63
63 63 63
63 63 63
63 63 63
63 63 63
63 63 63
63 63 63
63 63 63
63 63 63
63 63 63
63 63 63
63 63 63
63 63 63
63 63 63
63 63 63
63 63 63
63 63 63
63 63 63
63 63 63
63 63 63
63 63 63
63 63 63
63 63 63
63 63 63
63 63 63
63 63 63
63 63 63
63 63 63
63 63 63
63 63 63
63 63 63
63 63 63
63 63 63
63 63 63
63 63 63
63 63 63
63 63 63
63 63 63
63 63 63
63 63 63
63 63 63
63 63 63
63 63 63
63 63 63
63 63 63
63 63 63
63 63 63
63 63 63
63 63 63
63 63 63
63 63 63
63 63 63
63 63 63
63 63 63
63 63 63
63 63 63
63 63 63
63 63 63
63 63 63
63 63 63
63 63 63
63 63 63
63 63 63
63 63 63
63 63 63
63 63 63
63 63 63
63 63 63
63 63 63
63 63 63
63 63 63
63 63 63
63 63 63
63 63 63
63 63 63
63 63 63
63 63 63
63 63 63
63 63 63
63 63 63
63 63 63
63 63 63
63 63 63
63 63 63
63 63 63
63 63 63
63 63 63
63 63 63
63 63 63
63 63 63
63 63 63
63 63 63
63 63 63
63 63 63
63 63 63
63 63 63
63 63 63
63 63 63
63 63 63
63 63 63
63 63 63
63 63 63
63 63 63
63 63 63
63 63 63
63 63 63
63 63 63
63 63 63
63 63 63
63 63 63
63 63 63
63 63 63
63 63 63
63 63 63
63 63 63
63 63 63
63 63 63
63 63 63
63 63 63
63 63 63
63 63 63
63 63 63
63 63 63
63 63 63
63 63 63
63 63 63
63 63 63
63 63 63
63 63 63
63 63 63
63 63 63
63 63 63
63 63 63
63 63 63
63 63 63
63 63 63
63 63 63
63 63 63
63 63 63
63 63 63
63 63 63
63 63 63
63 63 63
63 63 63
63 63 63
63 63 63
63 63 63
63 63 63
63 63 63
63 63 63
63 63 63
63 63 63
63 63 63
63 63 63
63 63 63
63 63 63
63 63 63
63 63 63
63 63 63
63 63 63
63 63 63
63 63 63
63 63 63
63 63 63
63 63 63
63 63 63
63 63 63
63 63 63
63 63 63
63 63 63
63 63 63
63 63 63
63 63 63
63 63 63
63 63 63
63 63 63
63 63 63
63 63 63
63 63 63
63 63 63
63 63 63
63 63 63
63 63 63
63 63 63
63 63 63
63 63 63
63 63 63
63 63 63
63 63 63
63 63 63
63 63 63
63 63 63
63 63 63
63 63 63
63 63 63
63 63 63
63 63 63
63 63 63
63 63 63
63 63 63
63 63 63
63 63 63
63 63 63
63 63 63
63 63 63
63 63 63
63 63 63
63 63 63
63 63 63
63 63 63
63 63 63
63 63 63
63 63 63
63 63 63
63 63 63
63 63 63
63 63 63
63 63 63
63 63 63
63 63 63
63 63 63
63 63 63
63 63 63
63 63 63
63 63 63
63 63 63
63 63 63
63 63 63
63 63 63
63 63 63
63 63 63
63 63 63
63 63 63
63 63 63
63 63 63
63 63 63
63 63 63
63 63 63
63 63 63
63 63 63
63 63 63
63 63 63
63 63 63
63 63 63
63 63 63
63 63 63
63 63 63
63 63 63
63 63 63
63 63 63
63 63 63
63 63 63
63 63 63
63 63 63
63 63 63
63 63 63
63 63 63
63 63 63
63 63 63
63 63 63
63 63 63
63 63 63
63 63 63
63 63 63
63 63 63
63 63 63
63 63 63
63 63 63
63 63 63
63 63 63
63 63 63
63 63 63
63 63 63
63 63 63
63 63 63
63 63 63
63 63 63
63 63 63
63 63 63
63 63 63
63 63 63
63 63 63
63 63 63
63 63 63
63 63 63
63 63 63
63 63 63
63 63 63
63 63 63
63 63 63
63 63 63
63 63 63
63 63 63
63 63 63
63 63 63
63 63 63
63 63 63
63 63 63
63 63 63
63 63 63
63 63 63
63 63 63
63 63 63
63 63 63
63 63 63
63 63 63
63 63 63
63 63 63
63 63 63
63 63 63
63 63 63
63 63 63
63 63 63
63 63 63
63 63 63
63 63 63
63 63 63
63 63 63
63 63 63
63 63 63
63 63 63
63 63 63
63 63 63
63 63 63
63 63 63
63 63 63
63 63 63
63 63 63
63 63 63
63 63 63
63 63 63
63 63 63
63 63 63
63 63 63
63 63 63
63 63 63
63 63 63
63 63 63
63 63 63
63 63 63
63 63 63
63 63 63
63 63 63
63 63 63
63 63 63
63 63 63
63 63 63
63 63 63
63 63 63
63 63 63
63 63 63
63 63 63
63 63 63
63 63 63
63 63 63
63 63 63
63 63 63
63 63 63
63 63 63
63 63 63
63 63 63
63 63 63
63 63 63
63 63 63
63 63 63
63 63 63
63 63 63
63 63 63
63 63 63
63 63 63
63 63 63
63 63 63
63 63 63
63 63 63
63 63 63
63 63 63
63 63 63
63 63 63
63 63 63
63 63 63
63 63 63
63 63 63
63 63 63
63 63 63
63 63 63
63 63 63
63 63 63
63 63 63
63 63 63
63 63 63
63 63 63
63 63 63
63 63 63
63 63 63
63 63 63
63 63 63
63 63 63
63 63 63
63 63 63
63 63 63
63 63 63
63 63 63
63 63 63
63 63 63
63 63 63
63 63 63
63 63 63
63 63 63
63 63 63
63 63 63
63 63 63
63 63 63
63 63 63
63 63 63
63 63 63
63 63 63
63 63 63
63 63 63
63 63 63
63 63 63
63 63 63
63 63 63
63 63 63
63 63 63
63 63 63
63 63 63
63 63 63
63 63 63
63 63 63
63 63 63
63 63 63
63 63 63
63 63 63
63 63 63
63 63 63
63 63 63
63 63 63
63 63 63
63 63 63
63 63 63
63 63 63
63 63 63
63 63 63
63 63 63
63 63 63
63 63 63
63 63 63
63 63 63
63 63 63
63 63 63
63 63 63
63 63 63
63 63 63
63 63 63
63 63 63
63 63 63
63 63 63
63 63 63
63 63 63
63 63 63
63 63 63
63 63 63
63 63 63
63 63 63
63 63 63
63 63 63
63 63 63
63 63 63
63 63 63
63 63 63
63 63 63
63 63 63
63 63 63
63 63 63
63 63 63
63 63 63
63 63 63
63 63 63
63 63 63
63 63 63
63 63 63
63 63 63
63 63 63
63 63 63
63 63 63
63 63 63
63 63 63
63 63 63
63 63 63
63 63 63
63 63 63
63 63 63
63 63 63
63 63 63
63 63 63
63 63 63
63 63 63
63 63 63
63 63 63
63 63 63
63 63 63
63 63 63
63 63 63
63 63 63
63 63 63
63 63 63
63 63 63
63 63 63
63 63 63
63 63 63
63 63 63
63 63 63
63 63 63
63 63 63
63 63 63
63 63 63
63 63 63
63 63 63
63 63 63
63 63 63
63 63 63
63 63 63
63 63 63
63 63 63
63 63 63
63 63 63
63 63 63
63 63 63
63 63 63
63 63 63
63 63 63
63 63 63
63 63 63
63 63 63
63 63 63
63 63 63
63 63 63
63 63 63
63 63 63
63 63 63
63 63 63
63 63 63
63 63 63
63 63 63
63 63 63
63 63 63
63 63 63
63 63 63
63 63 63
63 63 63
63 63 63
63 63 63
63 63 63
63 63 63
63 63 63
63 63 63
63 63 63
63 63 63
63 63 63
63 63 63
63 63 63
63 63 63
63 63 63
63 63 63
63 63 63
63 63 63
63 63 63
63 63 63
63 63 63
63 63 63
63 63 63
63 63 63
63 63 63
63 63 63
63 63 63
63 63 63
63 63 63
63 63 63
63 63 63
63 63 63
63 63 63
63 63 63
63 63 63
63 63 63
63 63 63
63 63 63
63 63 63
63 63 63
63 63 63
63 63 63
63 63 63
63 63 63
63 63 63
63 63 63
63 63 63
63 63 63
63 63 63
63 63 63
63 63 63
63 63 63
63 63 63
63 63 63
63 63 63
63 63 63
63 63 63
63 63 63
63 63 63
63 63 63
63 63 63
63 63 63
63 63 63
63 63 63
63 63 63
63 63 63
63 63 63
63 63 63
63 63 63
63 63 63
63 63 63
63 63 63
63 63 63
63 63 63
63 63 63
63 63 63
63 63 63
63 63 63
63 63 63
63 63 63
63 63 63
63 63 63
63 63 63
63 63 63
63 63 63
63 63 63
63 63 63
63 63 63
63 63 63
63 63 63
63 63 63
63 63 63
63 63 63
63 63 63
63 63 63
63 63 63
63 63 63
63 63 63
63 63 63
63 63 63
63 63 63
63 63 63
63 63 63
63 63 63
63 63 63
63 63 63
63 63 63
63 63 63
63 63 63
63 63 63
63 63 63
63 63 63
63 63 63
63 63 63
63 63 63
63 63 63
63 63 63
63 63 63
63 63 63
63 63 63
63 63 63
63 63 63
63 63 63
63 63 63
63 63 63
63 63 63
63 63 63
63 63 63
63 63 63
63 63 63
63 63 63
63 63 63
63 63 63
63 63 63
63 63 63
63 63 63
63 63 63
63 63 63
63 63 63
63 63 63
63 63 63
63 63 63
63 63 63
63 63 63
63 63 63
63 63 63
63 63 63
63 63 63
63 63 63
63 63 63
63 63 63
63 63 63
63 63 63
63 63 63
63 63 63
63 63 63
63 63 63
63 63 63
63 63 63
63 63 63
63 63 63
63 63 63
63 63 63
63 63 63
63 63 63
63 63 63
63 63 63
63 63 63
63 63 63
63 63 63
63 63 63
63 63 63
63 63 63
63 63 63
63 63 63
63 63 63
63 63 63
63 63 63
63 63 63
63 63 63
63 63 63
63 63 63
63 63 63
63 63 63
63 63 63
63 63 63
63 63 63
63 63 63
63 63 63
63 63 63
63 63 63
63 63 63
63 63 63
63 63 63
63 63 63
63 63 63
63 63 63
63 63 63
63 63 63
63 63 63
63 63 63
63 63 63
63 63 63
63 63 63
63 63 63
63 63 63
63 63 63
63 63 63
63 63 63
63 63 63
63 63 63
63 63 63
63 63 63
63 63 63
63 63 63
63 63 63
63 63 63
63 63 63
63 63 63
63 63 63
63 63 63
63 63 63
63 63 63
63 63 63
63 63 63
63 63 63
63 63 63
63 63 63
63 63 63
63 63 63
63 63 63
63 63 63
63 63 63
63 63 63
63 63 63
63 63 63
63 63 63
63 63 63
63 63 63
63 63 63
63 63 63
63 63 63
63 63 63
63 63 63
63 63 63
63 63 63
63 63 63
63 63 63
63 63 63
63 63 63
63 63 63
63 63 63
63 63 63
63 63 63
63 63 63
63 63 63
63 63 63
63 63 63
63 63 63
63 63 63
63 63 63
63 63 63
63 63 63
63 63 63
63 63 63
63 63 63
63 63 63
63 63 63
63 63 63
63 63 63
63 63 63
63 63 63
63 63 63
63 63 63
63 63 63
63 63 63
63 63 63
63 63 63
63 63 63
63 63 63
63 63 63
63 63 63
63 63 63
63 63 63
63 63 63
63 63 63
63 63 63
63 63 63
63 63 63
63 63 63
63 63 63
63 63 63
63 63 63
63 63 63
63 63 63
63 63 63
63 63 63
63 63 63
63 63 63
63 63 63
63 63 63
63 63 63
63 63 63
63 63 63
63 63 63
63 63 63
63 63 63
63 63 63
63 63 63
63 63 63
63 63 63
63 63 63
63 63 63
63 63 63
63 63 63
63 63 63
63 63 63
63 63 63
63 63 63
63 63 63
63 63 63
63 63 63
63 63 63
63 63 63
63 63 63
63 63 63
63 63 63
63 63 63
63 63 63
63 63 63
63 63 63
63 63 63
63 63 63
63 63 63
63 63 63
63 63 63
63 63 63
63 63 63
63 63 63
63 63 63
63 63 63
63 63 63
63 63 63
63 63 63
63 63 63
63 63 63
63 63 63
63 63 63
63 63 63
63 63 63
63 63 63
63 63 63
63 63 63
63 63 63
63 63 63
63 63 63
63 63 63
63 63 63
63 63 63
63 63 63
63 63 63
63 63 63
63 63 63
63 63 63
63 63 63
63 63 63
63 63 63
63 63 63
63 63 63
63 63 63
63 63 63
63 63 63
63 63 63
63 63 63
63 63 63
63 63 63
63 63 63
63 63 63
63 63 63
63 63 63
63 63 63
63 63 63
63 63 63
63 63 63
63 63 63
63 63 63
63 63 63
63 63 63
63 63 63
63 63 63
63 63 63
63 63 63
63 63 63
63 63 63
63 63 63
63 63 63
63 63 63
63 63 63
63 63 63
63 63 63
63 63 63
63 63 63
63 63 63
63 63 63
63 63 63
63 63 63
63 63 63
63 63 63
63 63 63
63 63 63
63 63 63
63 63 63
63 63 63
63 63 63
63 63 63
63 63 63
63 63 63
63 63 63
63 63 63
63 63 63
63 63 63
63 63 63
63 63 63
63 63 63
63 63 63
63 63 63
63 63 63
63 63 63
63 63 63
63 63 63
63 63 63
63 63 63
63 63 63
63 63 63
63 63 63
63 63 63
63 63 63
63 63 63
63 63 63
63 63 63
63 63 63
63 63 63
63 63 63
63 63 63
63 63 63
63 63 63
63 63 63
63 63 63
63 63 63
63 63 63
63 63 63
63 63 63
63 63 63
63 63 63
63 63 63
63 63 63
63 63 63
63 63 63
63 63 63
63 63 63
63 63 63
63 63 63
63 63 63
63 63 63
63 63 63
63 63 63
63 63 63
63 63 63
63 63 63
63 63 63
63 63 63
63 63 63
63 63 63
63 63 63
63 63 63
63 63 63
63 63 63
63 63 63
63 63 63
63 63 63
63 63 63
63 63 63
63 63 63
63 63 63
63 63 63
63 63 63
63 63 63
63 63 63
63 63 63
63 63 63
63 63 63
63 63 63
63 63 63
63 63 63
63 63 63
63 63 63
63 63 63
63 63 63
63 63 63
63 63 63
63 63 63
63 63 63
63 63 63
63 63 63
63 63 63
63 63 63
63 63 63
63 63 63
63 63 63
63 63 63
63 63 63
63 63 63
63 63 63
63 63 63
63 63 63
63 63 63
63 63 63
63 63 63
63 63 63
63 63 63
63 63 63
63 63 63
63 63 63
63 63 63
63 63 63
63 63 63
63 63 63
63 63 63
63 63 63
63 63 63
63 63 63
63 63 63
63 63 63
63 63 63
63 63 63
63 63 63
63 63 63
63 63 63
63 63 63
63 63 63
63 63 63
63 63 63
63 63 63
63 63 63
63 63 63
63 63 63
63 63 63
63 63 63
63 63 63
63 63 63
63 63 63
63 63 63
63 63 63
63 63 63
63 63 63
63 63 63
63 63 63
63 63 63
63 63 63
63 63 63
63 63 63
63 63 63
63 63 63
63 63 63
63 63 63
63 63 63
63 63 63
63 63 63
63 63 63
63 63 63
63 63 63
63 63 63
63 63 63
63 63 63
63 63 63
63 63 63
63 63 63
63 63 63
63 63 63
63 63 63
63 63 63
63 63 63
63 63 63
63 63 63
63 63 63
63 63 63
63 63 63
63 63 63
63 63 63
63 63 63
63 63 63
63 63 63
63 63 63
63 63 63
63 63 63
63 63 63
63 63 63
63 63 63
63 63 63
63 63 63
63 63 63
63 63 63
63 63 63
63 63 63
63 63 63
63 63 63
63 63 63
63 63 63
63 63 63
63 63 63
63 63 63
63 63 63
63 63 63
63 63 63
63 63 63
63 63 63
63 63 63
63 63 63
63 63 63
63 63 63
63 63 63
63 63 63
63 63 63
63 63 63
63 63 63
63 63 63
63 63 63
63 63 63
63 63 63
63 63 63
63 63 63
63 63 63
63 63 63
63 63 63
63 63 63
63 63 63
63 63 63
63 63 63
63 63 63
63 63 63
63 63 63
63 63 63
63 63 63
63 63 63
63 63 63
63 63 63
63 63 63
63 63 63
63 63 63
63 63 63
63 63 63
63 63 63
63 63 63
63 63 63
63 63 63
63 63 63
63 63 63
63 63 63
63 63 63
63 63 63
63 63 63
63 63 63
63 63 63
63 63 63
63 63 63
63 63 63
63 63 63
63 63 63
63 63 63
63 63 63
63 63 63
63 63 63
63 63 63
63 63 63
63 63 63
63 63 63
63 63 63
63 63 63
63 63 63
63 63 63
63 63 63
63 63 63
63 63 63
63 63 63
63 63 63
63 63 63
63 63 63
63 63 63
63 63 63
63 63 63
63 63 63
63 63 63
63 63 63
63 63 63
63 63 63
63 63 63
63 63 63
63 63 63
63 63 63
63 63 63
63 63 63
63 63 63
63 63 63
63 63 63
63 63 63
63 63 63
63 63 63
63 63 63
63 63 63
63 63 63
63 63 63
63 63 63
63 63 63
63 63 63
63 63 63
63 63 63
63 63 63
63 63 63
63 63 63
63 63 63
63 63 63
63 63 63
63 63 63
63 63 63
63 63 63
63 63 63
63 63 63
63 63 63
63 63 63
63 63 63
63 63 63
63 63 63
63 63 63
63 63 63
63 63 63
63 63 63
63 63 63
63 63 63
63 63 63
63 63 63
63 63 63
63 63 63
63 63 63
63 63 63
63 63 63
63 63 63
63 63 63
63 63 63
63 63 63
63 63 63
63 63 63
63 63 63
63 63 63
63 63 63
63 63 63
63 63 63
63 63 63
63 63 63
63 63 63
63 63 63
63 63 63
63 63 63
63 63 63
63 63 63
63 63 63
63 63 63
63 63 63
63 63 63
63 63 63
63 63 63
63 63 63
63 63 63
63 63 63
63 63 63
63 63 63
63 63 63
63 63 63
63 63 63
63 63 63
63 63 63
63 63 63
63 63 63
63 63 63
63 63 63
63 63 63
63 63 63
63 63 63
63 63 63
63 63 63
63 63 63
63 63 63
63 63 63
63 63 63
63 63 63
63 63 63
63 63 63
63 63 63
63 63 63
63 63 63
63 63 63
63 63 63
63 63 63
63 63 63
63 63 63
63 63 63
63 63 63
63 63 63
63 63 63
63 63 63
63 63 63
63 63 63
63 63 63
63 63 63
63 63 63
63 63 63
63 63 63
63 63 63
63 63 63
63 63 63
63 63 63
63 63 63
63 63 63
63 63 63
63 63 63
63 63 63
63 63 63
63 63 63
63 63 63
63 63 63
63 63 63
63 63 63
63 63 63
63 63 63
63 63 63
63 63 63
63 63 63
63 63 63
63 63 63
63 63 63
63 63 63
63 63 63
63 63 63
63 63 63
63 63 63
63 63 63
63 63 63
63 63 63
63 63 63
63 63 63
63 63 63
63 63 63
63 63 63
63 63 63
63 63 63
63 63 63
63 63 63
63 63 63
63 63 63
63 63 63
63 63 63
63 63 63
63 63 63
63 63 63
63 63 63
63 63 63
63 63 63
63 63 63
63 63 63
63 63 63
63 63 63
63 63 63
63 63 63
63 63 63
63 63 63
63 63 63
63 63 63
63 63 63
63 63 63
63 63 63
63 63 63
63 63 63
63 63 63
63 63 63
63 63 63
63 63 63
63 63 63
63 63 63
63 63 63
63 63 63
63 63 63
63 63 63
63 63 63
63 63 63
63 63 63
63 63 63
63 63 63
63 63 63
63 63 63
63 63 63
63 63 63
63 63 63
63 63 63
63 63 63
63 63 63
63 63 63
63 63 63
63 63 63
63 63 63
63 63 63
63 63 63
63 63 63
63 63 63
63 63 63
63 63 63
63 63 63
63 63 63
63 63 63
63 63 63
63 63 63
63 63 63
63 63 63
63 63 63
63 63 63
63 63 63
63 63 63
63 63 63
63 63 63
63 63 63
63 63 63
63 63 63
63 63 63
63 63 63
63 63 63
63 63 63
63 63 63
63 63 63
63 63 63
63 63 63
63 63 63
63 63 63
63 63 63
63 63 63
63 63 63
63 63 63
63 63 63
63 63 63
63 63 63
63 63 63
63 63 63
63 63 63
63 63 63
63 63 63
63 63 63
63 63 63
63 63 63
63 63 63
63 63 63
63 63 63
63 63 63
63 63 63
63 63 63
63 63 63
63 63 63
63 63 63
63 63 63
63 63 63
63 63 63
63 63 63
63 63 63
63 63 63
63 63 63
63 63 63
63 63 63
63 63 63
63 63 63
63 63 63
63 63 63
63 63 63
63 63 63
63 63 63
63 63 63
63 63 63
63 63 63
63 63 63
63 63 63
63 63 63
63 63 63
63 63 63
63 63 63
63 63 63
63 63 63
63 63 63
63 63 63
63 63 63
63 63 63
63 63 63
63 63 63
63 63 63
63 63 63
63 63 63
63 63 63
63 63 63
63 63 63
63 63 63
63 63 63
63 63 63
63 63 63
63 63 63
63 63 63
63 63 63
63 63 63
63 63 63
63 63 63
63 63 63
63 63 63
63 63 63
63 63 63
63 63 63
63 63 63
63 63 63
63 63 63
63 63 63
63 63 63
63 63 63
63 63 63
63 63 63
63 63 63
63 63 63
63 63 63
63 63 63
63 63 63
63 63 63
63 63 63
63 63 63
63 63 63
63 63 63
63 63 63
63 63 63
63 63 63
63 63 63
63 63 63
63 63 63
63 63 63
63 63 63
63 63 63
63 63 63
63 63 63
63 63 63
63 63 63
63 63 63
63 63 63
63 63 63
63 63 63
63 63 63
63 63 63
63 63 63
63 63 63
63 63 63
63 63 63
63 63 63
63 63 63
63 63 63
63 63 63
63 63 63
63 63 63
63 63 63
63 63 63
63 63 63
63 63 63
63 63 63
63 63 63
63 63 63
63 63 63
63 63 63
63 63 63
63 63 63
63 63 63
63 63 63
63 63 63
63 63 63
63 63 63
63 63 63
63 63 63
63 63 63
63 63 63
63 63 63
63 63 63
63 63 63
63 63 63
63 63 63
63 63 63
63 63 63
63 63 63
63 63 63
63 63 63
63 63 63
63 63 63
63 63 63
63 63 63
63 63 63
63 63 63
63 63 63
63 63 63
63 63 63
63 63 63
63 63 63
63 63 63
63 63 63
63 63 63
63 63 63
63 63 63
63 63 63
63 63 63
63 63 63
63 63 63
63 63 63
63 63 63
63 63 63
63 63 63
63 63 63
63 63 63
63 63 63
63 63 63
63 63 63
63 63 63
63 63 63
63 63 63
63 63 63
63 63 63
63 63 63
63 63 63
63 63 63
63 63 63
63 63 63
63 63 63
63 63 63
63 63 63
63 63 63
63 63 63
63 63 63
63 63 63
63 63 63
63 63 63
63 63 63
63 63 63
63 63 63
63 63 63
63 63 63
63 63 63
63 63 63
63 63 63
63 63 63
63 63 63
63 63 63
63 63 63
63 63 63
63 63 63
63 63 63
63 63 63
63 63 63
63 63 63
63 63 63
63 63 63
63 63 63
63 63 63
63 63 63
63 63 63
63 63 63
63 63 63
63 63 63
63 63 63
63 63 63
63 63 63
63 63 63
63 63 63
63 63 63
63 63 63
63 63 63
63 63 63
63 63 63
63 63 63
63 63 63
63 63 63
63 63 63
63 63 63
63 63 63
63 63 63
63 63 63
63 63 63
63 63 63
63 63 63
63 63 63
63 63 63
63 63 63
63 63 63
63 63 63
63 63 63
63 63 63
63 63 63
63 63 63
63 63 63
63 63 63
63 63 63
63 63 63
63 63 63
63 63 63
63 63 63
63 63 63
63 63 63
63 63 63
63 63 63
63 63 63
63 63 63
63 63 63
63 63 63
63 63 63
63 63 63
63 63 63
63 63 63
63 63 63
63 63 63
63 63 63
63 63 63
63 63 63
63 63 63
63 63 63
63 63 63
63 63 63
63 63 63
63 63 63
63 63 63
63 63 63
63 63 63
63 63 63
63 63 63
63 63 63
63 63 63
63 63 63
63 63 63
63 63 63
63 63 63
63 63 63
63 63 63
63 63 63
63 63 63
63 63 63
63 63 63
63 63 63
63 63 63
63 63 63
63 63 63
63 63 63
63 63 63
63 63 63
63 63 63
63 63 63
63 63 63
63 63 63
63 63 63
63 63 63
63 63 63
63 63 63
63 63 63
63 63 63
63 63 63
63 63 63
63 63 63
63 63 63
63 63 63
63 63 63
63 63 63
63 63 63
63 63 63
63 63 63
63 63 63
63 63 63
63 63 63
63 63 63
63 63 63
63 63 63
63 63 63
63 63 63
63 63 63
63 63 63
63 63 63
63 63 63
63 63 63
63 63 63
63 63 63
63 63 63
63 63 63
63 63 63
63 63 63
63 63 63
63 63 63
63 63 63
63 63 63
63 63 63
63 63 63
63 63 63
63 63 63
63 63 63
63 63 63
63 63 63
63 63 63
63 63 63
63 63 63
63 63 63
63 63 63
63 63 63
63 63 63
63 63 63
63 63 63
63 63 63
63 63 63
63 63 63
63 63 63
63 63 63
63 63 63
63 63 63
63 63 63
63 63 63
63 63 63
63 63 63
63 63 63
63 63 63
63 63 63
63 63 63
63 63 63
63 63 63
63 63 63
63 63 63
63 63 63
63 63 63
63 63 63
63 63 63
63 63 63
63 63 63
63 63 63
63 63 63
63 63 63
63 63 63
63 63 63
63 63 63
63 63 63
63 63 63
63 63 63
63 63 63
63 63 63
63 63 63
63 63 63
63 63 63
63 63 63
63 63 63
63 63 63
63 63 63
63 63 63
63 63 63
63 63 63
63 63 63
63 63 63
63 63 63
63 63 63
63 63 63
63 63 63
63 63 63
63 63 63
63 63 63
63 63 63
63 63 63
63 63 63
63 63 63
63 63 63
63 63 63
63 63 63
63 63 63
63 63 63
63 63 63
63 63 63
63 63 63
63 63 63
63 63 63
63 63 63
63 63 63
63 63 63
63 63 63
63 63 63
63 63 63
63 63 63
63 63 63
63 63 63
63 63 63
63 63 63
63 63 63
63 63 63
63 63 63
63 63 63
63 63 63
63 63 63
63 63 63
63 63 63
63 63 63
63 63 63
63 63 63
63 63 63
63 63 63
63 63 63
63 63 63
63 63 63
63 63 63
63 63 63
63 63 63
63 63 63
63 63 63
63 63 63
63 63 63
63 63 63
63 63 63
63 63 63
63 63 63
63 63 63
63 63 63
63 63 63
63 63 63
63 63 63
63 63 63
63 63 63
63 63 63
63 63 63
63 63 63
63 63 63
63 63 63
63 63 63
63 63 63
63 63 63
63 63 63
63 63 63
63 63 63
63 63 63
63 63 63
63 63 63
63 63 63
63 63 63
63 63 63
63 63 63
63 63 63
63 63 63
63 63 63
63 63 63
63 63 63
63 63 63
63 63 63
63 63 63
63 63 63
63 63 63
63 63 63
63 63 63
63 63 63
63 63 63
63 63 63
63 63 63
63 63 63
63 63 63
63 63 63
63 63 63
63 63 63
63 63 63
63 63 63
63 63 63
63 63 63
63 63 63
63 63 63
63 63 63
63 63 63
63 63 63
63 63 63
63 63 63
63 63 63
63 63 63
63 63 63
63 63 63
63 63 63
63 63 63
63 63 63
63 63 63
63 63 63
63 63 63
63 63 63
63 63 63
63 63 63
63 63 63
63 63 63
63 63 63
63 63 63
63 63 63
63 63 63
63 63 63
63 63 63
63 63 63
63 63 63
63 63 63
63 63 63
63 63 63
63 63 63
63 63 63
63 63 63
63 63 63
63 63 63
63 63 63
63 63 63
63 63 63
63 63 63
63 63 63
63 63 63
63 63 63
63 63 63
63 63 63
63 63 63
63 63 63
63 63 63
63 63 63
63 63 63
63 63 63
63 63 63
63 63 63
63 63 63
63 63 63
63 63 63
63 63 63
63 63 63
63 63 63
63 63 63
63 63 63
63 63 63
63 63 63
63 63 63
63 63 63
63 63 63
63 63 63
63 63 63
63 63 63
63 63 63
63 63 63
63 63 63
63 63 63
63 63 63
63 63 63
63 63 63
63 63 63
63 63 63
63 63 63
63 63 63
63 63 63
63 63 63
63 63 63
63 63 63
63 63 63
63 63 63
63 63 63
63 63 63
63 63 63
63 63 63
63 63 63
63 63 63
63 63 63
63 63 63
63 63 63
63 63 63
63 63 63
63 63 63
63 63 63
63 63 63
63 63 63
63 63 63
63 63 63
63 63 63
63 63 63
63 63 63
63 63 63
63 63 63
63 63 63
63 63 63
63 63 63
63 63 63
63 63 63
63 63 63
63 63 63
63 63 63
63 63 63
63 63 63
63 63 63
63 63 63
63 63 63
63 63 63
63 63 63
63 63 63
63 63 63
63 63 63
63 63 63
63 63 63
63 63 63
63 63 63
63 63 63
63 63 63
63 63 63
63 63 63
63 63 63
63 63 63
63 63 63
63 63 63
63 63 63
63 63 63
63 63 63
63 63 63
63 63 63
63 63 63
63 63 63
63 63 63
63 63 63
63 63 63
63 63 63
63 63 63
63 63 63
63 63 63
63 63 63
63 63 63
63 63 63
63 63 63
63 63 63
63 63 63
63 63 63
63 63 63
63 63 63
63 63 63
63 63 63
63 63 63
63 63 63
63 63 63
63 63 63
63 63 63
63 63 63
63 63 63
63 63 63
63 63 63
63 63 63
63 63 63
63 63 63
63 63 63
63 63 63
63 63 63
63 63 63
63 63 63
63 63 63
63 63 63
63 63 63
63 63 63
63 63 63
63 63 63
63 63 63
63 63 63
63 63 63
63 63 63
63 63 63
63 63 63
63 63 63
63 63 63
63 63 63
63 63 63
63 63 63
63 63 63
63 63 63
63 63 63
63 63 63
63 63 63
63 63 63
63 63 63
63 63 63
63 63 63
63 63 63
63 63 63
63 63 63
63 63 63
63 63 63
63 63 63
63 63 63
63 63 63
63 63 63
63 63 63
63 63 63
63 63 63
63 63 63
63 63 63
63 63 63
63 63 63
63 63 63
63 63 63
63 63 63
63 63 63
63 63 63
63 63 63
63 63 63
63 63 63
63 63 63
63 63 63
63 63 63
63 63 63
63 63 63
63 63 63
63 63 63
63 63 63
63 63 63
63 63 63
63 63 63
63 63 63
63 63 63
63 63 63
63 63 63
63 63 63
63 63 63
63 63 63
63 63 63
63 63 63
63 63 63
63 63 63
63 63 63
63 63 63
63 63 63
63 63 63
63 63 63
63 63 63
63 63 63
63 63 63
63 63 63
63 63 63
63 63 63
63 63 63
63 63 63
63 63 63
63 63 63
63 63 63
63 63 63
63 63 63
63 63 63
63 63 63
63 63 63
63 63 63
63 63 63
63 63 63
63 63 63
63 63 63
63 63 63
63 63 63
63 63 63
63 63 63
63 63 63
63 63 63
63 63 63
63 63 63
63 63 63
63 63 63
63 63 63
63 63 63
63 63 63
63 63 63
63 63 63
63 63 63
63 63 63
63 63 63
63 63 63
63 63 63
63 63 63
63 63 63
63 63 63
63 63 63
63 63 63
63 63 63
63 63 63
63 63 63
63 63 63
63 63 63
63 63 63
63 63 63
63 63 63
63 63 63
63 63 63
63 63 63
63 63 63
63 63 63
63 63 63
63 63 63
63 63 63
63 63 63
63 63 63
63 63 63
63 63 63
63 63 63
63 63 63
63 63 63
63 63 63
63 63 63
63 63 63
63 63 63
63 63 63
63 63 63
63 63 63
63 63 63
63 63 63
63 63 63
63 63 63
63 63 63
63 63 63
63 63 63
63 63 63
63 63 63
63 63 63
63 63 63
63 63 63
63 63 63
63 63 63
63 63 63
63 63 63
63 63 63
63 63 63
63 63 63
63 63 63
63 63 63
63 63 63
63 63 63
63 63 63
63 63 63
63 63 63
63 63 63
63 63 63
63 63 63
63 63 63
63 63 63
63 63 63
63 63 63
63 63 63
63 63 63
63 63 63
63 63 63
63 63 63
63 63 63
63 63 63
63 63 63
63 63 63
63 63 63
63 63 63
63 63 63
63 63 63
63 63 63
63 63 63
63 63 63
63 63 63
63 63 63
63 63 63
63 63 63
63 63 63
63 63 63
63 63 63
63 63 63
63 63 63
63 63 63
63 63 63
63 63 63
63 63 63
63 63 63
63 63 63
63 63 63
63 63 63
63 63 63
63 63 63
63 63 63
63 63 63
63 63 63
63 63 63
63 63 63
63 63 63
63 63 63
63 63 63
63 63 63
63 63 63
63 63 63
63 63 63
63 63 63
63 63 63
63 63 63
63 63 63
63 63 63
63 63 63
63 63 63
63 63 63
63 63 63
63 63 63
63 63 63
63 63 63
63 63 63
63 63 63
63 63 63
63 63 63
63 63 63
63 63 63
63 63 63
63 63 63
63 63 63
63 63 63
63 63 63
63 63 63
63 63 63
63 63 63
63 63 63
63 63 63
63 63 63
63 63 63
63 63 63
63 63 63
63 63 63
63 63 63
63 63 63
63 63 63
63 63 63
63 63 63
63 63 63
63 63 63
63 63 63
63 63 63
63 63 63
63 63 63
63 63 63
63 63 63
63 63 63
63 63 63
63 63 63
63 63 63
63 63 63
63 63 63
63 63 63
63 63 63
63 63 63
63 63 63
63 63 63
63 63 63
63 63 63
63 63 63
63 63 63
63 63 63
63 63 63
63 63 63
63 63 63
63 63 63
63 63 63
63 63 63
63 63 63
63 63 63
63 63 63
63 63 63
63 63 63
63 63 63
63 63 63
63 63 63
63 63 63
63 63 63
63 63 63
63 63 63
63 63 63
63 63 63
63 63 63
63 63 63
63 63 63
63 63 63
63 63 63
63 63 63
63 63 63
63 63 63
63 63 63
63 63 63
63 63 63
63 63 63
63 63 63
63 63 63
63 63 63
63 63 63
63 63 63
63 63 63
63 63 63
63 63 63
63 63 63
63 63 63
63 63 63
63 63 63
63 63 63
63 63 63
63 63 63
63 63 63
63 63 63
63 63 63
63 63 63
63 63 63
63 63 63
63 63 63
63 63 63
63 63 63
63 63 63
63 63 63
63 63 63
63 63 63
63 63 63
63 63 63
63 63 63
63 63 63
63 63 63
63 63 63
63 63 63
63 63 63
63 63 63
63 63 63
63 63 63
63 63 63
63 63 63
63 63 63
63 63 63
63 63 63
63 63 63
63 63 63
63 63 63
63 63 63
63 63 63
63 63 63
63 63 63
63 63 63
63 63 63
63 63 63
63 63 63
63 63 63
63 63 63
63 63 63
63 63 63
63 63 63
63 63 63
63 63 63
63 63 63
63 63 63
63 63 63
63 63 63
63 63 63
63 63 63
63 63 63
63 63 63
63 63 63
63 63 63
63 63 63
63 63 63
63 63 63
63 63 63
63 63 63
63 63 63
63 63 63
63 63 63
63 63 63
63 63 63
63 63 63
63 63 63
63 63 63
63 63 63
63 63 63
63 63 63
63 63 63
63 63 63
63 63 63
63 63 63
63 63 63
63 63 63
63 63 63
63 63 63
63 63 63
63 63 63
63 63 63
63 63 63
63 63 63
63 63 63
63 63 63
63 63 63
63 63 63
63 63 63
63 63 63
63 63 63
63 63 63
63 63 63
63 63 63
63 63 63
63 63 63
63 63 63
63 63 63
63 63 63
63 63 63
63 63 63
63 63 63
63 63 63
63 63 63
63 63 63
63 63 63
63 63 63
63 63 63
63 63 63
63 63 63
63 63 63
63 63 63
63 63 63
63 63 63
63 63 63
63 63 63
63 63 63
63 63 63
63 63 63
63 63 63
63 63 63
63 63 63
63 63 63
63 63 63
63 63 63
63 63 63
63 63 63
63 63 63
63 63 63
63 63 63
63 63 63
63 63 63
63 63 63
63 63 63
63 63 63
63 63 63
63 63 63
63 63 63
63 63 63
63 63 63
63 63 63
63 63 63
63 63 63
63 63 63
63 63 63
63 63 63
63 63 63
63 63 63
63 63 63
63 63 63
63 63 63
63 63 63
63 63 63
63 63 63
63 63 63
63 63 63
63 63 63
63 63 63
63 63 63
63 63 63
63 63 63
63 63 63
63 63 63
63 63 63
63 63 63
63 63 63
63 63 63
63 63 63
63 63 63
63 63 63
63 63 63
63 63 63
63 63 63
63 63 63
63 63 63
63 63 63
63 63 63
63 63 63
63 63 63
63 63 63
63 63 63
63 63 63
63 63 63
63 63 63
63 63 63
63 63 63
63 63 63
63 63 63
63 63 63
63 63 63
63 63 63
63 63 63
63 63 63
63 63 63
63 63 63
63 63 63
63 63 63
63 63 63
63 63 63
63 63 63
63 63 63
63 63 63
63 63 63
63 63 63
63 63 63
63 63 63
63 63 63
63 63 63
63 63 63
63 63 63
63 63 63
63 63 63
63 63 63
63 63 63
63 63 63
63 63 63
63 63 63
63 63 63
63 63 63
63 63 63
63 63 63
63 63 63
63 63 63
63 63 63
63 63 63
63 63 63
63 63 63
63 63 63
63 63 63
63 63 63
63 63 63
63 63 63
63 63 63
63 63 63
63 63 63
63 63 63
63 63 63
63 63 63
63 63 63
63 63 63
63 63 63
63 63 63
63 63 63
63 63 63
63 63 63
63 63 63
63 63 63
63 63 63
63 63 63
63 63 63
63 63 63
63 63 63
63 63 63
63 63 63
63 63 63
63 63 63
63 63 63
63 63 63
63 63 63
63 63 63
63 63 63
63 63 63
63 63 63
63 63 63
63 63 63
63 63 63
63 63 63
63 63 63
63 63 63
63 63 63
63 63 63
63 63 63
63 63 63
63 63 63
63 63 63
63 63 63
63 63 63
63 63 63
63 63 63
63 63 63
63 63 63
63 63 63
63 63 63
63 63 63
63 63 63
63 63 63
63 63 63
63 63 63
63 63 63
63 63 63
63 63 63
63 63 63
63 63 63
63 63 63
63 63 63
63 63 63
63 63 63
63 63 63
63 63 63
63 63 63
63 63 63
63 63 63
63 63 63
63 63 63
63 63 63
63 63 63
63 63 63
63 63 63
63 63 63
63 63 63
63 63 63
63 63 63
63 63 63
63 63 63
63 63 63
63 63 63
63 63 63
63 63 63
63 63 63
63 63 63
63 63 63
63 63 63
63 63 63
63 63 63
63 63 63
63 63 63
63 63 63
63 63 63
63 63 63
63 63 63
63 63 63
63 63 63
63 63 63
63 63 63
63 63 63
63 63 63
63 63 63
63 63 63
63 63 63
63 63 63
63 63 63
63 63 63
63 63 63
63 63 63
63 63 63
63 63 63
63 63 63
63 63 63
63 63 63
63 63 63
63 63 63
63 63 63
63 63 63
63 63 63
63 63 63
63 63 63
63 63 63
63 63 63
63 63 63
63 63 63
63 63 63
63 63 63
63 63 63
63 63 63
63 63 63
63 63 63
63 63 63
63 63 63
63 63 63
63 63 63
63 63 63
63 63 63
63 63 63
63 63 63
63 63 63
63 63 63
63 63 63
63 63 63
63 63 63
63 63 63
63 63 63
63 63 63
63 63 63
63 63 63
63 63 63
63 63 63
63 63 63
63 63 63
63 63 63
63 63 63
63 63 63
63 63 63
63 63 63
63 63 63
63 63 63
63 63 63
63 63 63
63 63 63
63 63 63
63 63 63
63 63 63
63 63 63
63 63 63
63 63 63
63 63 63
63 63 63
63 63 63
63 63 63
63 63 63
63 63 63
63 63 63
63 63 63
63 63 63
63 63 63
63 63 63
63 63 63
63 63 63
63 63 63
63 63 63
63 63 63
63 63 63
63 63 63
63 63 63
63 63 63
63 63 63
63 63 63
63 63 63
63 63 63
63 63 63
63 63 63
63 63 63
63 63 63
63 63 63
63 63 63
63 63 63
63 63 63
63 63 63
63 63 63
63 63 63
63 63 63
63 63 63
63 63 63
63 63 63
63 63 63
63 63 63
63 63 63
63 63 63
63 63 63
63 63 63
63 63 63
63 63 63
63 63 63
63 63 63
63 63 63
63 63 63
63 63 63
63 63 63
63 63 63
63 63 63
63 63 63
63 63 63
63 63 63
63 63 63
63 63 63
63 63 63
63 63 63
63 63 63
63 63 63
63 63 63
63 63 63
63 63 63
63 63 63
63 63 63
63 63 63
63 63 63
63 63 63
63 63 63
63 63 63
63 63 63
63 63 63
63 63 63
63 63 63
63 63 63
63 63 63
63 63 63
63 63 63
63 63 63
63 63 63
63 63 63
63 63 63
63 63 63
63 63 63
63 63 63
63 63 63
63 63 63
63 63 63
63 63 63
63 63 63
63 63 63
63 63 63
63 63 63
63 63 63
63 63 63
63 63 63
63 63 63
63 63 63
63 63 63
63 63 63
63 63 63
63 63 63
63 63 63
63 63 63
63 63 63
63 63 63
63 63 63
63 63 63
63 63 63
63 63 63
63 63 63
63 63 63
63 63 63
63 63 63
63 63 63
63 63 63
63 63 63
63 63 63
63 63 63
63 63 63
63 63 63
63 63 63
63 63 63
63 63 63
63 63 63
63 63 63
63 63 63
63 63 63
63 63 63
63 63 63
63 63 63
63 63 63
63 63 63
63 63 63
63 63 63
63 63 63
63 63 63
63 63 63
63 63 63
63 63 63
63 63 63
63 63 63
63 63 63
63 63 63
63 63 63
63 63 63
63 63 63
63 63 63
63 63 63
63 63 63
63 63 63
63 63 63
63 63 63
63 63 63
63 63 63
63 63 63
63 63 63
63 63 63
63 63 63
63 63 63
63 63 63
63 63 63
63 63 63
63 63 63
63 63 63
63 63 63
63 63 63
63 63 63
63 63 63
63 63 63
63 63 63
63 63 63
63 63 63
63 63 63
63 63 63
63 63 63
63 63 63
63 63 63
63 63 63
63 63 63
63 63 63
63 63 63
63 63 63
63 63 63
63 63 63
63 63 63
63 63 63
63 63 63
63 63 63
63 63 63
63 63 63
63 63 63
63 63 63
63 63 63
63 63 63
63 63 63
63 63 63
63 63 63
63 63 63
63 63 63
63 63 63
63 63 63
63 63 63
63 63 63
63 63 63
63 63 63
63 63 63
63 63 63
63 63 63
63 63 63
63 63 63
63 63 63
63 63 63
63 63 63
63 63 63
63 63 63
63 63 63
63 63 63
63 63 63
63 63 63
63 63 63
63 63 63
63 63 63
63 63 63
63 63 63
63 63 63
63 63 63
63 63 63
63 63 63
63 63 63
63 63 63
63 63 63
63 63 63
63 63 63
63 63 63
63 63 63
63 63 63
63 63 63
63 63 63
63 63 63
63 63 63
63 63 63
63 63 63
63 63 63
63 63 63
63 63 63
63 63 63
63 63 63
63 63 63
63 63 63
63 63 63
63 63 63
63 63 63
63 63 63
63 63 63
63 63 63
63 63 63
63 63 63
63 63 63
63 63 63
63 63 63
63 63 63
63 63 63
63 63 63
63 63 63
63 63 63
63 63 63
63 63 63
63 63 63
63 63 63
63 63 63
63 63 63
63 63 63
63 63 63
63 63 63
63 63 63
63 63 63
63 63 63
63 63 63
63 63 63
63 63 63
63 63 63
63 63 63
63 63 63
63 63 63
63 63 63
63 63 63
63 63 63
63 63 63
63 63 63
63 63 63
63 63 63
63 63 63
63 63 63
63 63 63
63 63 63
63 63 63
63 63 63
63 63 63
63 63 63
63 63 63
63 63 63
63 63 63
63 63 63
63 63 63
63 63 63
63 63 63
63 63 63
63 63 63
63 63 63
63 63 63
63 63 63
63 63 63
63 63 63
63 63 63
63 63 63
63 63 63
63 63 63
63 63 63
63 63 63
63 63 63
63 63 63
63 63 63
63 63 63
63 63 63
63 63 63
63 63 63
63 63 63
63 63 63
63 63 63
63 63 63
63 63 63
63 63 63
63 63 63
63 63 63
63 63 63
63 63 63
63 63 63
63 63 63
63 63 63
63 63 63
63 63 63
63 63 63
63 63 63
63 63 63
63 63 63
63 63 63
63 63 63
63 63 63
63 63 63
63 63 63
63 63 63
63 63 63
63 63 63
63 63 63
63 63 63
63 63 63
63 63 63
63 63 63
63 63 63
63 63 63
63 63 63
63 63 63
63 63 63
63 63 63
63 63 63
63 63 63
63 63 63
63 63 63
63 63 63
63 63 63
63 63 63
63 63 63
63 63 63
63 63 63
63 63 63
63 63 63
63 63 63
63 63 63
63 63 63
63 63 63
63 63 63
63 63 63
63 63 63
63 63 63
63 63 63
63 63 63
63 63 63
63 63 63
63 63 63
63 63 63
63 63 63
63 63 63
63 63 63
63 63 63
63 63 63
63 63 63
63 63 63
63 63 63
63 63 63
63 63 63
63 63 63
63 63 63
63 63 63
63 63 63
63 63 63
63 63 63
63 63 63
63 63 63
63 63 63
63 63 63
63 63 63
63 63 63
63 63 63
63 63 63
63 63 63
63 63 63
63 63 63
63 63 63
63 63 63
63 63 63
63 63 63
63 63 63
63 63 63
63 63 63
63 63 63
63 63 63
63 63 63
63 63 63
63 63 63
63 63 63
63 63 63
63 63 63
63 63 63
63 63 63
63 63 63
63 63 63
63 63 63
63 63 63
63 63 63
63 63 63
63 63 63
63 63 63
63 63 63
63 63 63
63 63 63
63 63 63
63 63 63
63 63 63
63 63 63
63 63 63
63 63 63
63 63 63
63 63 63
63 63 63
63 63 63
63 63 63
63 63 63
63 63 63
63 63 63
63 63 63
63 63 63
63 63 63
63 63 63
63 63 63
63 63 63
63 63 63
63 63 63
63 63 63
63 63 63
63 63 63
63 63 63
63 63 63
63 63 63
63 63 63
63 63 63
63 63 63
63 63 63
63 63 63
63 63 63
63 63 63
63 63 63
63 63 63
63 63 63
63 63 63
63 63 63
63 63 63
63 63 63
63 63 63
63 63 63
63 63 63
63 63 63
63 63 63
63 63 63
63 63 63
63 63 63
63 63 63
63 63 63
63 63 63
63 63 63
63 63 63
63 63 63
63 63 63
63 63 63
63 63 63
63 63 63
63 63 63
63 63 63
63 63 63
63 63 63
63 63 63
63 63 63
63 63 63
63 63 63
63 63 63
63 63 63
63 63 63
63 63 63
63 63 63
63 63 63
63 63 63
63 63 63
63 63 63
63 63 63
63 63 63
63 63 63
63 63 63
63 63 63
63 63 63
63 63 63
63 63 63
63 63 63
63 63 63
63 63 63
63 63 63
63 63 63
63 63 63
63 63 63
63 63 63
63 63 63
63 63 63
63 63 63
63 63 63
63 63 63
63 63 63
63 63 63
63 63 63
63 63 63
63 63 63
63 63 63
63 63 63
63 63 63
63 63 63
63 63 63
63 63 63
63 63 63
63 63 63
63 63 63
63 63 63
63 63 63
63 63 63
63 63 63
63 63 63
63 63 63
63 63 63
63 63 63
63 63 63
63 63 63
63 63 63
63 63 63
63 63 63
63 63 63
63 63 63
63 63 63
63 63 63
63 63 63
63 63 63
63 63 63
63 63 63
63 63 63
63 63 63
63 63 63
63 63 63
63 63 63
63 63 63
63 63 63
63 63 63
63 63 63
63 63 63
63 63 63
63 63 63
63 63 63
63 63 63
63 63 63
63 63 63
63 63 63
63 63 63
63 63 63
63 63 63
63 63 63
63 63 63
63 63 63
63 63 63
63 63 63
63 63 63
63 63 63
63 63 63
63 63 63
63 63 63
63 63 63
63 63 63
63 63 63
63 63 63
63 63 63
63 63 63
63 63 63
63 63 63
63 63 63
63 63 63
63 63 63
63 63 63
63 63 63
63 63 63
63 63 63
63 63 63
63 63 63
63 63 63
63 63 63
63 63 63
63 63 63
63 63 63
63 63 63
63 63 63
63 63 63
63 63 63
63 63 63
63 63 63
63 63 63
63 63 63
63 63 63
63 63 63
63 63 63
63 63 63
63 63 63
63 63 63
63 63 63
63 63 63
63 63 63
63 63 63
63 63 63
63 63 63
63 63 63
63 63 63
63 63 63
63 63 63
63 63 63
63 63 63
63 63 63
63 63 63
63 63 63
63 63 63
63 63 63
63 63 63
63 63 63
63 63 63
63 63 63
63 63 63
63 63 63
63 63 63
63 63 63
63 63 63
63 63 63
63 63 63
63 63 63
63 63 63
63 63 63
63 63 63
63 63 63
63 63 63
63 63 63
63 63 63
63 63 63
63 63 63
63 63 63
63 63 63
63 63 63
63 63 63
63 63 63
63 63 63
63 63 63
63 63 63
63 63 63
63 63 63
63 63 63
63 63 63
63 63 63
63 63 63
63 63 63
63 63 63
63 63 63
63 63 63
63 63 63
63 63 63
63 63 63
63 63 63
63 63 63
63 63 63
63 63 63
63 63 63
63 63 63
63 63 63
63 63 63
63 63 63
63 63 63
63 63 63
63 63 63
63 63 63
63 63 63
63 63 63
63 63 63
63 63 63
63 63 63
63 63 63
63 63 63
63 63 63
63 63 63
63 63 63
63 63 63
63 63 63
63 63 63
63 63 63
63 63 63
63 63 63
63 63 63
63 63 63
63 63 63
63 63 63
63 63 63
63 63 63
63 63 63
63 63 63
63 63 63
63 63 63
63 63 63
63 63 63
63 63 63
63 63 63
63 63 63
63 63 63
63 63 63
63 63 63
63 63 63
63 63 63
63 63 63
63 63 63
63 63 63
63 63 63
63 63 63
63 63 63
63 63 63
63 63 63
63 63 63
63 63 63
63 63 63
63 63 63
63 63 63
63 63 63
63 63 63
63 63 63
63 63 63
63 63 63
63 63 63
63 63 63
63 63 63
63 63 63
63 63 63
63 63 63
63 63 63
63 63 63
63 63 63
63 63 63
63 63 63
63 63 63
63 63 63
63 63 63
63 63 63
63 63 63
63 63 63
63 63 63
63 63 63
63 63 63
63 63 63
63 63 63
63 63 63
63 63 63
63 63 63
63 63 63
63 63 63
63 63 63
63 63 63
63 63 63
63 63 63
63 63 63
63 63 63
63 63 63
63 63 63
63 63 63
63 63 63
63 63 63
63 63 63
63 63 63
63 63 63
63 63 63
63 63 63
63 63 63
63 63 63
63 63 63
63 63 63
63 63 63
63 63 63
63 63 63
63 63 63
63 63 63
63 63 63
63 63 63
63 63 63
63 63 63
63 63 63
63 63 63
63 63 63
63 63 63
63 63 63
63 63 63
63 63 63
63 63 63
63 63 63
63 63 63
63 63 63
63 63 63
63 63 63
63 63 63
63 63 63
63 63 63
63 63 63
63 63 63
63 63 63
63 63 63
63 63 63
63 63 63
63 63 63
63 63 63
63 63 63
63 63 63
63 63 63
63 63 63
63 63 63
63 63 63
63 63 63
63 63 63
63 63 63
63 63 63
63 63 63
63 63 63
63 63 63
63 63 63
63 63 63
63 63 63
63 63 63
63 63 63
63 63 63
63 63 63
63 63 63
63 63 63
63 63 63
63 63 63
63 63 63
63 63 63
63 63 63
63 63 63
63 63 63
63 63 63
63 63 63
63 63 63
63 63 63
63 63 63
63 63 63
63 63 63
63 63 63
63 63 63
63 63 63
63 63 63
63 63 63
63 63 63
63 63 63
63 63 63
63 63 63
63 63 63
63 63 63
63 63 63
63 63 63
63 63 63
63 63 63
63 63 63
63 63 63
63 63 63
63 63 63
63 63 63
63 63 63
63 63 63
63 63 63
63 63 63
63 63 63
63 63 63
63 63 63
63 63 63
63 63 63
63 63 63
63 63 63
63 63 63
63 63 63
63 63 63
63 63 63
63 63 63
63 63 63
63 63 63
63 63 63
63 63 63
63 63 63
63 63 63
63 63 63
63 63 63
63 63 63
63 63 63
63 63 63
63 63 63
63 63 63
63 63 63
63 63 63
63 63 63
63 63 63
63 63 63
63 63 63
63 63 63
63 63 63
63 63 63
63 63 63
63 63 63
63 63 63
63 63 63
63 63 63
63 63 63
63 63 63
63 63 63
63 63 63
63 63 63
63 63 63
63 63 63
63 63 63
63 63 63
63 63 63
63 63 63
63 63 63
63 63 63
63 63 63
63 63 63
63 63 63
63 63 63
63 63 63
63 63 63
63 63 63
63 63 63
63 63 63
63 63 63
63 63 63
63 63 63
63 63 63
63 63 63
63 63 63
63 63 63
63 63 63
63 63 63
63 63 63
63 63 63
63 63 63
63 63 63
63 63 63
63 63 63
63 63 63
63 63 63
63 63 63
63 63 63
63 63 63
63 63 63
63 63 63
63 63 63
63 63 63
63 63 63
63 63 63
63 63 63
63 63 63
63 63 63
63 63 63
63 63 63
63 63 63
63 63 63
63 63 63
63 63 63
63 63 63
63 63 63
63 63 63
63 63 63
63 63 63
63 63 63
63 63 63
63 63 63
63 63 63
63 63 63
63 63 63
63 63 63
63 63 63
63 63 63
63 63 63
63 63 63
63 63 63
63 63 63
63 63 63
63 63 63
63 63 63
63 63 63
63 63 63
63 63 63
63 63 63
63 63 63
63 63 63
63 63 63
63 63 63
63 63 63
63 63 63
63 63 63
63 63 63
63 63 63
63 63 63
63 63 63
63 63 63
63 63 63
63 63 63
63 63 63
63 63 63
63 63 63
63 63 63
63 63 63
63 63 63
63 63 63
63 63 63
63 63 63
63 63 63
63 63 63
63 63 63
63 63 63
63 63 63
63 63 63
63 63 63
63 63 63
63 63 63
63 63 63
63 63 63
63 63 63
63 63 63
63 63 63
63 63 63
63 63 63
63 63 63
63 63 63
63 63 63
63 63 63
63 63 63
63 63 63
63 63 63
63 63 63
63 63 63
63 63 63
63 63 63
63 63 63
63 63 63
63 63 63
63 63 63
63 63 63
63 63 63
63 63 63
63 63 63
63 63 63
63 63 63
63 63 63
63 63 63
63 63 63
63 63 63
63 63 63
63 63 63
63 63 63
63 63 63
63 63 63
63 63 63
63 63 63
63 63 63
63 63 63
63 63 63
63 63 63
63 63 63
63 63 63
63 63 63
63 63 63
63 63 63
63 63 63
63 63 63
63 63 63
63 63 63
63 63 63
63 63 63
63 63 63
63 63 63
63 63 63
63 63 63
63 63 63
63 63 63
63 63 63
63 63 63
63 63 63
63 63 63
63 63 63
63 63 63
63 63 63
63 63 63
63 63 63
63 63 63
63 63 63
63 63 63
63 63 63
63 63 63
63 63 63
63 63 63
63 63 63
63 63 63
63 63 63
63 63 63
63 63 63
63 63 63
63 63 63
63 63 63
63 63 63
63 63 63
63 63 63
63 63 63
63 63 63
63 63 63
63 63 63
63 63 63
63 63 63
63 63 63
63 63 63
63 63 63
63 63 63
63 63 63
63 63 63
63 63 63
63 63 63
63 63 63
63 63 63
63 63 63
63 63 63
63 63 63
63 63 63
63 63 63
63 63 63
63 63 63
63 63 63
63 63 63
63 63 63
63 63 63
63 63 63
63 63 63
63 63 63
63 63 63
63 63 63
63 63 63
63 63 63
63 63 63
63 63 63
63 63 63
63 63 63
63 63 63
63 63 63
63 63 63
63 63 63
63 63 63
63 63 63
63 63 63
63 63 63
63 63 63
63 63 63
63 63 63
63 63 63
63 63 63
63 63 63
63 63 63
63 63 63
63 63 63
63 63 63
63 63 63
63 63 63
63 63 63
63 63 63
63 63 63
63 63 63
63 63 63
63 63 63
63 63 63
63 63 63
63 63 63
63 63 63
63 63 63
63 63 63
63 63 63
63 63 63
63 63 63
63 63 63
63 63 63
63 63 63
63 63 63
63 63 63
63 63 63
63 63 63
63 63 63
63 63 63
63 63 63
63 63 63
63 63 63
63 63 63
63 63 63
63 63 63
63 63 63
63 63 63
63 63 63
63 63 63
63 63 63
63 63 63
63 63 63
63 63 63
63 63 63
63 63 63
63 63 63
63 63 63
63 63 63
63 63 63
63 63 63
63 63 63
63 63 63
63 63 63
63 63 63
63 63 63
63 63 63
63 63 63
63 63 63
63 63 63
63 63 63
63 63 63
63 63 63
63 63 63
63 63 63
63 63 63
63 63 63
63 63 63
63 63 63
63 63 63
63 63 63
63 63 63
63 63 63
63 63 63
63 63 63
63 63 63
63 63 63
63 63 63
63 63 63
63 63 63
63 63 63
63 63 63
63 63 63
63 63 63
63 63 63
63 63 63
63 63 63
63 63 63
63 63 63
63 63 63
63 63 63
63 63 63
63 63 63
63 63 63
63 63 63
63 63 63
63 63 63
63 63 63
63 63 63
63 63 63
63 63 63
63 63 63
63 63 63
63 63 63
63 63 63
63 63 63
63 63 63
63 63 63
63 63 63
63 63 63
63 63 63
63 63 63
63 63 63
63 63 63
63 63 63
63 63 63
63 63 63
63 63 63
63 63 63
63 63 63
63 63 63
63 63 63
63 63 63
63 63 63
63 63 63
63 63 63
63 63 63
63 63 63
63 63 63
63 63 63
63 63 63
63 63 63
63 63 63
63 63 63
63 63 63
63 63 63
63 63 63
63 63 63
63 63 63
63 63 63
63 63 63
63 63 63
63 63 63
63 63 63
63 63 63
63 63 63
63 63 63
63 63 63
63 63 63
63 63 63
63 63 63
63 63 63
63 63 63
63 63 63
63 63 63
63 63 63
63 63 63
63 63 63
63 63 63
63 63 63
63 63 63
63 63 63
63 63 63
63 63 63
63 63 63
63 63 63
63 63 63
63 63 63
63 63 63
63 63 63
63 63 63
63 63 63
63 63 63
63 63 63
63 63 63
63 63 63
63 63 63
63 63 63
63 63 63
63 63 63
63 63 63
63 63 63
63 63 63
63 63 63
63 63 63
63 63 63
63 63 63
63 63 63
63 63 63
63 63 63
63 63 63
63 63 63
63 63 63
63 63 63
63 63 63
63 63 63
63 63 63
63 63 63
63 63 63
63 63 63
63 63 63
63 63 63
63 63 63
63 63 63
63 63 63
63 63 63
63 63 63
63 63 63
63 63 63
63 63 63
63 63 63
63 63 63
63 63 63
63 63 63
63 63 63
63 63 63
63 63 63
63 63 63
63 63 63
63 63 63
63 63 63
63 63 63
63 63 63
63 63 63
63 63 63
63 63 63
63 63 63
63 63 63
63 63 63
63 63 63
63 63 63
63 63 63
63 63 63
63 63 63
63 63 63
63 63 63
63 63 63
63 63 63
63 63 63
63 63 63
63 63 63
63 63 63
63 63 63
63 63 63
63 63 63
63 63 63
63 63 63
63 63 63
63 63 63
63 63 63
63 63 63
63 63 63
63 63 63
63 63 63
63 63 63
63 63 63
63 63 63
63 63 63
63 63 63
63 63 63
63 63 63
63 63 63
63 63 63
63 63 63
63 63 63
63 63 63
63 63 63
63 63 63
63 63 63
63 63 63
63 63 63
63 63 63
63 63 63
63 63 63
63 63 63
63 63 63
63 63 63
63 63 63
63 63 63
63 63 63
63 63 63
63 63 63
63 63 63
63 63 63
63 63 63
63 63 63
63 63 63
63 63 63
63 63 63
63 63 63
63 63 63
63 63 63
63 63 63
63 63 63
63 63 63
63 63 63
63 63 63
63 63 63
63 63 63
63 63 63
63 63 63
63 63 63
63 63 63
63 63 63
63 63 63
63 63 63
63 63 63
63 63 63
63 63 63
63 63 63
63 63 63
63 63 63
63 63 63
63 63 63
63 63 63
63 63 63
63 63 63
63 63 63
63 63 63
63 63 63
63 63 63
63 63 63
63 63 63
63 63 63
63 63 63
63 63 63
63 63 63
63 63 63
63 63 63
63 63 63
63 63 63
63 63 63
63 63 63
63 63 63
63 63 63
63 63 63
63 63 63
63 63 63
63 63 63
63 63 63
63 63 63
63 63 63
63 63 63
63 63 63
63 63 63
63 63 63
63 63 63
63 63 63
63 63 63
63 63 63
63 63 63
63 63 63
63 63 63
63 63 63
63 63 63
63 63 63
63 63 63
63 63 63
63 63 63
63 63 63
63 63 63
63 63 63
63 63 63
63 63 63
63 63 63
63 63 63
63 63 63
63 63 63
63 63 63
63 63 63
63 63 63
63 63 63
63 63 63
63 63 63
63 63 63
63 63 63
63 63 63
63 63 63
63 63 63
63 63 63
63 63 63
63 63 63
63 63 63
63 63 63
63 63 63
63 63 63
63 63 63
63 63 63
63 63 63
63 63 63
63 63 63
63 63 63
63 63 63
63 63 63
63 63 63
63 63 63
63 63 63
63 63 63
63 63 63
63 63 63
63 63 63
63 63 63
63 63 63
63 63 63
63 63 63
63 63 63
63 63 63
63 63 63
63 63 63
63 63 63
63 63 63
63 63 63
63 63 63
63 63 63
63 63 63
63 63 63
63 63 63
63 63 63
63 63 63
63 63 63
63 63 63
63 63 63
63 63 63
63 63 63
63 63 63
63 63 63
63 63 63
63 63 63
63 63 63
63 63 63
63 63 63
63 63 63
63 63 63
63 63 63
63 63 63
63 63 63
63 63 63
63 63 63
63 63 63
63 63 63
63 63 63
63 63 63
63 63 63
63 63 63
63 63 63
63 63 63
63 63 63
63 63 63
63 63 63
63 63 63
63 63 63
63 63 63
63 63 63
63 63 63
63 63 63
63 63 63
63 63 63
63 63 63
63 63 63
63 63 63
63 63 63
63 63 63
63 63 63
63 63 63
63 63 63
63 63 63
63 63 63
63 63 63
63 63 63
63 63 63
63 63 63
63 63 63
63 63 63
63 63 63
63 63 63
63 63 63
63 63 63
63 63 63
63 63 63
63 63 63
63 63 63
63 63 63
63 63 63
63 63 63
63 63 63
63 63 63
63 63 63
63 63 63
63 63 63
63 63 63
63 63 63
63 63 63
63 63 63
63 63 63
63 63 63
63 63 63
63 63 63
63 63 63
63 63 63
63 63 63
63 63 63
63 63 63
63 63 63
63 63 63
63 63 63
63 63 63
63 63 63
63 63 63
63 63 63
63 63 63
63 63 63
63 63 63
63 63 63
63 63 63
63 63 63
63 63 63
63 63 63
63 63 63
63 63 63
63 63 63
63 63 63
63 63 63
63 63 63
63 63 63
63 63 63
63 63 63
63 63 63
63 63 63
63 63 63
63 63 63
63 63 63
63 63 63
63 63 63
63 63 63
63 63 63
63 63 63
63 63 63
63 63 63
63 63 63
63 63 63
63 63 63
63 63 63
63 63 63
63 63 63
63 63 63
63 63 63
63 63 63
63 63 63
63 63 63
63 63 63
63 63 63
63 63 63
63 63 63
63 63 63
63 63 63
63 63 63
63 63 63
63 63 63
63 63 63
63 63 63
63 63 63
63 63 63
63 63 63
63 63 63
63 63 63
63 63 63
63 63 63
63 63 63
63 63 63
63 63 63
63 63 63
63 63 63
63 63 63
63 63 63
63 63 63
63 63 63
63 63 63
63 63 63
63 63 63
63 63 63
63 63 63
63 63 63
63 63 63
63 63 63
63 63 63
63 63 63
63 63 63
63 63 63
63 63 63
63 63 63
63 63 63
63 63 63
63 63 63
63 63 63
63 63 63
63 63 63
63 63 63
63 63 63
63 63 63
63 63 63
63 63 63
63 63 63
63 63 63
63 63 63
63 63 63
63 63 63
63 63 63
63 63 63
63 63 63
63 63 63
63 63 63
63 63 63
63 63 63
63 63 63
63 63 63
63 63 63
63 63 63
63 63 63
63 63 63
63 63 63
63 63 63
63 63 63
63 63 63
63 63 63
63 63 63
63 63 63
63 63 63
63 63 63
63 63 63
63 63 63
63 63 63
63 63 63
63 63 63
63 63 63
63 63 63
63 63 63
63 63 63
63 63 63
63 63 63
63 63 63
63 63 63
63 63 63
63 63 63
63 63 63
63 63 63
63 63 63
63 63 63
63 63 63
63 63 63
63 63 63
63 63 63
63 63 63
63 63 63
63 63 63
63 63 63
63 63 63
63 63 63
63 63 63
63 63 63
63 63 63
63 63 63
63 63 63
63 63 63
63 63 63
63 63 63
63 63 63
63 63 63
63 63 63
63 63 63
63 63 63
63 63 63
63 63 63
63 63 63
63 63 63
63 63 63
63 63 63
63 63 63
63 63 63
63 63 63
63 63 63
63 63 63
63 63 63
63 63 63
63 63 63
63 63 63
63 63 63
63 63 63
63 63 63
63 63 63
63 63 63
63 63 63
63 63 63
63 63 63
63 63 63
63 63 63
63 63 63
63 63 63
63 63 63
63 63 63
63 63 63
63 63 63
63 63 63
63 63 63
63 63 63
63 63 63
63 63 63
63 63 63
63 63 63
63 63 63
63 63 63
63 63 63
63 63 63
63 63 63
63 63 63
63 63 63
63 63 63
63 63 63
63 63 63
63 63 63
63 63 63
63 63 63
63 63 63
63 63 63
63 63 63
63 63 63
63 63 63
63 63 63
63 63 63
63 63 63
63 63 63
63 63 63
63 63 63
63 63 63
63 63 63
63 63 63
63 63 63
63 63 63
63 63 63
63 63 63
63 63 63
63 63 63
63 63 63
63 63 63
63 63 63
63 63 63
63 63 63
63 63 63
63 63 63
63 63 63
63 63 63
63 63 63
63 63 63
63 63 63
63 63 63
63 63 63
63 63 63
63 63 63
63 63 63
63 63 63
63 63 63
63 63 63
63 63 63
63 63 63
63 63 63
63 63 63
63 63 63
63 63 63
63 63 63
63 63 63
63 63 63
63 63 63
63 63 63
63 63 63
63 63 63
63 63 63
63 63 63
63 63 63
63 63 63
63 63 63
63 63 63
63 63 63
63 63 63
63 63 63
63 63 63
63 63 63
63 63 63
63 63 63
63 63 63
63 63 63
63 63 63
63 63 63
63 63 63
63 63 63
63 63 63
63 63 63
63 63 63
63 63 63
63 63 63
63 63 63
63 63 63
63 63 63
63 63 63
63 63 63
63 63 63
63 63 63
63 63 63
63 63 63
63 63 63
63 63 63
63 63 63
63 63 63
63 63 63
63 63 63
63 63 63
63 63 63
63 63 63
63 63 63
63 63 63
63 63 63
63 63 63
63 63 63
63 63 63
63 63 63
63 63 63
63 63 63
63 63 63
63 63 63
63 63 63
63 63 63
63 63 63
63 63 63
63 63 63
63 63 63
63 63 63
63 63 63
63 63 63
63 63 63
63 63 63
63 63 63
63 63 63
63 63 63
63 63 63
63 63 63
63 63 63
63 63 63
63 63 63
63 63 63
63 63 63
63 63 63
63 63 63
63 63 63
63 63 63
63 63 63
63 63 63
63 63 63
63 63 63
63 63 63
63 63 63
63 63 63
63 63 63
63 63 63
63 63 63
63 63 63
63 63 63
63 63 63
63 63 63
63 63 63
63 63 63
63 63 63
63 63 63
63 63 63
63 63 63
63 63 63
63 63 63
63 63 63
63 63 63
63 63 63
63 63 63
63 63 63
63 63 63
63 63 63
63 63 63
63 63 63
63 63 63
63 63 63
63 63 63
63 63 63
63 63 63
63 63 63
63 63 63
63 63 63
63 63 63
63 63 63
63 63 63
63 63 63
63 63 63
63 63 63
63 63 63
63 63 63
63 63 63
63 63 63
63 63 63
63 63 63
63 63 63
63 63 63
63 63 63
63 63 63
63 63 63
63 63 63
63 63 63
63 63 63
63 63 63
63 63 63
63 63 63
63 63 63
63 63 63
63 63 63
63 63 63
63 63 63
63 63 63
63 63 63
63 63 63
63 63 63
63 63 63
63 63 63
63 63 63
63 63 63
63 63 63
63 63 63
63 63 63
63 63 63
63 63 63
63 63 63
63 63 63
63 63 63
63 63 63
63 63 63
63 63 63
63 63 63
63 63 63
63 63 63
63 63 63
63 63 63
63 63 63
63 63 63
63 63 63
63 63 63
63 63 63
63 63 63
63 63 63
63 63 63
63 63 63
63 63 63
63 63 63
63 63 63
63 63 63
63 63 63
63 63 63
63 63 63
63 63 63
63 63 63
63 63 63
63 63 63
63 63 63
63 63 63
63 63 63
63 63 63
63 63 63
63 63 63
63 63 63
63 63 63
63 63 63
63 63 63
63 63 63
63 63 63
63 63 63
63 63 63
63 63 63
63 63 63
63 63 63
63 63 63
63 63 63
63 63 63
63 63 63
63 63 63
63 63 63
63 63 63
63 63 63
63 63 63
63 63 63
63 63 63
63 63 63
63 63 63
63 63 63
63 63 63
63 63 63
63 63 63
63 63 63
63 63 63
63 63 63
63 63 63
63 63 63
63 63 63
63 63 63
63 63 63
63 63 63
63 63 63
63 63 63
63 63 63
63 63 63
63 63 63
63 63 63
63 63 63
63 63 63
63 63 63
63 63 63
63 63 63
63 63 63
63 63 63
63 63 63
63 63 63
63 63 63
63 63 63
63 63 63
63 63 63
63 63 63
63 63 63
63 63 63
63 63 63
63 63 63
63 63 63
63 63 63
63 63 63
63 63 63
63 63 63
63 63 63
63 63 63
63 63 63
63 63 63
63 63 63
63 63 63
63 63 63
63 63 63
63 63 63
63 63 63
63 63 63
63 63 63
63 63 63
63 63 63
63 63 63
63 63 63
63 63 63
63 63 63
63 63 63
63 63 63
63 63 63
63 63 63
63 63 63
63 63 63
63 63 63
63 63 63
63 63 63
63 63 63
63 63 63
63 63 63
63 63 63
63 63 63
63 63 63
63 63 63
63 63 63
63 63 63
63 63 63
63 63 63
63 63 63
63 63 63
63 63 63
63 63 63
63 63 63
63 63 63
63 63 63
63 63 63
63 63 63
63 63 63
63 63 63
63 63 63
63 63 63
63 63 63
63 63 63
63 63 63
63 63 63
63 63 63
63 63 63
63 63 63
63 63 63
63 63 63
63 63 63
63 63 63
63 63 63
63 63 63
63 63 63
63 63 63
63 63 63
63 63 63
63 63 63
63 63 63
63 63 63
63 63 63
63 63 63
63 63 63
63 63 63
63 63 63
63 63 63
63 63 63
63 63 63
63 63 63
63 63 63
63 63 63
63 63 63
63 63 63
63 63 63
63 63 63
63 63 63
63 63 63
63 63 63
63 63 63
63 63 63
63 63 63
63 63 63
63 63 63
63 63 63
63 63 63
63 63 63
63 63 63
63 63 63
63 63 63
63 63 63
63 63 63
63 63 63
63 63 63
63 63 63
63 63 63
63 63 63
63 63 63
63 63 63
63 63 63
63 63 63
63 63 63
63 63 63
63 63 63
63 63 63
63 63 63
63 63 63
63 63 63
63 63 63
63 63 63
63 63 63
63 63 63
63 63 63
63 63 63
63 63 63
63 63 63
63 63 63
63 63 63
63 63 63
63 63 63
63 63 63
63 63 63
63 63 63
63 63 63
63 63 63
63 63 63
63 63 63
63 63 63
63 63 63
63 63 63
63 63 63
63 63 63
63 63 63
63 63 63
63 63 63
63 63 63
63 63 63
63 63 63
63 63 63
63 63 63
63 63 63
63 63 63
63 63 63
63 63 63
63 63 63
63 63 63
63 63 63
63 63 63
63 63 63
63 63 63
63 63 63
63 63 63
63 63 63
63 63 63
63 63 63
63 63 63
63 63 63
63 63 63
63 63 63
63 63 63
63 63 63
63 63 63
63 63 63
63 63 63
63 63 63
63 63 63
63 63 63
63 63 63
63 63 63
63 63 63
63 63 63
63 63 63
63 63 63
63 63 63
63 63 63
63 63 63
63 63 63
63 63 63
63 63 63
63 63 63
63 63 63
63 63 63
63 63 63
63 63 63
63 63 63
63 63 63
63 63 63
63 63 63
63 63 63
63 63 63
63 63 63
63 63 63
63 63 63
63 63 63
63 63 63
63 63 63
63 63 63
63 63 63
63 63 63
63 63 63
63 63 63
63 63 63
63 63 63
63 63 63
63 63 63
63 63 63
63 63 63
63 63 63
63 63 63
63 63 63
63 63 63
63 63 63
63 63 63
63 63 63
63 63 63
63 63 63
63 63 63
63 63 63
63 63 63
63 63 63
63 63 63
63 63 63
63 63 63
63 63 63
63 63 63
63 63 63
63 63 63
63 63 63
63 63 63
63 63 63
63 63 63
63 63 63
63 63 63
63 63 63
63 63 63
63 63 63
63 63 63
63 63 63
63 63 63
63 63 63
63 63 63
63 63 63
63 63 63
63 63 63
63 63 63
63 63 63
63 63 63
63 63 63
63 63 63
63 63 63
63 63 63
63 63 63
63 63 63
63 63 63
63 63 63
63 63 63
63 63 63
63 63 63
63 63 63
63 63 63
63 63 63
63 63 63
63 63 63
63 63 63
63 63 63
63 63 63
63 63 63
63 63 63
63 63 63
63 63 63
63 63 63
63 63 63
63 63 63
63 63 63
63 63 63
63 63 63
63 63 63
63 63 63
63 63 63
63 63 63
63 63 63
63 63 63
63 63 63
63 63 63
63 63 63
63 63 63
63 63 63
63 63 63
63 63 63
63 63 63
63 63 63
63 63 63
63 63 63
63 63 63
63 63 63
63 63 63
63 63 63
63 63 63
63 63 63
63 63 63
63 63 63
63 63 63
63 63 63
63 63 63
63 63 63
63 63 63
63 63 63
63 63 63
63 63 63
63 63 63
63 63 63
63 63 63
63 63 63
63 63 63
63 63 63
63 63 63
63 63 63
63 63 63
63 63 63
63 63 63
63 63 63
63 63 63
63 63 63
63 63 63
63 63 63
63 63 63
63 63 63
63 63 63
63 63 63
63 63 63
63 63 63
63 63 63
63 63 63
63 63 63
63 63 63
63 63 63
63 63 63
63 63 63
63 63 63
63 63 63
63 63 63
63 63 63
63 63 63
63 63 63
63 63 63
63 63 63
63 63 63
63 63 63
63 63 63
63 63 63
63 63 63
63 63 63
63 63 63
63 63 63
63 63 63
63 63 63
63 63 63
63 63 63
63 63 63
63 63 63
63 63 63
63 63 63
63 63 63
63 63 63
63 63 63
63 63 63
63 63 63
63 63 63
63 63 63
63 63 63
63 63 63
63 63 63
63 63 63
63 63 63
63 63 63
63 63 63
63 63 63
63 63 63
63 63 63
63 63 63
63 63 63
63 63 63
63 63 63
63 63 63
63 63 63
63 63 63
63 63 63
63 63 63
63 63 63
63 63 63
63 63 63
63 63 63
63 63 63
63 63 63
63 63 63
63 63 63
63 63 63
63 63 63
63 63 63
63 63 63
63 63 63
63 63 63
63 63 63
63 63 63
63 63 63
63 63 63
63 63 63
63 63 63
63 63 63
63 63 63
63 63 63
63 63 63
63 63 63
63 63 63
63 63 63
63 63 63
63 63 63
63 63 63
63 63 63
63 63 63
63 63 63
63 63 63
63 63 63
63 63 63
63 63 63
63 63 63
63 63 63
63 63 63
63 63 63
63 63 63
63 63 63
63 63 63
63 63 63
63 63 63
63 63 63
63 63 63
63 63 63
63 63 63
63 63 63
63 63 63
63 63 63
63 63 63
63 63 63
63 63 63
63 63 63
63 63 63
63 63 63
63 63 63
63 63 63
63 63 63
63 63 63
63 63 63
63 63 63
63 63 63
63 63 63
63 63 63
63 63 63
63 63 63
63 63 63
63 63 63
63 63 63
63 63 63
63 63 63
63 63 63
63 63 63
63 63 63
63 63 63
63 63 63
63 63 63
63 63 63
63 63 63
63 63 63
63 63 63
63 63 63
63 63 63
63 63 63
63 63 63
63 63 63
63 63 63
63 63 63
63 63 63
63 63 63
63 63 63
63 63 63
63 63 63
63 63 63
63 63 63
63 63 63
63 63 63
63 63 63
63 63 63
63 63 63
63 63 63
63 63 63
63 63 63
63 63 63
63 63 63
63 63 63
63 63 63
63 63 63
63 63 63
63 63 63
63 63 63
63 63 63
63 63 63
63 63 63
63 63 63
63 63 63
63 63 63
63 63 63
63 63 63
63 63 63
63 63 63
63 63 63
63 63 63
63 63 63
63 63 63
63 63 63
63 63 63
63 63 63
63 63 63
63 63 63
63 63 63
63 63 63
63 63 63
63 63 63
63 63 63
63 63 63
63 63 63
63 63 63
63 63 63
63 63 63
63 63 63
63 63 63
63 63 63
63 63 63
63 63 63
63 63 63
63 63 63
63 63 63
63 63 63
63 63 63
63 63 63
63 63 63
63 63 63
63 63 63
63 63 63
63 63 63
63 63 63
63 63 63
63 63 63
63 63 63
63 63 63
63 63 63
63 63 63
63 63 63
63 63 63
63 63 63
63 63 63
63 63 63
63 63 63
63 63 63
63 63 63
63 63 63
63 63 63
63 63 63
63 63 63
63 63 63
63 63 63
63 63 63
63 63 63
63 63 63
63 63 63
63 63 63
63 63 63
63 63 63
63 63 63
63 63 63
63 63 63
63 63 63
63 63 63
63 63 63
63 63 63
63 63 63
63 63 63
63 63 63
63 63 63
63 63 63
63 63 63
63 63 63
63 63 63
63 63 63
63 63 63
63 63 63
63 63 63
63 63 63
63 63 63
63 63 63
63 63 63
63 63 63
63 63 63
63 63 63
63 63 63
63 63 63
63 63 63
63 63 63
63 63 63
63 63 63
63 63 63
63 63 63
63 63 63
63 63 63
63 63 63
63 63 63
63 63 63
63 63 63
63 63 63
63 63 63
63 63 63
63 63 63
63 63 63
63 63 63
63 63 63
63 63 63
63 63 63
63 63 63
63 63 63
63 63 63
63 63 63
63 63 63
63 63 63
63 63 63
63 63 63
63 63 63
63 63 63
63 63 63
63 63 63
63 63 63
63 63 63
63 63 63
63 63 63
63 63 63
63 63 63
63 63 63
63 63 63
63 63 63
63 63 63
63 63 63
63 63 63
63 63 63
63 63 63
63 63 63
63 63 63
63 63 63
63 63 63
63 63 63
63 63 63
63 63 63
63 63 63
63 63 63
63 63 63
63 63 63
63 63 63
63 63 63
63 63 63
63 63 63
63 63 63
63 63 63
63 63 63
63 63 63
63 63 63
63 63 63
63 63 63
63 63 63
63 63 63
63 63 63
63 63 63
63 63 63
63 63 63
63 63 63
63 63 63
63 63 63
63 63 63
63 63 63
63 63 63
63 63 63
63 63 63
63 63 63
63 63 63
63 63 63
63 63 63
63 63 63
63 63 63
63 63 63
63 63 63
63 63 63
63 63 63
63 63 63
63 63 63
63 63 63
63 63 63
63 63 63
63 63 63
63 63 63
63 63 63
63 63 63
63 63 63
63 63 63
63 63 63
63 63 63
63 63 63
63 63 63
63 63 63
63 63 63
63 63 63
63 63 63
63 63 63
63 63 63
63 63 63
63 63 63
63 63 63
63 63 63
63 63 63
63 63 63
63 63 63
63 63 63
63 63 63
63 63 63
63 63 63
63 63 63
63 63 63
63 63 63
63 63 63
63 63 63
63 63 63
63 63 63
63 63 63
63 63 63
63 63 63
63 63 63
63 63 63
63 63 63
63 63 63
63 63 63
63 63 63
63 63 63
63 63 63
63 63 63
63 63 63
63 63 63
63 63 63
63 63 63
63 63 63
63 63 63
63 63 63
63 63 63
63 63 63
63 63 63
63 63 63
63 63 63
63 63 63
63 63 63
63 63 63
63 63 63
63 63 63
63 63 63
63 63 63
63 63 63
63 63 63
63 63 63
63 63 63
63 63 63
63 63 63
63 63 63
63 63 63
63 63 63
63 63 63
63 63 63
63 63 63
63 63 63
63 63 63
63 63 63
63 63 63
63 63 63
63 63 63
63 63 63
63 63 63
63 63 63
63 63 63
63 63 63
63 63 63
63 63 63
63 63 63
63 63 63
63 63 63
63 63 63
63 63 63
63 63 63
63 63 63
63 63 63
63 63 63
63 63 63
63 63 63
63 63 63
63 63 63
63 63 63
63 63 63
63 63 63
63 63 63
63 63 63
63 63 63
63 63 63
63 63 63
63 63 63
63 63 63
63 63 63
63 63 63
63 63 63
63 63 63
63 63 63
63 63 63
63 63 63
63 63 63
63 63 63
63 63 63
63 63 63
63 63 63
63 63 63
63 63 63
63 63 63
63 63 63
63 63 63
63 63 63
63 63 63
63 63 63
63 63 63
63 63 63
63 63 63
63 63 63
63 63 63
63 63 63
63 63 63
63 63 63
63 63 63
63 63 63
63 63 63
63 63 63
63 63 63
63 63 63
63 63 63
63 63 63
63 63 63
63 63 63
63 63 63
63 63 63
63 63 63
63 63 63
63 63 63
63 63 63
63 63 63
63 63 63
63 63 63
63 63 63
63 63 63
63 63 63
63 63 63
63 63 63
63 63 63
63 63 63
63 63 63
63 63 63
63 63 63
63 63 63
63 63 63
63 63 63
63 63 63
63 63 63
63 63 63
63 63 63
63 63 63
63 63 63
63 63 63
63 63 63
63 63 63
63 63 63
63 63 63
63 63 63
63 63 63
63 63 63
63 63 63
63 63 63
63 63 63
63 63 63
63 63 63
63 63 63
63 63 63
63 63 63
63 63 63
63 63 63
63 63 63
63 63 63
63 63 63
63 63 63
63 63 63
63 63 63
63 63 63
63 63 63
63 63 63
63 63 63
63 63 63
63 63 63
63 63 63
63 63 63
63 63 63
63 63 63
63 63 63
63 63 63
63 63 63
63 63 63
63 63 63
63 63 63
63 63 63
63 63 63
63 63 63
63 63 63
63 63 63
63 63 63
63 63 63
63 63 63
63 63 63
63 63 63
63 63 63
63 63 63
63 63 63
63 63 63
63 63 63
63 63 63
63 63 63
63 63 63
63 63 63
63 63 63
63 63 63
63 63 63
63 63 63
63 63 63
63 63 63
63 63 63
63 63 63
63 63 63
63 63 63
63 63 63
63 63 63
63 63 63
63 63 63
63 63 63
63 63 63
63 63 63
63 63 63
63 63 63
63 63 63
63 63 63
63 63 63
63 63 63
63 63 63
63 63 63
63 63 63
63 63 63
63 63 63
63 63 63
63 63 63
63 63 63
63 63 63
63 63 63
63 63 63
63 63 63
63 63 63
63 63 63
63 63 63
63 63 63
63 63 63
63 63 63
63 63 63
63 63 63
63 63 63
63 63 63
63 63 63
63 63 63
63 63 63
63 63 63
63 63 63
63 63 63
63 63 63
63 63 63
63 63 63
63 63 63
63 63 63
63 63 63
63 63 63
63 63 63
63 63 63
63 63 63
63 63 63
63 63 63
63 63 63
63 63 63
63 63 63
63 63 63
63 63 63
63 63 63
63 63 63
63 63 63
63 63 63
63 63 63
63 63 63
63 63 63
63 63 63
63 63 63
63 63 63
63 63 63
63 63 63
63 63 63
63 63 63
63 63 63
63 63 63
63 63 63
63 63 63
63 63 63
63 63 63
63 63 63
63 63 63
63 63 63
63 63 63
63 63 63
63 63 63
63 63 63
63 63 63
63 63 63
63 63 63
63 63 63
63 63 63
63 63 63
63 63 63
63 63 63
63 63 63
63 63 63
63 63 63
63 63 63
63 63 63
63 63 63
63 63 63
63 63 63
63 63 63
63 63 63
63 63 63
63 63 63
63 63 63
63 63 63
63 63 63
63 63 63
63 63 63
63 63 63
63 63 63
63 63 63
63 63 63
63 63 63
63 63 63
63 63 63
63 63 63
63 63 63
63 63 63
63 63 63
63 63 63
63 63 63
63 63 63
63 63 63
63 63 63
63 63 63
63 63 63
63 63 63
63 63 63
63 63 63
63 63 63
63 63 63
63 63 63
63 63 63
63 63 63
63 63 63
63 63 63
63 63 63
63 63 63
63 63 63
63 63 63
63 63 63
63 63 63
63 63 63
63 63 63
63 63 63
63 63 63
63 63 63
63 63 63
63 63 63
63 63 63
63 63 63
63 63 63
63 63 63
63 63 63
63 63 63
63 63 63
63 63 63
63 63 63
63 63 63
63 63 63
63 63 63
63 63 63
63 63 63
63 63 63
63 63 63
63 63 63
63 63 63
63 63 63
63 63 63
63 63 63
63 63 63
63 63 63
63 63 63
63 63 63
63 63 63
63 63 63
63 63 63
63 63 63
63 63 63
63 63 63
63 63 63
63 63 63
63 63 63
63 63 63
63 63 63
63 63 63
63 63 63
63 63 63
63 63 63
63 63 63
63 63 63
63 63 63
63 63 63
63 63 63
63 63 63
63 63 63
63 63 63
63 63 63
63 63 63
63 63 63
63 63 63
63 63 63
63 63 63
63 63 63
63 63 63
63 63 63
63 63 63
63 63 63
63 63 63
63 63 63
63 63 63
63 63 63
63 63 63
63 63 63
63 63 63
63 63 63
63 63 63
63 63 63
63 63 63
63 63 63
63 63 63
63 63 63
63 63 63
63 63 63
63 63 63
63 63 63
63 63 63
63 63 63
63 63 63
63 63 63
63 63 63
63 63 63
63 63 63
63 63 63
63 63 63
63 63 63
63 63 63
63 63 63
63 63 63
63 63 63
63 63 63
63 63 63
63 63 63
63 63 63
63 63 63
63 63 63
63 63 63
63 63 63
63 63 63
63 63 63
63 63 63
63 63 63
63 63 63
63 63 63
63 63 63
63 63 63
63 63 63
63 63 63
63 63 63
63 63 63
63 63 63
63 63 63
63 63 63
63 63 63
63 63 63
63 63 63
63 63 63
63 63 63
63 63 63
63 63 63
63 63 63
63 63 63
63 63 63
63 63 63
63 63 63
63 63 63
63 63 63
63 63 63
63 63 63
63 63 63
63 63 63
63 63 63
63 63 63
63 63 63
63 63 63
63 63 63
63 63 63
63 63 63
63 63 63
63 63 63
63 63 63
63 63 63
63 63 63
63 63 63
63 63 63
63 63 63
63 63 63
63 63 63
63 63 63
63 63 63
63 63 63
63 63 63
63 63 63
63 63 63
63 63 63
63 63 63
63 63 63
63 63 63
63 63 63
63 63 63
63 63 63
63 63 63
63 63 63
63 63 63
63 63 63
63 63 63
63 63 63
63 63 63
63 63 63
63 63 63
63 63 63
63 63 63
63 63 63
63 63 63
63 63 63
63 63 63
63 63 63
63 63 63
63 63 63
63 63 63
63 63 63
63 63 63
63 63 63
63 63 63
63 63 63
63 63 63
63 63 63
63 63 63
63 63 63
63 63 63
63 63 63
63 63 63
63 63 63
63 63 63
63 63 63
63 63 63
63 63 63
63 63 63
63 63 63
63 63 63
63 63 63
63 63 63
63 63 63
63 63 63
63 63 63
63 63 63
63 63 63
63 63 63
63 63 63
63 63 63
63 63 63
63 63 63
63 63 63
63 63 63
63 63 63
63 63 63
63 63 63
63 63 63
63 63 63
63 63 63
63 63 63
63 63 63
63 63 63
63 63 63
63 63 63
63 63 63
63 63 63
63 63 63
63 63 63
63 63 63
63 63 63
63 63 63
63 63 63
63 63 63
63 63 63
63 63 63
63 63 63
63 63 63
63 63 63
63 63 63
63 63 63
63 63 63
63 63 63
63 63 63
63 63 63
63 63 63
63 63 63
63 63 63
63 63 63
63 63 63
63 63 63
63 63 63
63 63 63
63 63 63
63 63 63
63 63 63
63 63 63
63 63 63
63 63 63
63 63 63
63 63 63
63 63 63
63 63 63
63 63 63
63 63 63
63 63 63
63 63 63
63 63 63
63 63 63
63 63 63
63 63 63
63 63 63
63 63 63
63 63 63
63 63 63
63 63 63
63 63 63
63 63 63
63 63 63
63 63 63
63 63 63
63 63 63
63 63 63
63 63 63
63 63 63
63 63 63
63 63 63
63 63 63
63 63 63
63 63 63
63 63 63
63 63 63
63 63 63
63 63 63
63 63 63
63 63 63
63 63 63
63 63 63
63 63 63
63 63 63
63 63 63
63 63 63
63 63 63
63 63 63
63 63 63
63 63 63
63 63 63
63 63 63
63 63 63
63 63 63
63 63 63
63 63 63
63 63 63
63 63 63
63 63 63
63 63 63
63 63 63
63 63 63
63 63 63
63 63 63
63 63 63
63 63 63
63 63 63
63 63 63
63 63 63
63 63 63
63 63 63
63 63 63
63 63 63
63 63 63
63 63 63
63 63 63
63 63 63
63 63 63
63 63 63
63 63 63
63 63 63
63 63 63
63 63 63
63 63 63
63 63 63
63 63 63
63 63 63
63 63 63
63 63 63
63 63 63
63 63 63
63 63 63
63 63 63
63 63 63
63 63 63
63 63 63
63 63 63
63 63 63
63 63 63
63 63 63
63 63 63
63 63 63
63 63 63
63 63 63
63 63 63
63 63 63
63 63 63
63 63 63
63 63 63
63 63 63
63 63 63
63 63 63
63 63 63
63 63 63
63 63 63
63 63 63
63 63 63
63 63 63
63 63 63
63 63 63
63 63 63
63 63 63
63 63 63
63 63 63
63 63 63
63 63 63
63 63 63
63 63 63
63 63 63
63 63 63
63 63 63
63 63 63
63 63 63
63 63 63
63 63 63
63 63 63
63 63 63
63 63 63
63 63 63
63 63 63
63 63 63
63 63 63
63 63 63
63 63 63
63 63 63
63 63 63
63 63 63
63 63 63
63 63 63
63 63 63
63 63 63
63 63 63
63 63 63
63 63 63
63 63 63
63 63 63
63 63 63
63 63 63
63 63 63
63 63 63
63 63 63
63 63 63
63 63 63
63 63 63
63 63 63
63 63 63
63 63 63
63 63 63
63 63 63
63 63 63
63 63 63
63 63 63
63 63 63
63 63 63
63 63 63
63 63 63
63 63 63
63 63 63
63 63 63
63 63 63
63 63 63
63 63 63
63 63 63
63 63 63
63 63 63
63 63 63
63 63 63
63 63 63
63 63 63
63 63 63
63 63 63
63 63 63
63 63 63
63 63 63
63 63 63
63 63 63
63 63 63
63 63 63
63 63 63
63 63 63
63 63 63
63 63 63
63 63 63
63 63 63
63 63 63
63 63 63
63 63 63
63 63 63
63 63 63
63 63 63
63 63 63
63 63 63
63 63 63
63 63 63
63 63 63
63 63 63
63 63 63
63 63 63
63 63 63
63 63 63
63 63 63
63 63 63
63 63 63
63 63 63
63 63 63
63 63 63
63 63 63
63 63 63
63 63 63
63 63 63
63 63 63
63 63 63
63 63 63
63 63 63
63 63 63
63 63 63
63 63 63
63 63 63
63 63 63
63 63 63
63 63 63
63 63 63
63 63 63
63 63 63
63 63 63
63 63 63
63 63 63
63 63 63
63 63 63
63 63 63
63 63 63
63 63 63
63 63 63
63 63 63
63 63 63
63 63 63
63 63 63
63 63 63
63 63 63
63 63 63
63 63 63
63 63 63
63 63 63
63 63 63
63 63 63
63 63 63
63 63 63
63 63 63
63 63 63
63 63 63
63 63 63
63 63 63
63 63 63
63 63 63
63 63 63
63 63 63
63 63 63
63 63 63
63 63 63
63 63 63
63 63 63
63 63 63
63 63 63
63 63 63
63 63 63
63 63 63
63 63 63
63 63 63
63 63 63
63 63 63
63 63 63
63 63 63
63 63 63
63 63 63
63 63 63
63 63 63
63 63 63
63 63 63
63 63 63
63 63 63
63 63 63
63 63 63
63 63 63
63 63 63
63 63 63
63 63 63
63 63 63
63 63 63
63 63 63
63 63 63
63 63 63
63 63 63
63 63 63
63 63 63
63 63 63
63 63 63
63 63 63
63 63 63
63 63 63
63 63 63
63 63 63
63 63 63
63 63 63
63 63 63
63 63 63
63 63 63
63 63 63
63 63 63
63 63 63
63 63 63
63 63 63
63 63 63
63 63 63
63 63 63
63 63 63
63 63 63
63 63 63
63 63 63
63 63 63
63 63 63
63 63 63
63 63 63
63 63 63
63 63 63
63 63 63
63 63 63
63 63 63
63 63 63
63 63 63
63 63 63
63 63 63
63 63 63
63 63 63
63 63 63
63 63 63
63 63 63
63 63 63
63 63 63
63 63 63
63 63 63
63 63 63
63 63 63
63 63 63
63 63 63
63 63 63
63 63 63
63 63 63
63 63 63
63 63 63
63 63 63
63 63 63
63 63 63
63 63 63
63 63 63
63 63 63
63 63 63
63 63 63
63 63 63
63 63 63
63 63 63
63 63 63
63 63 63
63 63 63
63 63 63
63 63 63
63 63 63
63 63 63
63 63 63
63 63 63
63 63 63
63 63 63
63 63 63
63 63 63
63 63 63
63 63 63
63 63 63
63 63 63
63 63 63
63 63 63
63 63 63
63 63 63
63 63 63
63 63 63
63 63 63
63 63 63
63 63 63
63 63 63
63 63 63
63 63 63
63 63 63
63 63 63
63 63 63
63 63 63
63 63 63
63 63 63
63 63 63
63 63 63
63 63 63
63 63 63
63 63 63
63 63 63
63 63 63
63 63 63
63 63 63
63 63 63
63 63 63
63 63 63
63 63 63
63 63 63
63 63 63
63 63 63
63 63 63
63 63 63
63 63 63
63 63 63
63 63 63
63 63 63
63 63 63
63 63 63
63 63 63
63 63 63
63 63 63
63 63 63
63 63 63
63 63 63
63 63 63
63 63 63
63 63 63
63 63 63
63 63 63
63 63 63
63 63 63
63 63 63
63 63 63
63 63 63
63 63 63
63 63 63
63 63 63
63 63 63
63 63 63
63 63 63
63 63 63
63 63 63
63 63 63
63 63 63
63 63 63
63 63 63
63 63 63
63 63 63
63 63 63
63 63 63
63 63 63
63 63 63
63 63 63
63 63 63
63 63 63
63 63 63
63 63 63
63 63 63
63 63 63
63 63 63
63 63 63
63 63 63
63 63 63
63 63 63
63 63 63
63 63 63
63 63 63
63 63 63
63 63 63
63 63 63
63 63 63
63 63 63
63 63 63
63 63 63
63 63 63
63 63 63
63 63 63
63 63 63
63 63 63
63 63 63
63 63 63
63 63 63
63 63 63
63 63 63
63 63 63
63 63 63
63 63 63
63 63 63
63 63 63
63 63 63
63 63 63
63 63 63
63 63 63
63 63 63
63 63 63
63 63 63
63 63 63
63 63 63
63 63 63
63 63 63
63 63 63
63 63 63
63 63 63
63 63 63
63 63 63
63 63 63
63 63 63
63 63 63
63 63 63
63 63 63
63 63 63
63 63 63
63 63 63
63 63 63
63 63 63
63 63 63
63 63 63
63 63 63
63 63 63
63 63 63
63 63 63
63 63 63
63 63 63
63 63 63
63 63 63
63 63 63
63 63 63
63 63 63
63 63 63
63 63 63
63 63 63
63 63 63
63 63 63
63 63 63
63 63 63
63 63 63
63 63 63
63 63 63
63 63 63
63 63 63
63 63 63
63 63 63
63 63 63
63 63 63
63 63 63
63 63 63
63 63 63
63 63 63
63 63 63
63 63 63
63 63 63
63 63 63
63 63 63
63 63 63
63 63 63
63 63 63
63 63 63
63 63 63
63 63 63
63 63 63
63 63 63
63 63 63
63 63 63
63 63 63
63 63 63
63 63 63
63 63 63
63 63 63
63 63 63
63 63 63
63 63 63
63 63 63
63 63 63
63 63 63
63 63 63
63 63 63
63 63 63
63 63 63
63 63 63
63 63 63
63 63 63
63 63 63
63 63 63
63 63 63
63 63 63
63 63 63
63 63 63
63 63 63
63 63 63
63 63 63
63 63 63
63 63 63
63 63 63
63 63 63
63 63 63
63 63 63
63 63 63
63 63 63
63 63 63
63 63 63
63 63 63
63 63 63
63 63 63
63 63 63
63 63 63
63 63 63
63 63 63
63 63 63
63 63 63
63 63 63
63 63 63
63 63 63
63 63 63
63 63 63
63 63 63
63 63 63
63 63 63
63 63 63
63 63 63
63 63 63
63 63 63
63 63 63
63 63 63
63 63 63
63 63 63
63 63 63
63 63 63
63 63 63
63 63 63
63 63 63
63 63 63
63 63 63
63 63 63
63 63 63
63 63 63
63 63 63
63 63 63
63 63 63
63 63 63
63 63 63
63 63 63
63 63 63
63 63 63
63 63 63
63 63 63
63 63 63
63 63 63
63 63 63
63 63 63
63 63 63
63 63 63
63 63 63
63 63 63
63 63 63
63 63 63
63 63 63
63 63 63
63 63 63
63 63 63
63 63 63
63 63 63
63 63 63
63 63 63
63 63 63
63 63 63
63 63 63
63 63 63
63 63 63
63 63 63
63 63 63
63 63 63
63 63 63
63 63 63
63 63 63
63 63 63
63 63 63
63 63 63
63 63 63
63 63 63
63 63 63
63 63 63
63 63 63
63 63 63
63 63 63
63 63 63
63 63 63
63 63 63
63 63 63
63 63 63
63 63 63
63 63 63
63 63 63
63 63 63
63 63 63
63 63 63
63 63 63
63 63 63
63 63 63
63 63 63
63 63 63
63 63 63
63 63 63
63 63 63
63 63 63
63 63 63
63 63 63
63 63 63
63 63 63
63 63 63
63 63 63
63 63 63
63 63 63
63 63 63
63 63 63
63 63 63
63 63 63
63 63 63
63 63 63
63 63 63
63 63 63
63 63 63
63 63 63
63 63 63
63 63 63
63 63 63
63 63 63
63 63 63
63 63 63
63 63 63
63 63 63
63 63 63
63 63 63
63 63 63
63 63 63
63 63 63
63 63 63
63 63 63
63 63 63
63 63 63
63 63 63
63 63 63
63 63 63
63 63 63
63 63 63
63 63 63
63 63 63
63 63 63
63 63 63
63 63 63
63 63 63
63 63 63
63 63 63
63 63 63
63 63 63
63 63 63
63 63 63
63 63 63
63 63 63
63 63 63
63 63 63
63 63 63
63 63 63
63 63 63
63 63 63
63 63 63
63 63 63
63 63 63
63 63 63
63 63 63
63 63 63
63 63 63
63 63 63
63 63 63
63 63 63
63 63 63
63 63 63
63 63 63
63 63 63
63 63 63
63 63 63
63 63 63
63 63 63
63 63 63
63 63 63
63 63 63
63 63 63
63 63 63
63 63 63
63 63 63
63 63 63
63 63 63
63 63 63
63 63 63
63 63 63
63 63 63
63 63 63
63 63 63
63 63 63
63 63 63
63 63 63
63 63 63
63 63 63
63 63 63
63 63 63
63 63 63
63 63 63
63 63 63
63 63 63
63 63 63
63 63 63
63 63 63
63 63 63
63 63 63
63 63 63
63 63 63
63 63 63
63 63 63
63 63 63
63 63 63
63 63 63
63 63 63
63 63 63
63 63 63
63 63 63
63 63 63
63 63 63
63 63 63
63 63 63
63 63 63
63 63 63
63 63 63
63 63 63
63 63 63
63 63 63
63 63 63
63 63 63
63 63 63
63 63 63
63 63 63
63 63 63
63 63 63
63 63 63
63 63 63
63 63 63
63 63 63
63 63 63
63 63 63
63 63 63
63 63 63
63 63 63
63 63 63
63 63 63
63 63 63
63 63 63
63 63 63
63 63 63
63 63 63
63 63 63
63 63 63
63 63 63
63 63 63
63 63 63
63 63 63
63 63 63
63 63 63
63 63 63
63 63 63
63 63 63
63 63 63
63 63 63
63 63 63
63 63 63
63 63 63
63 63 63
63 63 63
63 63 63
63 63 63
63 63 63
63 63 63
63 63 63
63 63 63
63 63 63
63 63 63
63 63 63
63 63 63
63 63 63
63 63 63
63 63 63
63 63 63
63 63 63
63 63 63
63 63 63
63 63 63
63 63 63
63 63 63
63 63 63
63 63 63
63 63 63
63 63 63
63 63 63
63 63 63
63 63 63
63 63 63
63 63 63
63 63 63
63 63 63
63 63 63
63 63 63
63 63 63
63 63 63
63 63 63
63 63 63
63 63 63
63 63 63
63 63 63
63 63 63
63 63 63
63 63 63
63 63 63
63 63 63
63 63 63
63 63 63
63 63 63
63 63 63
63 63 63
63 63 63
63 63 63
63 63 63
63 63 63
63 63 63
63 63 63
63 63 63
63 63 63
63 63 63
63 63 63
63 63 63
63 63 63
63 63 63
63 63 63
63 63 63
63 63 63
63 63 63
63 63 63
63 63 63
63 63 63
63 63 63
63 63 63
63 63 63
63 63 63
63 63 63
63 63 63
63 63 63
63 63 63
63 63 63
63 63 63
63 63 63
63 63 63
63 63 63
63 63 63
63 63 63
63 63 63
63 63 63
63 63 63
63 63 63
63 63 63
63 63 63
63 63 63
63 63 63
63 63 63
63 63 63
63 63 63
63 63 63
63 63 63
63 63 63
63 63 63
63 63 63
63 63 63
63 63 63
63 63 63
63 63 63
63 63 63
63 63 63
63 63 63
63 63 63
63 63 63
63 63 63
63 63 63
63 63 63
63 63 63
63 63 63
63 63 63
63 63 63
63 63 63
63 63 63
63 63 63
63 63 63
63 63 63
63 63 63
63 63 63
63 63 63
63 63 63
63 63 63
63 63 63
63 63 63
63 63 63
63 63 63
63 63 63
63 63 63
63 63 63
63 63 63
63 63 63
63 63 63
63 63 63
63 63 63
63 63 63
63 63 63
63 63 63
63 63 63
63 63 63
63 63 63
63 63 63
63 63 63
63 63 63
63 63 63
63 63 63
63 63 63
63 63 63
63 63 63
63 63 63
63 63 63
63 63 63
63 63 63
63 63 63
63 63 63
63 63 63
63 63 63
63 63 63
63 63 63
63 63 63
63 63 63
63 63 63
63 63 63
63 63 63
63 63 63
63 63 63
63 63 63
63 63 63
63 63 63
63 63 63
63 63 63
63 63 63
63 63 63
63 63 63
63 63 63
63 63 63
63 63 63
63 63 63
63 63 63
63 63 63
63 63 63
63 63 63
63 63 63
63 63 63
63 63 63
63 63 63
63 63 63
63 63 63
63 63 63
63 63 63
63 63 63
63 63 63
63 63 63
63 63 63
63 63 63
63 63 63
63 63 63
63 63 63
63 63 63
63 63 63
63 63 63
63 63 63
63 63 63
63 63 63
63 63 63
63 63 63
63 63 63
63 63 63
63 63 63
63 63 63
63 63 63
63 63 63
63 63 63
63 63 63
63 63 63
63 63 63
63 63 63
63 63 63
63 63 63
63 63 63
63 63 63
63 63 63
63 63 63
63 63 63
63 63 63
63 63 63
63 63 63
63 63 63
63 63 63
63 63 63
63 63 63
63 63 63
63 63 63
63 63 63
63 63 63
63 63 63
63 63 63
63 63 63
63 63 63
63 63 63
63 63 63
63 63 63
63 63 63
63 63 63
63 63 63
63 63 63
63 63 63
63 63 63
63 63 63
63 63 63
63 63 63
63 63 63
63 63 63
63 63 63
63 63 63
63 63 63
63 63 63
63 63 63
63 63 63
63 63 63
63 63 63
63 63 63
63 63 63
63 63 63
63 63 63
63 63 63
63 63 63
63 63 63
63 63 63
63 63 63
63 63 63
63 63 63
63 63 63
63 63 63
63 63 63
63 63 63
63 63 63
63 63 63
63 63 63
63 63 63
63 63 63
63 63 63
63 63 63
63 63 63
63 63 63
63 63 63
63 63 63
63 63 63
63 63 63
63 63 63
63 63 63
63 63 63
63 63 63
63 63 63
63 63 63
63 63 63
63 63 63
63 63 63
63 63 63
63 63 63
63 63 63
63 63 63
63 63 63
63 63 63
63 63 63
63 63 63
63 63 63
63 63 63
63 63 63
63 63 63
63 63 63
63 63 63
63 63 63
63 63 63
63 63 63
63 63 63
63 63 63
63 63 63
63 63 63
63 63 63
63 63 63
63 63 63
63 63 63
63 63 63
63 63 63
63 63 63
63 63 63
63 63 63
63 63 63
63 63 63
63 63 63
63 63 63
63 63 63
63 63 63
63 63 63
63 63 63
63 63 63
63 63 63
63 63 63
63 63 63
63 63 63
63 63 63
63 63 63
63 63 63
63 63 63
63 63 63
63 63 63
63 63 63
63 63 63
63 63 63
63 63 63
63 63 63
63 63 63
63 63 63
63 63 63
63 63 63
63 63 63
63 63 63
63 63 63
63 63 63
63 63 63
63 63 63
63 63 63
63 63 63
63 63 63
63 63 63
63 63 63
63 63 63
63 63 63
63 63 63
63 63 63
63 63 63
63 63 63
63 63 63
63 63 63
63 63 63
63 63 63
63 63 63
63 63 63
63 63 63
63 63 63
63 63 63
63 63 63
63 63 63
63 63 63
63 63 63
63 63 63
63 63 63
63 63 63
63 63 63
63 63 63
63 63 63
63 63 63
63 63 63
63 63 63
63 63 63
63 63 63
63 63 63
63 63 63
63 63 63
63 63 63
63 63 63
63 63 63
63 63 63
63 63 63
63 63 63
63 63 63
63 63 63
63 63 63
63 63 63
63 63 63
63 63 63
63 63 63
63 63 63
63 63 63
63 63 63
63 63 63
63 63 63
63 63 63
63 63 63
63 63 63
63 63 63
63 63 63
63 63 63
63 63 63
63 63 63
63 63 63
63 63 63
63 63 63
63 63 63
63 63 63
63 63 63
63 63 63
63 63 63
63 63 63
63 63 63
63 63 63
63 63 63
63 63 63
63 63 63
63 63 63
63 63 63
63 63 63
63 63 63
63 63 63
63 63 63
63 63 63
63 63 63
63 63 63
63 63 63
63 63 63
63 63 63
63 63 63
63 63 63
63 63 63
63 63 63
63 63 63
63 63 63
63 63 63
63 63 63
63 63 63
63 63 63
63 63 63
63 63 63
63 63 63
63 63 63
63 63 63
63 63 63
63 63 63
63 63 63
63 63 63
63 63 63
63 63 63
63 63 63
63 63 63
63 63 63
63 63 63
63 63 63
63 63 63
63 63 63
63 63 63
63 63 63
63 63 63
63 63 63
63 63 63
63 63 63
63 63 63
63 63 63
63 63 63
63 63 63
63 63 63
63 63 63
63 63 63
63 63 63
63 63 63
63 63 63
63 63 63
63 63 63
63 63 63
63 63 63
63 63 63
63 63 63
63 63 63
63 63 63
63 63 63
63 63 63
63 63 63
63 63 63
63 63 63
63 63 63
63 63 63
63 63 63
63 63 63
63 63 63
63 63 63
63 63 63
63 63 63
63 63 63
63 63 63
63 63 63
63 63 63
63 63 63
63 63 63
63 63 63
63 63 63
63 63 63
63 63 63
63 63 63
63 63 63
63 63 63
63 63 63
63 63 63
63 63 63
63 63 63
63 63 63
63 63 63
63 63 63
63 63 63
63 63 63
63 63 63
63 63 63
63 63 63
63 63 63
63 63 63
63 63 63
63 63 63
63 63 63
63 63 63
63 63 63
63 63 63
63 63 63
63 63 63
63 63 63
63 63 63
63 63 63
63 63 63
63 63 63
63 63 63
63 63 63
63 63 63
63 63 63
63 63 63
63 63 63
63 63 63
63 63 63
63 63 63
63 63 63
63 63 63
63 63 63
63 63 63
63 63 63
63 63 63
63 63 63
63 63 63
63 63 63
63 63 63
63 63 63
63 63 63
63 63 63
63 63 63
63 63 63
63 63 63
63 63 63
63 63 63
63 63 63
63 63 63
63 63 63
63 63 63
63 63 63
63 63 63
63 63 63
63 63 63
63 63 63
63 63 63
63 63 63
63 63 63
63 63 63
63 63 63
63 63 63
63 63 63
63 63 63
63 63 63
63 63 63
63 63 63
63 63 63
63 63 63
63 63 63
63 63 63
63 63 63
63 63 63
63 63 63
63 63 63
63 63 63
63 63 63
63 63 63
63 63 63
63 63 63
63 63 63
63 63 63
63 63 63
63 63 63
63 63 63
63 63 63
63 63 63
63 63 63
63 63 63
63 63 63
63 63 63
63 63 63
63 63 63
63 63 63
63 63 63
63 63 63
63 63 63
63 63 63
63 63 63
63 63 63
63 63 63
63 63 63
63 63 63
63 63 63
63 63 63
63 63 63
63 63 63
63 63 63
63 63 63
63 63 63
63 63 63
63 63 63
63 63 63
63 63 63
63 63 63
63 63 63
63 63 63
63 63 63
63 63 63
63 63 63
63 63 63
63 63 63
63 63 63
63 63 63
63 63 63
63 63 63
63 63 63
63 63 63
63 63 63
63 63 63
63 63 63
63 63 63
63 63 63
63 63 63
63 63 63
63 63 63
63 63 63
63 63 63
63 63 63
63 63 63
63 63 63
63 63 63
63 63 63
63 63 63
63 63 63
63 63 63
63 63 63
63 63 63
63 63 63
63 63 63
63 63 63
63 63 63
63 63 63
63 63 63
63 63 63
63 63 63
63 63 63
63 63 63
63 63 63
63 63 63
63 63 63
63 63 63
63 63 63
63 63 63
63 63 63
63 63 63
63 63 63
63 63 63
63 63 63
63 63 63
63 63 63
63 63 63
63 63 63
63 63 63
63 63 63
63 63 63
63 63 63
63 63 63
63 63 63
63 63 63
63 63 63
63 63 63
63 63 63
63 63 63
63 63 63
63 63 63
63 63 63
63 63 63
63 63 63
63 63 63
63 63 63
63 63 63
63 63 63
63 63 63
63 63 63
63 63 63
63 63 63
63 63 63
63 63 63
63 63 63
63 63 63
63 63 63
63 63 63
63 63 63
63 63 63
63 63 63
63 63 63
63 63 63
63 63 63
63 63 63
63 63 63
63 63 63
63 63 63
63 63 63
63 63 63
63 63 63
63 63 63
63 63 63
63 63 63
63 63 63
63 63 63
63 63 63
63 63 63
63 63 63
63 63 63
63 63 63
63 63 63
63 63 63
63 63 63
63 63 63
63 63 63
63 63 63
63 63 63
63 63 63
63 63 63
63 63 63
63 63 63
63 63 63
63 63 63
63 63 63
63 63 63
63 63 63
63 63 63
63 63 63
63 63 63
63 63 63
63 63 63
63 63 63
63 63 63
63 63 63
63 63 63
63 63 63
63 63 63
63 63 63
63 63 63
63 63 63
63 63 63
63 63 63
63 63 63
63 63 63
63 63 63
63 63 63
63 63 63
63 63 63
63 63 63
63 63 63
63 63 63
63 63 63
63 63 63
63 63 63
63 63 63
63 63 63
63 63 63
63 63 63
63 63 63
63 63 63
63 63 63
63 63 63
63 63 63
63 63 63
63 63 63
63 63 63
63 63 63
63 63 63
63 63 63
63 63 63
63 63 63
63 63 63
63 63 63
63 63 63
63 63 63
63 63 63
63 63 63
63 63 63
63 63 63
63 63 63
63 63 63
63 63 63
63 63 63
63 63 63
63 63 63
63 63 63
63 63 63
63 63 63
63 63 63
63 63 63
63 63 63
63 63 63
63 63 63
63 63 63
63 63 63
63 63 63
63 63 63
63 63 63
63 63 63
63 63 63
63 63 63
63 63 63
63 63 63
63 63 63
63 63 63
63 63 63
63 63 63
63 63 63
63 63 63
63 63 63
63 63 63
63 63 63
63 63 63
63 63 63
63 63 63
63 63 63
63 63 63
63 63 63
63 63 63
63 63 63
63 63 63
63 63 63
63 63 63
63 63 63
63 63 63
63 63 63
63 63 63
63 63 63
63 63 63
63 63 63
63 63 63
63 63 63
63 63 63
63 63 63
63 63 63
63 63 63
63 63 63
63 63 63
63 63 63
63 63 63
63 63 63
63 63 63
63 63 63
63 63 63
63 63 63
63 63 63
63 63 63
63 63 63
63 63 63
63 63 63
63 63 63
63 63 63
63 63 63
63 63 63
63 63 63
63 63 63
63 63 63
63 63 63
63 63 63
63 63 63
63 63 63
63 63 63
63 63 63
63 63 63
63 63 63
63 63 63
63 63 63
63 63 63
63 63 63
63 63 63
63 63 63
63 63 63
63 63 63
63 63 63
63 63 63
63 63 63
63 63 63
63 63 63
63 63 63
63 63 63
63 63 63
63 63 63
63 63 63
63 63 63
63 63 63
63 63 63
63 63 63
63 63 63
63 63 63
63 63 63
63 63 63
63 63 63
63 63 63
63 63 63
63 63 63
63 63 63
63 63 63
63 63 63
63 63 63
63 63 63
63 63 63
63 63 63
63 63 63
63 63 63
63 63 63
63 63 63
63 63 63
63 63 63
63 63 63
63 63 63
63 63 63
63 63 63
63 63 63
63 63 63
63 63 63
63 63 63
63 63 63
63 63 63
63 63 63
63 63 63
63 63 63
63 63 63
63 63 63
63 63 63
63 63 63
63 63 63
63 63 63
63 63 63
63 63 63
63 63 63
63 63 63
63 63 63
63 63 63
63 63 63
63 63 63
63 63 63
63 63 63
63 63 63
63 63 63
63 63 63
63 63 63
63 63 63
63 63 63
63 63 63
63 63 63
63 63 63
63 63 63
63 63 63
63 63 63
63 63 63
63 63 63
63 63 63
63 63 63
63 63 63
63 63 63
63 63 63
63 63 63
63 63 63
63 63 63
63 63 63
63 63 63
63 63 63
63 63 63
63 63 63
63 63 63
63 63 63
63 63 63
63 63 63
63 63 63
63 63 63
63 63 63
63 63 63
63 63 63
63 63 63
63 63 63
63 63 63
63 63 63
63 63 63
63 63 63
63 63 63
63 63 63
63 63 63
63 63 63
63 63 63
63 63 63
63 63 63
63 63 63
63 63 63
63 63 63
63 63 63
63 63 63
63 63 63
63 63 63
63 63 63
63 63 63
63 63 63
63 63 63
63 63 63
63 63 63
63 63 63
63 63 63
63 63 63
63 63 63
63 63 63
63 63 63
63 63 63
63 63 63
63 63 63
63 63 63
63 63 63
63 63 63
63 63 63
63 63 63
63 63 63
63 63 63
63 63 63
63 63 63
63 63 63
63 63 63
63 63 63
63 63 63
63 63 63
63 63 63
63 63 63
63 63 63
63 63 63
63 63 63
63 63 63
63 63 63
63 63 63
63 63 63
63 63 63
63 63 63
63 63 63
63 63 63
63 63 63
63 63 63
63 63 63
63 63 63
63 63 63
63 63 63
63 63 63
63 63 63
63 63 63
63 63 63
63 63 63
63 63 63
63 63 63
63 63 63
63 63 63
63 63 63
63 63 63
63 63 63
63 63 63
63 63 63
63 63 63
63 63 63
63 63 63
63 63 63
63 63 63
63 63 63
63 63 63
63 63 63
63 63 63
63 63 63
63 63 63
63 63 63
63 63 63
63 63 63
63 63 63
63 63 63
63 63 63
63 63 63
63 63 63
63 63 63
63 63 63
63 63 63
63 63 63
63 63 63
63 63 63
63 63 63
63 63 63
63 63 63
63 63 63
63 63 63
63 63 63
63 63 63
63 63 63
63 63 63
63 63 63
63 63 63
63 63 63
63 63 63
63 63 63
63 63 63
63 63 63
63 63 63
63 63 63
63 63 63
63 63 63
63 63 63
63 63 63
63 63 63
63 63 63
63 63 63
63 63 63
63 63 63
63 63 63
63 63 63
63 63 63
63 63 63
63 63 63
63 63 63
63 63 63
63 63 63
63 63 63
63 63 63
63 63 63
63 63 63
63 63 63
63 63 63
63 63 63
63 63 63
63 63 63
63 63 63
63 63 63
63 63 63
63 63 63
63 63 63
63 63 63
63 63 63
63 63 63
63 63 63
63 63 63
63 63 63
63 63 63
63 63 63
63 63 63
63 63 63
63 63 63
63 63 63
63 63 63
63 63 63
63 63 63
63 63 63
63 63 63
63 63 63
63 63 63
63 63 63
63 63 63
63 63 63
63 63 63
63 63 63
63 63 63
63 63 63
63 63 63
63 63 63
63 63 63
63 63 63
63 63 63
63 63 63
63 63 63
63 63 63
63 63 63
63 63 63
63 63 63
63 63 63
63 63 63
63 63 63
63 63 63
63 63 63
63 63 63
63 63 63
63 63 63
63 63 63
63 63 63
63 63 63
63 63 63
63 63 63
63 63 63
63 63 63
63 63 63
63 63 63
63 63 63
63 63 63
63 63 63
63 63 63
63 63 63
63 63 63
63 63 63
63 63 63
63 63 63
63 63 63
63 63 63
63 63 63
63 63 63
63 63 63
63 63 63
63 63 63
63 63 63
63 63 63
63 63 63
63 63 63
63 63 63
63 63 63
63 63 63
63 63 63
63 63 63
63 63 63
63 63 63
63 63 63
63 63 63
63 63 63
63 63 63
63 63 63
63 63 63
63 63 63
63 63 63
63 63 63
63 63 63
63 63 63
63 63 63
63 63 63
63 63 63
63 63 63
63 63 63
63 63 63
63 63 63
63 63 63
63 63 63
63 63 63
63 63 63
63 63 63
63 63 63
63 63 63
63 63 63
63 63 63
63 63 63
63 63 63
63 63 63
63 63 63
63 63 63
63 63 63
63 63 63
63 63 63
63 63 63
63 63 63
63 63 63
63 63 63
63 63 63
63 63 63
63 63 63
63 63 63
63 63 63
63 63 63
63 63 63
63 63 63
63 63 63
63 63 63
63 63 63
63 63 63
63 63 63
63 63 63
63 63 63
63 63 63
63 63 63
63 63 63
63 63 63
63 63 63
63 63 63
63 63 63
63 63 63
63 63 63
63 63 63
63 63 63
63 63 63
63 63 63
63 63 63
63 63 63
63 63 63
63 63 63
63 63 63
63 63 63
63 63 63
63 63 63
63 63 63
63 63 63
63 63 63
63 63 63
63 63 63
63 63 63
63 63 63
63 63 63
63 63 63
63 63 63
63 63 63
63 63 63
63 63 63
63 63 63
63 63 63
63 63 63
63 63 63
63 63 63
63 63 63
63 63 63
63 63 63
63 63 63
63 63 63
63 63 63
63 63 63
63 63 63
63 63 63
63 63 63
63 63 63
63 63 63
63 63 63
63 63 63
63 63 63
63 63 63
63 63 63
63 63 63
63 63 63
63 63 63
63 63 63
63 63 63
63 63 63
63 63 63
63 63 63
63 63 63
63 63 63
63 63 63
63 63 63
63 63 63
63 63 63
63 63 63
63 63 63
63 63 63
63 63 63
63 63 63
63 63 63
63 63 63
63 63 63
63 63 63
63 63 63
63 63 63
63 63 63
63 63 63
63 63 63
63 63 63
63 63 63
63 63 63
63 63 63
63 63 63
63 63 63
63 63 63
63 63 63
63 63 63
63 63 63
63 63 63
63 63 63
63 63 63
63 63 63
63 63 63
63 63 63
63 63 63
63 63 63
63 63 63
63 63 63
63 63 63
63 63 63
63 63 63
63 63 63
63 63 63
63 63 63
63 63 63
63 63 63
63 63 63
63 63 63
63 63 63
63 63 63
63 63 63
63 63 63
63 63 63
63 63 63
63 63 63
63 63 63
63 63 63
63 63 63
63 63 63
63 63 63
63 63 63
63 63 63
63 63 63
63 63 63
63 63 63
63 63 63
63 63 63
63 63 63
63 63 63
63 63 63
63 63 63
63 63 63
63 63 63
63 63 63
63 63 63
63 63 63
63 63 63
63 63 63
63 63 63
63 63 63
63 63 63
63 63 63
63 63 63
63 63 63
63 63 63
63 63 63
63 63 63
63 63 63
63 63 63
63 63 63
63 63 63
63 63 63
63 63 63
63 63 63
63 63 63
63 63 63
63 63 63
63 63 63
63 63 63
63 63 63
63 63 63
63 63 63
63 63 63
63 63 63
63 63 63
63 63 63
63 63 63
63 63 63
63 63 63
63 63 63
63 63 63
63 63 63
63 63 63
63 63 63
63 63 63
63 63 63
63 63 63
63 63 63
63 63 63
63 63 63
63 63 63
63 63 63
63 63 63
63 63 63
63 63 63
63 63 63
63 63 63
63 63 63
63 63 63
63 63 63
63 63 63
63 63 63
63 63 63
63 63 63
63 63 63
63 63 63
63 63 63
63 63 63
63 63 63
63 63 63
63 63 63
63 63 63
63 63 63
63 63 63
63 63 63
63 63 63
63 63 63
63 63 63
63 63 63
63 63 63
63 63 63
63 63 63
63 63 63
63 63 63
63 63 63
63 63 63
63 63 63
63 63 63
63 63 63
63 63 63
63 63 63
63 63 63
63 63 63
63 63 63
63 63 63
63 63 63
63 63 63
63 63 63
63 63 63
63 63 63
63 63 63
63 63 63
63 63 63
63 63 63
63 63 63
63 63 63
63 63 63
63 63 63
63 63 63
63 63 63
63 63 63
63 63 63
63 63 63
63 63 63
63 63 63
63 63 63
63 63 63
63 63 63
63 63 63
63 63 63
63 63 63
63 63 63
63 63 63
63 63 63
63 63 63
63 63 63
63 63 63
63 63 63
63 63 63
63 63 63
63 63 63
63 63 63
63 63 63
63 63 63
63 63 63
63 63 63
63 63 63
63 63 63
63 63 63
63 63 63
63 63 63
63 63 63
63 63 63
63 63 63
63 63 63
63 63 63
63 63 63
63 63 63
63 63 63
63 63 63
63 63 63
63 63 63
63 63 63
63 63 63
63 63 63
63 63 63
63 63 63
63 63 63
63 63 63
63 63 63
63 63 63
63 63 63
63 63 63
63 63 63
63 63 63
63 63 63
63 63 63
63 63 63
63 63 63
63 63 63
63 63 63
63 63 63
63 63 63
63 63 63
63 63 63
63 63 63
63 63 63
63 63 63
63 63 63
63 63 63
63 63 63
63 63 63
63 63 63
63 63 63
63 63 63
63 63 63
63 63 63
63 63 63
63 63 63
63 63 63
63 63 63
63 63 63
63 63 63
63 63 63
63 63 63
63 63 63
63 63 63
63 63 63
63 63 63
63 63 63
63 63 63
63 63 63
63 63 63
63 63 63
63 63 63
63 63 63
63 63 63
63 63 63
63 63 63
63 63 63
63 63 63
63 63 63
63 63 63
63 63 63
63 63 63
63 63 63
63 63 63
63 63 63
63 63 63
63 63 63
63 63 63
63 63 63
63 63 63
63 63 63
63 63 63
63 63 63
63 63 63
63 63 63
63 63 63
63 63 63
63 63 63
63 63 63
63 63 63
63 63 63
63 63 63
63 63 63
63 63 63
63 63 63
63 63 63
63 63 63
63 63 63
63 63 63
63 63 63
63 63 63
63 63 63
63 63 63
63 63 63
63 63 63
63 63 63
63 63 63
63 63 63
63 63 63
63 63 63
63 63 63
63 63 63
63 63 63
63 63 63
63 63 63
63 63 63
63 63 63
63 63 63
63 63 63
63 63 63
63 63 63
63 63 63
63 63 63
63 63 63
63 63 63
63 63 63
63 63 63
63 63 63
63 63 63
63 63 63
63 63 63
63 63 63
63 63 63
63 63 63
63 63 63
63 63 63
63 63 63
63 63 63
63 63 63
63 63 63
63 63 63
63 63 63
63 63 63
63 63 63
63 63 63
63 63 63
63 63 63
63 63 63
63 63 63
63 63 63
63 63 63
63 63 63
63 63 63
63 63 63
63 63 63
63 63 63
63 63 63
63 63 63
63 63 63
63 63 63
63 63 63
63 63 63
63 63 63
63 63 63
63 63 63
63 63 63
63 63 63
63 63 63
63 63 63
63 63 63
63 63 63
63 63 63
63 63 63
63 63 63
63 63 63
63 63 63
63 63 63
63 63 63
63 63 63
63 63 63
63 63 63
63 63 63
63 63 63
63 63 63
63 63 63
63 63 63
63 63 63
63 63 63
63 63 63
63 63 63
63 63 63
63 63 63
63 63 63
63 63 63
63 63 63
63 63 63
63 63 63
63 63 63
63 63 63
63 63 63
63 63 63
63 63 63
63 63 63
63 63 63
63 63 63
63 63 63
63 63 63
63 63 63
63 63 63
63 63 63
63 63 63
63 63 63
63 63 63
63 63 63
63 63 63
63 63 63
63 63 63
63 63 63
63 63 63
63 63 63
63 63 63
63 63 63
63 63 63
63 63 63
63 63 63
63 63 63
63 63 63
63 63 63
63 63 63
63 63 63
63 63 63
63 63 63
63 63 63
63 63 63
63 63 63
63 63 63
63 63 63
63 63 63
63 63 63
63 63 63
63 63 63
63 63 63
63 63 63
63 63 63
63 63 63
63 63 63
63 63 63
63 63 63
63 63 63
63 63 63
63 63 63
63 63 63
63 63 63
63 63 63
63 63 63
63 63 63
63 63 63
63 63 63
63 63 63
63 63 63
63 63 63
63 63 63
63 63 63
63 63 63
63 63 63
63 63 63
63 63 63
63 63 63
63 63 63
63 63 63
63 63 63
63 63 63
63 63 63
63 63 63
63 63 63
63 63 63
63 63 63
63 63 63
63 63 63
63 63 63
63 63 63
63 63 63
63 63 63
63 63 63
63 63 63
63 63 63
63 63 63
63 63 63
63 63 63
63 63 63
63 63 63
63 63 63
63 63 63
63 63 63
63 63 63
63 63 63
63 63 63
63 63 63
63 63 63
63 63 63
63 63 63
63 63 63
63 63 63
63 63 63
63 63 63
63 63 63
63 63 63
63 63 63
63 63 63
63 63 63
63 63 63
63 63 63
63 63 63
63 63 63
63 63 63
63 63 63
63 63 63
63 63 63
63 63 63
63 63 63
63 63 63
63 63 63
63 63 63
63 63 63
63 63 63
63 63 63
63 63 63
63 63 63
63 63 63
63 63 63
63 63 63
63 63 63
63 63 63
63 63 63
63 63 63
63 63 63
63 63 63
63 63 63
63 63 63
63 63 63
63 63 63
63 63 63
63 63 63
63 63 63
63 63 63
63 63 63
63 63 63
63 63 63
63 63 63
63 63 63
63 63 63
63 63 63
63 63 63
63 63 63
63 63 63
63 63 63
63 63 63
63 63 63
63 63 63
63 63 63
63 63 63
63 63 63
63 63 63
63 63 63
63 63 63
63 63 63
63 63 63
63 63 63
63 63 63
63 63 63
63 63 63
63 63 63
63 63 63
63 63 63
63 63 63
63 63 63
63 63 63
63 63 63
63 63 63
63 63 63
63 63 63
63 63 63
63 63 63
63 63 63
63 63 63
63 63 63
63 63 63
63 63 63
63 63 63
63 63 63
63 63 63
63 63 63
63 63 63
63 63 63
63 63 63
63 63 63
63 63 63
63 63 63
63 63 63
63 63 63
63 63 63
63 63 63
63 63 63
63 63 63
63 63 63
63 63 63
63 63 63
63 63 63
63 63 63
63 63 63
63 63 63
63 63 63
63 63 63
63 63 63
63 63 63
63 63 63
63 63 63
63 63 63
63 63 63
63 63 63
63 63 63
63 63 63
63 63 63
63 63 63
63 63 63
63 63 63
63 63 63
63 63 63
63 63 63
63 63 63
63 63 63
63 63 63
63 63 63
63 63 63
63 63 63
63 63 63
63 63 63
63 63 63
63 63 63
63 63 63
63 63 63
63 63 63
63 63 63
63 63 63
63 63 63
63 63 63
63 63 63
63 63 63
63 63 63
63 63 63
63 63 63
63 63 63
63 63 63
63 63 63
63 63 63
63 63 63
63 63 63
63 63 63
63 63 63
63 63 63
63 63 63
63 63 63
63 63 63
63 63 63
63 63 63
63 63 63
63 63 63
63 63 63
63 63 63
63 63 63
63 63 63
63 63 63
63 63 63
63 63 63
63 63 63
63 63 63
63 63 63
63 63 63
63 63 63
63 63 63
63 63 63
63 63 63
63 63 63
63 63 63
63 63 63
63 63 63
63 63 63
63 63 63
63 63 63
63 63 63
63 63 63
63 63 63
63 63 63
63 63 63
63 63 63
63 63 63
63 63 63
63 63 63
63 63 63
63 63 63
63 63 63
63 63 63
63 63 63
63 63 63
63 63 63
63 63 63
63 63 63
63 63 63
63 63 63
63 63 63
63 63 63
63 63 63
63 63 63
63 63 63
63 63 63
63 63 63
63 63 63
63 63 63
63 63 63
63 63 63
63 63 63
63 63 63
63 63 63
63 63 63
63 63 63
63 63 63
63 63 63
63 63 63
63 63 63
63 63 63
63 63 63
63 63 63
63 63 63
63 63 63
63 63 63
63 63 63
63 63 63
63 63 63
63 63 63
63 63 63
63 63 63
63 63 63
63 63 63
63 63 63
63 63 63
63 63 63
63 63 63
63 63 63
63 63 63
63 63 63
63 63 63
63 63 63
63 63 63
63 63 63
63 63 63
63 63 63
63 63 63
63 63 63
63 63 63
63 63 63
63 63 63
63 63 63
63 63 63
63 63 63
63 63 63
63 63 63
63 63 63
63 63 63
63 63 63
63 63 63
63 63 63
63 63 63
63 63 63
63 63 63
63 63 63
63 63 63
63 63 63
63 63 63
63 63 63
63 63 63
63 63 63
63 63 63
63 63 63
63 63 63
63 63 63
63 63 63
63 63 63
63 63 63
63 63 63
63 63 63
63 63 63
63 63 63
63 63 63
63 63 63
63 63 63
63 63 63
63 63 63
63 63 63
63 63 63
63 63 63
63 63 63
63 63 63
63 63 63
63 63 63
63 63 63
63 63 63
63 63 63
63 63 63
63 63 63
63 63 63
63 63 63
63 63 63
63 63 63
63 63 63
63 63 63
63 63 63
63 63 63
63 63 63
63 63 63
63 63 63
63 63 63
63 63 63
63 63 63
63 63 63
63 63 63
63 63 63
63 63 63
63 63 63
63 63 63
63 63 63
63 63 63
63 63 63
63 63 63
63 63 63
63 63 63
63 63 63
63 63 63
63 63 63
63 63 63
63 63 63
63 63 63
63 63 63
63 63 63
63 63 63
63 63 63
63 63 63
63 63 63
63 63 63
63 63 63
63 63 63
63 63 63
63 63 63
63 63 63
63 63 63
63 63 63
63 63 63
63 63 63
63 63 63
63 63 63
63 63 63
63 63 63
63 63 63
63 63 63
63 63 63
63 63 63
63 63 63
63 63 63
63 63 63
63 63 63
63 63 63
63 63 63
63 63 63
63 63 63
63 63 63
63 63 63
63 63 63
63 63 63
63 63 63
63 63 63
63 63 63
63 63 63
63 63 63
63 63 63
63 63 63
63 63 63
63 63 63
63 63 63
63 63 63
63 63 63
63 63 63
63 63 63
63 63 63
63 63 63
63 63 63
63 63 63
63 63 63
63 63 63
63 63 63
63 63 63
63 63 63
63 63 63
63 63 63
63 63 63
63 63 63
63 63 63
63 63 63
63 63 63
63 63 63
63 63 63
63 63 63
63 63 63
63 63 63
63 63 63
63 63 63
63 63 63
63 63 63
63 63 63
63 63 63
63 63 63
63 63 63
63 63 63
63 63 63
63 63 63
63 63 63
63 63 63
63 63 63
63 63 63
63 63 63
63 63 63
63 63 63
63 63 63
63 63 63
63 63 63
63 63 63
63 63 63
63 63 63
63 63 63
63 63 63
63 63 63
63 63 63
63 63 63
63 63 63
63 63 63
63 63 63
63 63 63
63 63 63
63 63 63
63 63 63
63 63 63
63 63 63
63 63 63
63 63 63
63 63 63
63 63 63
63 63 63
63 63 63
63 63 63
63 63 63
63 63 63
63 63 63
63 63 63
63 63 63
63 63 63
63 63 63
63 63 63
63 63 63
63 63 63
63 63 63
63 63 63
63 63 63
63 63 63
63 63 63
63 63 63
63 63 63
63 63 63
63 63 63
63 63 63
63 63 63
63 63 63
63 63 63
63 63 63
63 63 63
63 63 63
63 63 63
63 63 63
63 63 63
63 63 63
63 63 63
63 63 63
63 63 63
63 63 63
63 63 63
63 63 63
63 63 63
63 63 63
63 63 63
63 63 63
63 63 63
63 63 63
63 63 63
63 63 63
63 63 63
63 63 63
63 63 63
63 63 63
63 63 63
63 63 63
63 63 63
63 63 63
63 63 63
63 63 63
63 63 63
63 63 63
63 63 63
63 63 63
63 63 63
63 63 63
63 63 63
63 63 63
63 63 63
63 63 63
63 63 63
63 63 63
63 63 63
63 63 63
63 63 63
63 63 63
63 63 63
63 63 63
63 63 63
63 63 63
63 63 63
63 63 63
63 63 63
63 63 63
63 63 63
63 63 63
63 63 63
63 63 63
63 63 63
63 63 63
63 63 63
63 63 63
63 63 63
63 63 63
63 63 63
63 63 63
63 63 63
63 63 63
63 63 63
63 63 63
63 63 63
63 63 63
63 63 63
63 63 63
63 63 63
63 63 63
63 63 63
63 63 63
63 63 63
63 63 63
63 63 63
63 63 63
63 63 63
63 63 63
63 63 63
63 63 63
63 63 63
63 63 63
63 63 63
63 63 63
63 63 63
63 63 63
63 63 63
63 63 63
63 63 63
63 63 63
63 63 63
63 63 63
63 63 63
63 63 63
63 63 63
63 63 63
63 63 63
63 63 63
63 63 63
63 63 63
63 63 63
63 63 63
63 63 63
63 63 63
63 63 63
63 63 63
63 63 63
63 63 63
63 63 63
63 63 63
63 63 63
63 63 63
63 63 63
63 63 63
63 63 63
63 63 63
63 63 63
63 63 63
63 63 63
63 63 63
63 63 63
63 63 63
63 63 63
63 63 63
63 63 63
63 63 63
63 63 63
63 63 63
63 63 63
63 63 63
63 63 63
63 63 63
63 63 63
63 63 63
63 63 63
63 63 63
63 63 63
63 63 63
63 63 63
63 63 63
63 63 63
63 63 63
63 63 63
63 63 63
63 63 63
63 63 63
63 63 63
63 63 63
63 63 63
63 63 63
63 63 63
63 63 63
63 63 63
63 63 63
63 63 63
63 63 63
63 63 63
63 63 63
63 63 63
63 63 63
63 63 63
63 63 63
63 63 63
63 63 63
63 63 63
63 63 63
63 63 63
63 63 63
63 63 63
63 63 63
63 63 63
63 63 63
63 63 63
63 63 63
63 63 63
63 63 63
63 63 63
63 63 63
63 63 63
63 63 63
63 63 63
63 63 63
63 63 63
63 63 63
63 63 63
63 63 63
63 63 63
63 63 63
63 63 63
63 63 63
63 63 63
63 63 63
63 63 63
63 63 63
63 63 63
63 63 63
63 63 63
63 63 63
63 63 63
63 63 63
63 63 63
63 63 63
63 63 63
63 63 63
63 63 63
63 63 63
63 63 63
63 63 63
63 63 63
63 63 63
63 63 63
63 63 63
63 63 63
63 63 63
63 63 63
63 63 63
63 63 63
63 63 63
63 63 63
63 63 63
63 63 63
63 63 63
63 63 63
63 63 63
63 63 63
63 63 63
63 63 63
63 63 63
63 63 63
63 63 63
63 63 63
63 63 63
63 63 63
63 63 63
63 63 63
63 63 63
63 63 63
63 63 63
63 63 63
63 63 63
63 63 63
63 63 63
63 63 63
63 63 63
63 63 63
63 63 63
63 63 63
63 63 63
63 63 63
63 63 63
63 63 63
63 63 63
63 63 63
63 63 63
63 63 63
63 63 63
63 63 63
63 63 63
63 63 63
63 63 63
63 63 63
63 63 63
63 63 63
63 63 63
63 63 63
63 63 63
63 63 63
63 63 63
63 63 63
63 63 63
63 63 63
63 63 63
63 63 63
63 63 63
63 63 63
63 63 63
63 63 63
63 63 63
63 63 63
63 63 63
63 63 63
63 63 63
63 63 63
63 63 63
63 63 63
63 63 63
63 63 63
63 63 63
63 63 63
63 63 63
63 63 63
63 63 63
63 63 63
63 63 63
63 63 63
63 63 63
63 63 63
63 63 63
63 63 63
63 63 63
63 63 63
63 63 63
63 63 63
63 63 63
63 63 63
63 63 63
63 63 63
63 63 63
63 63 63
63 63 63
63 63 63
63 63 63
63 63 63
63 63 63
63 63 63
63 63 63
63 63 63
63 63 63
63 63 63
63 63 63
63 63 63
63 63 63
63 63 63
63 63 63
63 63 63
63 63 63
63 63 63
63 63 63
63 63 63
63 63 63
63 63 63
63 63 63
63 63 63
63 63 63
63 63 63
63 63 63
63 63 63
63 63 63
63 63 63
63 63 63
63 63 63
63 63 63
63 63 63
63 63 63
63 63 63
63 63 63
63 63 63
63 63 63
63 63 63
63 63 63
63 63 63
63 63 63
63 63 63
63 63 63
63 63 63
63 63 63
63 63 63
63 63 63
63 63 63
63 63 63
63 63 63
63 63 63
63 63 63
63 63 63
63 63 63
63 63 63
63 63 63
63 63 63
63 63 63
63 63 63
63 63 63
63 63 63
63 63 63
63 63 63
63 63 63
63 63 63
63 63 63
63 63 63
63 63 63
63 63 63
63 63 63
63 63 63
63 63 63
63 63 63
63 63 63
63 63 63
63 63 63
63 63 63
63 63 63
63 63 63
63 63 63
63 63 63
63 63 63
63 63 63
63 63 63
63 63 63
63 63 63
63 63 63
63 63 63
63 63 63
63 63 63
63 63 63
63 63 63
63 63 63
63 63 63
63 63 63
63 63 63
63 63 63
63 63 63
63 63 63
63 63 63
63 63 63
63 63 63
63 63 63
63 63 63
63 63 63
63 63 63
63 63 63
63 63 63
63 63 63
63 63 63
63 63 63
63 63 63
63 63 63
63 63 63
63 63 63
63 63 63
63 63 63
63 63 63
63 63 63
63 63 63
63 63 63
63 63 63
63 63 63
63 63 63
63 63 63
63 63 63
63 63 63
63 63 63
63 63 63
63 63 63
63 63 63
63 63 63
63 63 63
63 63 63
63 63 63
63 63 63
63 63 63
63 63 63
63 63 63
63 63 63
63 63 63
63 63 63
63 63 63
63 63 63
63 63 63
63 63 63
63 63 63
63 63 63
63 63 63
63 63 63
63 63 63
63 63 63
63 63 63
63 63 63
63 63 63
63 63 63
63 63 63
63 63 63
63 63 63
63 63 63
63 63 63
63 63 63
63 63 63
63 63 63
63 63 63
63 63 63
63 63 63
63 63 63
63 63 63
63 63 63
63 63 63
63 63 63
63 63 63
63 63 63
63 63 63
63 63 63
63 63 63
63 63 63
63 63 63
63 63 63
63 63 63
63 63 63
63 63 63
63 63 63
63 63 63
63 63 63
63 63 63
63 63 63
63 63 63
63 63 63
63 63 63
63 63 63
63 63 63
63 63 63
63 63 63
63 63 63
63 63 63
63 63 63
63 63 63
63 63 63
63 63 63
63 63 63
63 63 63
63 63 63
63 63 63
63 63 63
63 63 63
63 63 63
63 63 63
63 63 63
63 63 63
63 63 63
63 63 63
63 63 63
63 63 63
63 63 63
63 63 63
63 63 63
63 63 63
63 63 63
63 63 63
63 63 63
63 63 63
63 63 63
63 63 63
63 63 63
63 63 63
63 63 63
63 63 63
63 63 63
63 63 63
63 63 63
63 63 63
63 63 63
63 63 63
63 63 63
63 63 63
63 63 63
63 63 63
63 63 63
63 63 63
63 63 63
63 63 63
63 63 63
63 63 63
63 63 63
63 63 63
63 63 63
63 63 63
63 63 63
63 63 63
63 63 63
63 63 63
63 63 63
63 63 63
63 63 63
63 63 63
63 63 63
63 63 63
63 63 63
63 63 63
63 63 63
63 63 63
63 63 63
63 63 63
63 63 63
63 63 63
63 63 63
63 63 63
63 63 63
63 63 63
63 63 63
63 63 63
63 63 63
63 63 63
63 63 63
63 63 63
63 63 63
63 63 63
63 63 63
63 63 63
63 63 63
63 63 63
63 63 63
63 63 63
63 63 63
63 63 63
63 63 63
63 63 63
63 63 63
63 63 63
63 63 63
63 63 63
63 63 63
63 63 63
63 63 63
63 63 63
63 63 63
63 63 63
63 63 63
63 63 63
63 63 63
63 63 63
63 63 63
63 63 63
63 63 63
63 63 63
63 63 63
63 63 63
63 63 63
63 63 63
63 63 63
63 63 63
63 63 63
63 63 63
63 63 63
63 63 63
63 63 63
63 63 63
63 63 63
63 63 63
63 63 63
63 63 63
63 63 63
63 63 63
63 63 63
63 63 63
63 63 63
63 63 63
63 63 63
63 63 63
63 63 63
63 63 63
63 63 63
63 63 63
63 63 63
63 63 63
63 63 63
63 63 63
63 63 63
63 63 63
63 63 63
63 63 63
63 63 63
63 63 63
63 63 63
63 63 63
63 63 63
63 63 63
63 63 63
63 63 63
63 63 63
63 63 63
63 63 63
63 63 63
63 63 63
63 63 63
63 63 63
63 63 63
63 63 63
63 63 63
63 63 63
63 63 63
63 63 63
63 63 63
63 63 63
63 63 63
63 63 63
63 63 63
63 63 63
63 63 63
63 63 63
63 63 63
63 63 63
63 63 63
63 63 63
63 63 63
63 63 63
63 63 63
63 63 63
63 63 63
63 63 63
63 63 63
63 63 63
63 63 63
63 63 63
63 63 63
63 63 63
63 63 63
63 63 63
63 63 63
63 63 63
63 63 63
63 63 63
63 63 63
63 63 63
63 63 63
63 63 63
63 63 63
63 63 63
63 63 63
63 63 63
63 63 63
63 63 63
63 63 63
63 63 63
63 63 63
63 63 63
63 63 63
63 63 63
63 63 63
63 63 63
63 63 63
63 63 63
63 63 63
63 63 63
63 63 63
63 63 63
63 63 63
63 63 63
63 63 63
63 63 63
63 63 63
63 63 63
63 63 63
63 63 63
63 63 63
63 63 63
63 63 63
63 63 63
63 63 63
63 63 63
63 63 63
63 63 63
63 63 63
63 63 63
63 63 63
63 63 63
63 63 63
63 63 63
63 63 63
63 63 63
63 63 63
63 63 63
63 63 63
63 63 63
63 63 63
63 63 63
63 63 63
63 63 63
63 63 63
63 63 63
63 63 63
63 63 63
63 63 63
63 63 63
63 63 63
63 63 63
63 63 63
63 63 63
63 63 63
63 63 63
63 63 63
63 63 63
63 63 63
63 63 63
63 63 63
63 63 63
63 63 63
63 63 63
63 63 63
63 63 63
63 63 63
63 63 63
63 63 63
63 63 63
63 63 63
63 63 63
63 63 63
63 63 63
63 63 63
63 63 63
63 63 63
63 63 63
63 63 63
63 63 63
63 63 63
63 63 63
63 63 63
63 63 63
63 63 63
63 63 63
63 63 63
63 63 63
63 63 63
63 63 63
63 63 63
63 63 63
63 63 63
63 63 63
63 63 63
63 63 63
63 63 63
63 63 63
63 63 63
63 63 63
63 63 63
63 63 63
63 63 63
63 63 63
63 63 63
63 63 63
63 63 63
63 63 63
63 63 63
63 63 63
63 63 63
63 63 63
63 63 63
63 63 63
63 63 63
63 63 63
63 63 63
63 63 63
63 63 63
63 63 63
63 63 63
63 63 63
63 63 63
63 63 63
63 63 63
63 63 63
63 63 63
63 63 63
63 63 63
63 63 63
63 63 63
63 63 63
63 63 63
63 63 63
63 63 63
63 63 63
63 63 63
63 63 63
63 63 63
63 63 63
63 63 63
63 63 63
63 63 63
63 63 63
63 63 63
63 63 63
63 63 63
63 63 63
63 63 63
63 63 63
63 63 63
63 63 63
63 63 63
63 63 63
63 63 63
63 63 63
63 63 63
63 63 63
63 63 63
63 63 63
63 63 63
63 63 63
63 63 63
63 63 63
63 63 63
63 63 63
63 63 63
63 63 63
63 63 63
63 63 63
63 63 63
63 63 63
63 63 63
63 63 63
63 63 63
63 63 63
63 63 63
63 63 63
63 63 63
63 63 63
63 63 63
63 63 63
63 63 63
63 63 63
63 63 63
63 63 63
63 63 63
63 63 63
63 63 63
63 63 63
63 63 63
63 63 63
63 63 63
63 63 63
63 63 63
63 63 63
63 63 63
63 63 63
63 63 63
63 63 63
63 63 63
63 63 63
63 63 63
63 63 63
63 63 63
63 63 63
63 63 63
63 63 63
63 63 63
63 63 63
63 63 63
63 63 63
63 63 63
63 63 63
63 63 63
63 63 63
63 63 63
63 63 63
63 63 63
63 63 63
63 63 63
63 63 63
63 63 63
63 63 63
63 63 63
63 63 63
63 63 63
63 63 63
63 63 63
63 63 63
63 63 63
63 63 63
63 63 63
63 63 63
63 63 63
63 63 63
63 63 63
63 63 63
63 63 63
63 63 63
63 63 63
63 63 63
63 63 63
63 63 63
63 63 63
63 63 63
63 63 63
63 63 63
63 63 63
63 63 63
63 63 63
63 63 63
63 63 63
63 63 63
63 63 63
63 63 63
63 63 63
63 63 63
63 63 63
63 63 63
63 63 63
63 63 63
63 63 63
63 63 63
63 63 63
63 63 63
63 63 63
63 63 63
63 63 63
63 63 63
63 63 63
63 63 63
63 63 63
63 63 63
63 63 63
63 63 63
63 63 63
63 63 63
63 63 63
63 63 63
63 63 63
63 63 63
63 63 63
63 63 63
63 63 63
63 63 63
63 63 63
63 63 63
63 63 63
63 63 63
63 63 63
63 63 63
63 63 63
63 63 63
63 63 63
63 63 63
63 63 63
63 63 63
63 63 63
63 63 63
63 63 63
63 63 63
63 63 63
63 63 63
63 63 63
63 63 63
63 63 63
63 63 63
63 63 63
63 63 63
63 63 63
63 63 63
63 63 63
63 63 63
63 63 63
63 63 63
63 63 63
63 63 63
63 63 63
63 63 63
63 63 63
63 63 63
63 63 63
63 63 63
63 63 63
63 63 63
63 63 63
63 63 63
63 63 63
63 63 63
63 63 63
63 63 63
63 63 63
63 63 63
63 63 63
63 63 63
63 63 63
63 63 63
63 63 63
63 63 63
63 63 63
63 63 63
63 63 63
63 63 63
63 63 63
63 63 63
63 63 63
63 63 63
63 63 63
63 63 63
63 63 63
63 63 63
63 63 63
63 63 63
63 63 63
63 63 63
63 63 63
63 63 63
63 63 63
63 63 63
63 63 63
63 63 63
63 63 63
63 63 63
63 63 63
63 63 63
63 63 63
63 63 63
63 63 63
63 63 63
63 63 63
63 63 63
63 63 63
63 63 63
63 63 63
63 63 63
63 63 63
63 63 63
63 63 63
63 63 63
63 63 63
63 63 63
63 63 63
63 63 63
63 63 63
63 63 63
63 63 63
63 63 63
63 63 63
63 63 63
63 63 63
63 63 63
63 63 63
63 63 63
63 63 63
63 63 63
63 63 63
63 63 63
63 63 63
63 63 63
63 63 63
63 63 63
63 63 63
63 63 63
63 63 63
63 63 63
63 63 63
63 63 63
63 63 63
63 63 63
63 63 63
63 63 63
63 63 63
63 63 63
63 63 63
63 63 63
63 63 63
63 63 63
63 63 63
63 63 63
63 63 63
63 63 63
63 63 63
63 63 63
63 63 63
63 63 63
63 63 63
63 63 63
63 63 63
63 63 63
63 63 63
63 63 63
63 63 63
63 63 63
63 63 63
63 63 63
63 63 63
63 63 63
63 63 63
63 63 63
63 63 63
63 63 63
63 63 63
63 63 63
63 63 63
63 63 63
63 63 63
63 63 63
63 63 63
63 63 63
63 63 63
63 63 63
63 63 63
63 63 63
63 63 63
63 63 63
63 63 63
63 63 63
63 63 63
63 63 63
63 63 63
63 63 63
63 63 63
63 63 63
63 63 63
63 63 63
63 63 63
63 63 63
63 63 63
63 63 63
63 63 63
63 63 63
63 63 63
63 63 63
63 63 63
63 63 63
63 63 63
63 63 63
63 63 63
63 63 63
63 63 63
63 63 63
63 63 63
63 63 63
63 63 63
63 63 63
63 63 63
63 63 63
63 63 63
63 63 63
63 63 63
63 63 63
63 63 63
63 63 63
63 63 63
63 63 63
63 63 63
63 63 63
63 63 63
63 63 63
63 63 63
63 63 63
63 63 63
63 63 63
63 63 63
63 63 63
63 63 63
63 63 63
63 63 63
63 63 63
63 63 63
63 63 63
63 63 63
63 63 63
63 63 63
63 63 63
63 63 63
63 63 63
63 63 63
63 63 63
63 63 63
63 63 63
63 63 63
63 63 63
63 63 63
63 63 63
63 63 63
63 63 63
63 63 63
63 63 63
63 63 63
63 63 63
63 63 63
63 63 63
63 63 63
63 63 63
63 63 63
63 63 63
63 63 63
63 63 63
63 63 63
63 63 63
63 63 63
63 63 63
63 63 63
63 63 63
63 63 63
63 63 63
63 63 63
63 63 63
63 63 63
63 63 63
63 63 63
63 63 63
63 63 63
63 63 63
63 63 63
63 63 63
63 63 63
63 63 63
63 63 63
63 63 63
63 63 63
63 63 63
63 63 63
63 63 63
63 63 63
63 63 63
63 63 63
63 63 63
63 63 63
63 63 63
63 63 63
63 63 63
63 63 63
63 63 63
63 63 63
63 63 63
63 63 63
63 63 63
63 63 63
63 63 63
63 63 63
63 63 63
63 63 63
63 63 63
63 63 63
63 63 63
63 63 63
63 63 63
63 63 63
63 63 63
63 63 63
63 63 63
63 63 63
63 63 63
63 63 63
63 63 63
63 63 63
63 63 63
63 63 63
63 63 63
63 63 63
63 63 63
63 63 63
63 63 63
63 63 63
63 63 63
63 63 63
63 63 63
63 63 63
63 63 63
63 63 63
63 63 63
63 63 63
63 63 63
63 63 63
63 63 63
63 63 63
63 63 63
63 63 63
63 63 63
63 63 63
63 63 63
63 63 63
63 63 63
63 63 63
63 63 63
63 63 63
63 63 63
63 63 63
63 63 63
63 63 63
63 63 63
63 63 63
63 63 63
63 63 63
63 63 63
63 63 63
63 63 63
63 63 63
63 63 63
63 63 63
63 63 63
63 63 63
63 63 63
63 63 63
63 63 63
63 63 63
63 63 63
63 63 63
63 63 63
63 63 63
63 63 63
63 63 63
63 63 63
63 63 63
63 63 63
63 63 63
63 63 63
63 63 63
63 63 63
63 63 63
63 63 63
63 63 63
63 63 63
63 63 63
63 63 63
63 63 63
63 63 63
63 63 63
63 63 63
63 63 63
63 63 63
63 63 63
63 63 63
63 63 63
63 63 63
63 63 63
63 63 63
63 63 63
63 63 63
63 63 63
63 63 63
63 63 63
63 63 63
63 63 63
63 63 63
63 63 63
63 63 63
63 63 63
63 63 63
63 63 63
63 63 63
63 63 63
63 63 63
63 63 63
63 63 63
63 63 63
63 63 63
63 63 63
63 63 63
63 63 63
63 63 63
63 63 63
63 63 63
63 63 63
63 63 63
63 63 63
63 63 63
63 63 63
63 63 63
63 63 63
63 63 63
63 63 63
63 63 63
63 63 63
63 63 63
63 63 63
63 63 63
63 63 63
63 63 63
63 63 63
63 63 63
63 63 63
63 63 63
63 63 63
63 63 63
63 63 63
63 63 63
63 63 63
63 63 63
63 63 63
63 63 63
63 63 63
63 63 63
63 63 63
63 63 63
63 63 63
63 63 63
63 63 63
63 63 63
63 63 63
63 63 63
63 63 63
63 63 63
63 63 63
63 63 63
63 63 63
63 63 63
63 63 63
63 63 63
63 63 63
63 63 63
63 63 63
63 63 63
63 63 63
63 63 63
63 63 63
63 63 63
63 63 63
63 63 63
63 63 63
63 63 63
63 63 63
63 63 63
63 63 63
63 63 63
63 63 63
63 63 63
63 63 63
63 63 63
63 63 63
63 63 63
63 63 63
63 63 63
63 63 63
63 63 63
63 63 63
63 63 63
63 63 63
63 63 63
63 63 63
63 63 63
63 63 63
63 63 63
63 63 63
63 63 63
63 63 63
63 63 63
63 63 63
63 63 63
63 63 63
63 63 63
63 63 63
63 63 63
63 63 63
63 63 63
63 63 63
63 63 63
63 63 63
63 63 63
63 63 63
63 63 63
63 63 63
63 63 63
63 63 63
63 63 63
63 63 63
63 63 63
63 63 63
63 63 63
63 63 63
63 63 63
63 63 63
63 63 63
63 63 63
63 63 63
63 63 63
63 63 63
63 63 63
63 63 63
63 63 63
63 63 63
63 63 63
63 63 63
63 63 63
63 63 63
63 63 63
63 63 63
63 63 63
63 63 63
63 63 63
63 63 63
63 63 63
63 63 63
63 63 63
63 63 63
63 63 63
63 63 63
63 63 63
63 63 63
63 63 63
63 63 63
63 63 63
63 63 63
63 63 63
63 63 63
63 63 63
63 63 63
63 63 63
63 63 63
63 63 63
63 63 63
63 63 63
63 63 63
63 63 63
63 63 63
63 63 63
63 63 63
63 63 63
63 63 63
63 63 63
63 63 63
63 63 63
63 63 63
63 63 63
63 63 63
63 63 63
63 63 63
63 63 63
63 63 63
63 63 63
63 63 63
63 63 63
63 63 63
63 63 63
63 63 63
63 63 63
63 63 63
63 63 63
63 63 63
63 63 63
63 63 63
63 63 63
63 63 63
63 63 63
63 63 63
63 63 63
63 63 63
63 63 63
63 63 63
63 63 63
63 63 63
63 63 63
63 63 63
63 63 63
63 63 63
63 63 63
63 63 63
63 63 63
63 63 63
63 63 63
63 63 63
63 63 63
63 63 63
63 63 63
63 63 63
63 63 63
63 63 63
63 63 63
63 63 63
63 63 63
63 63 63
63 63 63
63 63 63
63 63 63
63 63 63
63 63 63
63 63 63
63 63 63
63 63 63
63 63 63
63 63 63
63 63 63
63 63 63
63 63 63
63 63 63
63 63 63
63 63 63
63 63 63
63 63 63
63 63 63
63 63 63
63 63 63
63 63 63
63 63 63
63 63 63
63 63 63
63 63 63
63 63 63
63 63 63
63 63 63
63 63 63
63 63 63
63 63 63
63 63 63
63 63 63
63 63 63
63 63 63
63 63 63
63 63 63
63 63 63
63 63 63
63 63 63
63 63 63
63 63 63
63 63 63
63 63 63
63 63 63
63 63 63
63 63 63
63 63 63
63 63 63
63 63 63
63 63 63
63 63 63
63 63 63
63 63 63
63 63 63
63 63 63
63 63 63
63 63 63
63 63 63
63 63 63
63 63 63
63 63 63
63 63 63
63 63 63
63 63 63
63 63 63
63 63 63
63 63 63
63 63 63
63 63 63
63 63 63
63 63 63
63 63 63
63 63 63
63 63 63
63 63 63
63 63 63
63 63 63
63 63 63
63 63 63
63 63 63
63 63 63
63 63 63
63 63 63
63 63 63
63 63 63
63 63 63
63 63 63
63 63 63
63 63 63
63 63 63
63 63 63
63 63 63
63 63 63
63 63 63
63 63 63
63 63 63
63 63 63
63 63 63
63 63 63
63 63 63
63 63 63
63 63 63
63 63 63
63 63 63
63 63 63
63 63 63
63 63 63
63 63 63
63 63 63
63 63 63
63 63 63
63 63 63
63 63 63
63 63 63
63 63 63
63 63 63
63 63 63
63 63 63
63 63 63
63 63 63
63 63 63
63 63 63
63 63 63
63 63 63
63 63 63
63 63 63
63 63 63
63 63 63
63 63 63
63 63 63
63 63 63
63 63 63
63 63 63
63 63 63
63 63 63
63 63 63
63 63 63
63 63 63
63 63 63
63 63 63
63 63 63
63 63 63
63 63 63
63 63 63
63 63 63
63 63 63
63 63 63
63 63 63
63 63 63
63 63 63
63 63 63
63 63 63
63 63 63
63 63 63
63 63 63
63 63 63
63 63 63
63 63 63
63 63 63
63 63 63
63 63 63
63 63 63
63 63 63
63 63 63
63 63 63
63 63 63
63 63 63
63 63 63
63 63 63
63 63 63
63 63 63
63 63 63
63 63 63
63 63 63
63 63 63
63 63 63
63 63 63
63 63 63
63 63 63
63 63 63
63 63 63
63 63 63
63 63 63
63 63 63
63 63 63
63 63 63
63 63 63
63 63 63
63 63 63
63 63 63
63 63 63
63 63 63
63 63 63
63 63 63
63 63 63
63 63 63
63 63 63
63 63 63
63 63 63
63 63 63
63 63 63
63 63 63
63 63 63
63 63 63
63 63 63
63 63 63
63 63 63
63 63 63
63 63 63
63 63 63
63 63 63
63 63 63
63 63 63
63 63 63
63 63 63
63 63 63
63 63 63
63 63 63
63 63 63
63 63 63
63 63 63
63 63 63
63 63 63
63 63 63
63 63 63
63 63 63
63 63 63
63 63 63
63 63 63
63 63 63
63 63 63
63 63 63
63 63 63
63 63 63
63 63 63
63 63 63
63 63 63
63 63 63
63 63 63
63 63 63
63 63 63
63 63 63
63 63 63
63 63 63
63 63 63
63 63 63
63 63 63
63 63 63
63 63 63
63 63 63
63 63 63
63 63 63
63 63 63
63 63 63
63 63 63
63 63 63
63 63 63
63 63 63
63 63 63
63 63 63
63 63 63
63 63 63
63 63 63
63 63 63
63 63 63
63 63 63
63 63 63
63 63 63
63 63 63
63 63 63
63 63 63
63 63 63
63 63 63
63 63 63
63 63 63
63 63 63
63 63 63
63 63 63
63 63 63
63 63 63
63 63 63
63 63 63
63 63 63
63 63 63
63 63 63
63 63 63
63 63 63
63 63 63
63 63 63
63 63 63
63 63 63
63 63 63
63 63 63
63 63 63
63 63 63
63 63 63
63 63 63
63 63 63
63 63 63
63 63 63
63 63 63
63 63 63
63 63 63
63 63 63
63 63 63
63 63 63
63 63 63
63 63 63
63 63 63
63 63 63
63 63 63
63 63 63
63 63 63
63 63 63
63 63 63
63 63 63
63 63 63
63 63 63
63 63 63
63 63 63
63 63 63
63 63 63
63 63 63
63 63 63
63 63 63
63 63 63
63 63 63
63 63 63
63 63 63
63 63 63
63 63 63
63 63 63
63 63 63
63 63 63
63 63 63
63 63 63
63 63 63
63 63 63
63 63 63
63 63 63
63 63 63
63 63 63
63 63 63
63 63 63
63 63 63
63 63 63
63 63 63
63 63 63
63 63 63
63 63 63
63 63 63
63 63 63
63 63 63
63 63 63
63 63 63
63 63 63
63 63 63
63 63 63
63 63 63
63 63 63
63 63 63
63 63 63
63 63 63
63 63 63
63 63 63
63 63 63
63 63 63
63 63 63
63 63 63
63 63 63
63 63 63
63 63 63
63 63 63
63 63 63
63 63 63
63 63 63
63 63 63
63 63 63
63 63 63
63 63 63
63 63 63
63 63 63
63 63 63
63 63 63
63 63 63
63 63 63
63 63 63
63 63 63
63 63 63
63 63 63
63 63 63
63 63 63
63 63 63
63 63 63
63 63 63
63 63 63
63 63 63
63 63 63
63 63 63
63 63 63
63 63 63
63 63 63
63 63 63
63 63 63
63 63 63
63 63 63
63 63 63
63 63 63
63 63 63
63 63 63
63 63 63
63 63 63
63 63 63
63 63 63
63 63 63
63 63 63
63 63 63
63 63 63
63 63 63
63 63 63
63 63 63
63 63 63
63 63 63
63 63 63
63 63 63
63 63 63
63 63 63
63 63 63
63 63 63
63 63 63
63 63 63
63 63 63
63 63 63
63 63 63
63 63 63
63 63 63
63 63 63
63 63 63
63 63 63
63 63 63
63 63 63
63 63 63
63 63 63
63 63 63
63 63 63
63 63 63
63 63 63
63 63 63
63 63 63
63 63 63
63 63 63
63 63 63
63 63 63
63 63 63
63 63 63
63 63 63
63 63 63
63 63 63
63 63 63
63 63 63
63 63 63
63 63 63
63 63 63
63 63 63
63 63 63
63 63 63
63 63 63
63 63 63
63 63 63
63 63 63
63 63 63
63 63 63
63 63 63
63 63 63
63 63 63
63 63 63
63 63 63
63 63 63
63 63 63
63 63 63
63 63 63
63 63 63
63 63 63
63 63 63
63 63 63
63 63 63
63 63 63
63 63 63
63 63 63
63 63 63
63 63 63
63 63 63
63 63 63
63 63 63
63 63 63
63 63 63
63 63 63
63 63 63
63 63 63
63 63 63
63 63 63
63 63 63
63 63 63
63 63 63
63 63 63
63 63 63
63 63 63
63 63 63
63 63 63
63 63 63
63 63 63
63 63 63
63 63 63
63 63 63
63 63 63
63 63 63
63 63 63
63 63 63
63 63 63
63 63 63
63 63 63
63 63 63
63 63 63
63 63 63
63 63 63
63 63 63
63 63 63
63 63 63
63 63 63
63 63 63
63 63 63
63 63 63
63 63 63
63 63 63
63 63 63
63 63 63
63 63 63
63 63 63
63 63 63
63 63 63
63 63 63
63 63 63
63 63 63
63 63 63
63 63 63
63 63 63
63 63 63
63 63 63
63 63 63
63 63 63
63 63 63
63 63 63
63 63 63
63 63 63
63 63 63
63 63 63
63 63 63
63 63 63
63 63 63
63 63 63
63 63 63
63 63 63
63 63 63
63 63 63
63 63 63
63 63 63
63 63 63
63 63 63
63 63 63
63 63 63
63 63 63
63 63 63
63 63 63
63 63 63
63 63 63
63 63 63
63 63 63
63 63 63
63 63 63
63 63 63
63 63 63
63 63 63
63 63 63
63 63 63
63 63 63
63 63 63
63 63 63
63 63 63
63 63 63
63 63 63
63 63 63
63 63 63
63 63 63
63 63 63
63 63 63
63 63 63
63 63 63
63 63 63
63 63 63
63 63 63
63 63 63
63 63 63
63 63 63
63 63 63
63 63 63
63 63 63
63 63 63
63 63 63
63 63 63
63 63 63
63 63 63
63 63 63
63 63 63
63 63 63
63 63 63
63 63 63
63 63 63
63 63 63
63 63 63
63 63 63
63 63 63
63 63 63
63 63 63
63 63 63
63 63 63
63 63 63
63 63 63
63 63 63
63 63 63
63 63 63
63 63 63
63 63 63
63 63 63
63 63 63
63 63 63
63 63 63
63 63 63
63 63 63
63 63 63
63 63 63
63 63 63
63 63 63
63 63 63
63 63 63
63 63 63
63 63 63
63 63 63
63 63 63
63 63 63
63 63 63
63 63 63
63 63 63
63 63 63
63 63 63
63 63 63
63 63 63
63 63 63
63 63 63
63 63 63
63 63 63
63 63 63
63 63 63
63 63 63
63 63 63
63 63 63
63 63 63
63 63 63
63 63 63
63 63 63
63 63 63
63 63 63
63 63 63
63 63 63
63 63 63
63 63 63
63 63 63
63 63 63
63 63 63
63 63 63
63 63 63
63 63 63
63 63 63
63 63 63
63 63 63
63 63 63
63 63 63
63 63 63
63 63 63
63 63 63
63 63 63
63 63 63
63 63 63
63 63 63
63 63 63
63 63 63
63 63 63
63 63 63
63 63 63
63 63 63
63 63 63
63 63 63
63 63 63
63 63 63
63 63 63
63 63 63
63 63 63
63 63 63
63 63 63
63 63 63
63 63 63
63 63 63
63 63 63
63 63 63
63 63 63
63 63 63
63 63 63
63 63 63
63 63 63
63 63 63
63 63 63
63 63 63
63 63 63
63 63 63
63 63 63
63 63 63
63 63 63
63 63 63
63 63 63
63 63 63
63 63 63
63 63 63
63 63 63
63 63 63
63 63 63
63 63 63
63 63 63
63 63 63
63 63 63
63 63 63
63 63 63
63 63 63
63 63 63
63 63 63
63 63 63
63 63 63
63 63 63
63 63 63
63 63 63
63 63 63
63 63 63
63 63 63
63 63 63
63 63 63
63 63 63
63 63 63
63 63 63
63 63 63
63 63 63
63 63 63
63 63 63
63 63 63
63 63 63
63 63 63
63 63 63
63 63 63
63 63 63
63 63 63
63 63 63
63 63 63
63 63 63
63 63 63
63 63 63
63 63 63
63 63 63
63 63 63
63 63 63
63 63 63
63 63 63
63 63 63
63 63 63
63 63 63
63 63 63
63 63 63
63 63 63
63 63 63
63 63 63
63 63 63
63 63 63
63 63 63
63 63 63
63 63 63
63 63 63
63 63 63
63 63 63
63 63 63
63 63 63
63 63 63
63 63 63
63 63 63
63 63 63
63 63 63
63 63 63
63 63 63
63 63 63
63 63 63
63 63 63
63 63 63
63 63 63
63 63 63
63 63 63
63 63 63
63 63 63
63 63 63
63 63 63
63 63 63
63 63 63
63 63 63
63 63 63
63 63 63
63 63 63
63 63 63
63 63 63
63 63 63
63 63 63
63 63 63
63 63 63
63 63 63
63 63 63
63 63 63
63 63 63
63 63 63
63 63 63
63 63 63
63 63 63
63 63 63
63 63 63
63 63 63
63 63 63
63 63 63
63 63 63
63 63 63
63 63 63
63 63 63
63 63 63
63 63 63
63 63 63
63 63 63
63 63 63
63 63 63
63 63 63
63 63 63
63 63 63
63 63 63
63 63 63
63 63 63
63 63 63
63 63 63
63 63 63
63 63 63
63 63 63
63 63 63
63 63 63
63 63 63
63 63 63
63 63 63
63 63 63
63 63 63
63 63 63
63 63 63
63 63 63
63 63 63
63 63 63
63 63 63
63 63 63
63 63 63
63 63 63
63 63 63
63 63 63
63 63 63
63 63 63
63 63 63
63 63 63
63 63 63
63 63 63
63 63 63
63 63 63
63 63 63
63 63 63
63 63 63
63 63 63
63 63 63
63 63 63
63 63 63
63 63 63
63 63 63
63 63 63
63 63 63
63 63 63
63 63 63
63 63 63
63 63 63
63 63 63
63 63 63
63 63 63
63 63 63
63 63 63
63 63 63
63 63 63
63 63 63
63 63 63
63 63 63
63 63 63
63 63 63
63 63 63
63 63 63
63 63 63
63 63 63
63 63 63
63 63 63
63 63 63
63 63 63
63 63 63
63 63 63
63 63 63
63 63 63
63 63 63
63 63 63
63 63 63
63 63 63
63 63 63
63 63 63
63 63 63
63 63 63
63 63 63
63 63 63
63 63 63
63 63 63
63 63 63
63 63 63
63 63 63
63 63 63
63 63 63
63 63 63
63 63 63
63 63 63
63 63 63
63 63 63
63 63 63
63 63 63
63 63 63
63 63 63
63 63 63
63 63 63
63 63 63
63 63 63
63 63 63
63 63 63
63 63 63
63 63 63
63 63 63
63 63 63
63 63 63
63 63 63
63 63 63
63 63 63
63 63 63
63 63 63
63 63 63
63 63 63
63 63 63
63 63 63
63 63 63
63 63 63
63 63 63
63 63 63
63 63 63
63 63 63
63 63 63
63 63 63
63 63 63
63 63 63
63 63 63
63 63 63
63 63 63
63 63 63
63 63 63
63 63 63
63 63 63
63 63 63
63 63 63
63 63 63
63 63 63
63 63 63
63 63 63
63 63 63
63 63 63
63 63 63
63 63 63
63 63 63
63 63 63
63 63 63
63 63 63
63 63 63
63 63 63
63 63 63
63 63 63
63 63 63
63 63 63
63 63 63
63 63 63
63 63 63
63 63 63
63 63 63
63 63 63
63 63 63
63 63 63
63 63 63
63 63 63
63 63 63
63 63 63
63 63 63
63 63 63
63 63 63
63 63 63
63 63 63
63 63 63
63 63 63
63 63 63
63 63 63
63 63 63
63 63 63
63 63 63
63 63 63
63 63 63
63 63 63
63 63 63
63 63 63
63 63 63
63 63 63
63 63 63
63 63 63
63 63 63
63 63 63
63 63 63
63 63 63
63 63 63
63 63 63
63 63 63
63 63 63
63 63 63
63 63 63
63 63 63
63 63 63
63 63 63
63 63 63
63 63 63
63 63 63
63 63 63
63 63 63
63 63 63
63 63 63
63 63 63
63 63 63
63 63 63
63 63 63
63 63 63
63 63 63
63 63 63
63 63 63
63 63 63
63 63 63
63 63 63
63 63 63
63 63 63
63 63 63
63 63 63
63 63 63
63 63 63
63 63 63
63 63 63
63 63 63
63 63 63
63 63 63
63 63 63
63 63 63
63 63 63
63 63 63
63 63 63
63 63 63
63 63 63
63 63 63
63 63 63
63 63 63
63 63 63
63 63 63
63 63 63
63 63 63
63 63 63
63 63 63
63 63 63
63 63 63
63 63 63
63 63 63
63 63 63
63 63 63
63 63 63
63 63 63
63 63 63
63 63 63
63 63 63
63 63 63
63 63 63
63 63 63
63 63 63
63 63 63
63 63 63
63 63 63
63 63 63
63 63 63
63 63 63
63 63 63
63 63 63
63 63 63
63 63 63
63 63 63
63 63 63
63 63 63
63 63 63
63 63 63
63 63 63
63 63 63
63 63 63
63 63 63
63 63 63
63 63 63
63 63 63
63 63 63
63 63 63
63 63 63
63 63 63
63 63 63
63 63 63
63 63 63
63 63 63
63 63 63
63 63 63
63 63 63
63 63 63
63 63 63
63 63 63
63 63 63
63 63 63
63 63 63
63 63 63
63 63 63
63 63 63
63 63 63
63 63 63
63 63 63
63 63 63
63 63 63
63 63 63
63 63 63
63 63 63
63 63 63
63 63 63
63 63 63
63 63 63
63 63 63
63 63 63
63 63 63
63 63 63
63 63 63
63 63 63
63 63 63
63 63 63
63 63 63
63 63 63
63 63 63
63 63 63
63 63 63
63 63 63
63 63 63
63 63 63
63 63 63
63 63 63
63 63 63
63 63 63
63 63 63
63 63 63
63 63 63
63 63 63
63 63 63
63 63 63
63 63 63
63 63 63
63 63 63
63 63 63
63 63 63
63 63 63
63 63 63
63 63 63
63 63 63
63 63 63
63 63 63
63 63 63
63 63 63
63 63 63
63 63 63
63 63 63
63 63 63
63 63 63
63 63 63
63 63 63
63 63 63
63 63 63
63 63 63
63 63 63
63 63 63
63 63 63
63 63 63
63 63 63
63 63 63
63 63 63
63 63 63
63 63 63
63 63 63
63 63 63
63 63 63
63 63 63
63 63 63
63 63 63
63 63 63
63 63 63
63 63 63
63 63 63
63 63 63
63 63 63
63 63 63
63 63 63
63 63 63
63 63 63
63 63 63
63 63 63
63 63 63
63 63 63
63 63 63
63 63 63
63 63 63
63 63 63
63 63 63
63 63 63
63 63 63
63 63 63
63 63 63
63 63 63
63 63 63
63 63 63
63 63 63
63 63 63
63 63 63
63 63 63
63 63 63
63 63 63
63 63 63
63 63 63
63 63 63
63 63 63
63 63 63
63 63 63
63 63 63
63 63 63
63 63 63
63 63 63
63 63 63
63 63 63
63 63 63
63 63 63
63 63 63
63 63 63
63 63 63
63 63 63
63 63 63
63 63 63
63 63 63
63 63 63
63 63 63
63 63 63
63 63 63
63 63 63
63 63 63
63 63 63
63 63 63
63 63 63
63 63 63
63 63 63
63 63 63
63 63 63
63 63 63
63 63 63
63 63 63
63 63 63
63 63 63
63 63 63
63 63 63
63 63 63
63 63 63
63 63 63
63 63 63
63 63 63
63 63 63
63 63 63
63 63 63
63 63 63
63 63 63
63 63 63
63 63 63
63 63 63
63 63 63
63 63 63
63 63 63
63 63 63
63 63 63
63 63 63
63 63 63
63 63 63
63 63 63
63 63 63
63 63 63
63 63 63
63 63 63
63 63 63
63 63 63
63 63 63
63 63 63
63 63 63
63 63 63
63 63 63
63 63 63
63 63 63
63 63 63
63 63 63
63 63 63
63 63 63
63 63 63
63 63 63
63 63 63
63 63 63
63 63 63
63 63 63
63 63 63
63 63 63
63 63 63
63 63 63
63 63 63
63 63 63
63 63 63
63 63 63
63 63 63
63 63 63
63 63 63
63 63 63
63 63 63
63 63 63
63 63 63
63 63 63
63 63 63
63 63 63
63 63 63
63 63 63
63 63 63
63 63 63
63 63 63
63 63 63
63 63 63
63 63 63
63 63 63
63 63 63
63 63 63
63 63 63
63 63 63
63 63 63
63 63 63
63 63 63
63 63 63
63 63 63
63 63 63
63 63 63
63 63 63
63 63 63
63 63 63
63 63 63
63 63 63
63 63 63
63 63 63
63 63 63
63 63 63
63 63 63
63 63 63
63 63 63
63 63 63
63 63 63
63 63 63
63 63 63
63 63 63
63 63 63
63 63 63
63 63 63
63 63 63
63 63 63
63 63 63
63 63 63
63 63 63
63 63 63
63 63 63
63 63 63
63 63 63
63 63 63
63 63 63
63 63 63
63 63 63
63 63 63
63 63 63
63 63 63
63 63 63
63 63 63
63 63 63
63 63 63
63 63 63
63 63 63
63 63 63
63 63 63
63 63 63
63 63 63
63 63 63
63 63 63
63 63 63
63 63 63
63 63 63
63 63 63
63 63 63
63 63 63
63 63 63
63 63 63
63 63 63
63 63 63
63 63 63
63 63 63
63 63 63
63 63 63
63 63 63
63 63 63
63 63 63
63 63 63
63 63 63
63 63 63
63 63 63
63 63 63
63 63 63
63 63 63
63 63 63
63 63 63
63 63 63
63 63 63
63 63 63
63 63 63
63 63 63
63 63 63
63 63 63
63 63 63
63 63 63
63 63 63
63 63 63
63 63 63
63 63 63
63 63 63
63 63 63
63 63 63
63 63 63
63 63 63
63 63 63
63 63 63
63 63 63
63 63 63
63 63 63
63 63 63
63 63 63
63 63 63
63 63 63
63 63 63
63 63 63
63 63 63
63 63 63
63 63 63
63 63 63
63 63 63
63 63 63
63 63 63
63 63 63
63 63 63
63 63 63
63 63 63
63 63 63
63 63 63
63 63 63
63 63 63
63 63 63
63 63 63
63 63 63
63 63 63
63 63 63
63 63 63
63 63 63
63 63 63
63 63 63
63 63 63
63 63 63
63 63 63
63 63 63
63 63 63
63 63 63
63 63 63
63 63 63
63 63 63
63 63 63
63 63 63
63 63 63
63 63 63
63 63 63
63 63 63
63 63 63
63 63 63
63 63 63
63 63 63
63 63 63
63 63 63
63 63 63
63 63 63
63 63 63
63 63 63
63 63 63
63 63 63
63 63 63
63 63 63
63 63 63
63 63 63
63 63 63
63 63 63
63 63 63
63 63 63
63 63 63
63 63 63
63 63 63
63 63 63
63 63 63
63 63 63
63 63 63
63 63 63
63 63 63
63 63 63
63 63 63
63 63 63
63 63 63
63 63 63
63 63 63
63 63 63
63 63 63
63 63 63
63 63 63
63 63 63
63 63 63
63 63 63
63 63 63
63 63 63
63 63 63
63 63 63
63 63 63
63 63 63
63 63 63
63 63 63
63 63 63
63 63 63
63 63 63
63 63 63
63 63 63
63 63 63
63 63 63
63 63 63
63 63 63
63 63 63
63 63 63
63 63 63
63 63 63
63 63 63
63 63 63
63 63 63
63 63 63
63 63 63
63 63 63
63 63 63
63 63 63
63 63 63
63 63 63
63 63 63
63 63 63
63 63 63
63 63 63
63 63 63
63 63 63
63 63 63
63 63 63
63 63 63
63 63 63
63 63 63
63 63 63
63 63 63
63 63 63
63 63 63
63 63 63
63 63 63
63 63 63
63 63 63
63 63 63
63 63 63
63 63 63
63 63 63
63 63 63
63 63 63
63 63 63
63 63 63
63 63 63
63 63 63
63 63 63
63 63 63
63 63 63
63 63 63
63 63 63
63 63 63
63 63 63
63 63 63
63 63 63
63 63 63
63 63 63
63 63 63
63 63 63
63 63 63
63 63 63
63 63 63
63 63 63
63 63 63
63 63 63
63 63 63
63 63 63
63 63 63
63 63 63
63 63 63
63 63 63
63 63 63
63 63 63
63 63 63
63 63 63
63 63 63
63 63 63
63 63 63
63 63 63
63 63 63
63 63 63
63 63 63
63 63 63
63 63 63
63 63 63
63 63 63
63 63 63
63 63 63
63 63 63
63 63 63
63 63 63
63 63 63
63 63 63
63 63 63
63 63 63
63 63 63
63 63 63
63 63 63
63 63 63
63 63 63
63 63 63
63 63 63
63 63 63
63 63 63
63 63 63
63 63 63
63 63 63
63 63 63
63 63 63
63 63 63
63 63 63
63 63 63
63 63 63
63 63 63
63 63 63
63 63 63
63 63 63
63 63 63
63 63 63
63 63 63
63 63 63
63 63 63
63 63 63
63 63 63
63 63 63
63 63 63
63 63 63
63 63 63
63 63 63
63 63 63
63 63 63
63 63 63
63 63 63
63 63 63
63 63 63
63 63 63
63 63 63
63 63 63
63 63 63
63 63 63
63 63 63
63 63 63
63 63 63
63 63 63
63 63 63
63 63 63
63 63 63
63 63 63
63 63 63
63 63 63
63 63 63
63 63 63
63 63 63
63 63 63
63 63 63
63 63 63
63 63 63
63 63 63
63 63 63
63 63 63
63 63 63
63 63 63
63 63 63
63 63 63
63 63 63
63 63 63
63 63 63
63 63 63
63 63 63
63 63 63
63 63 63
63 63 63
63 63 63
63 63 63
63 63 63
63 63 63
63 63 63
63 63 63
63 63 63
63 63 63
63 63 63
63 63 63
63 63 63
63 63 63
63 63 63
63 63 63
63 63 63
63 63 63
63 63 63
63 63 63
63 63 63
63 63 63
63 63 63
63 63 63
63 63 63
63 63 63
63 63 63
63 63 63
63 63 63
63 63 63
63 63 63
63 63 63
63 63 63
63 63 63
63 63 63
63 63 63
63 63 63
63 63 63
63 63 63
63 63 63
63 63 63
63 63 63
63 63 63
63 63 63
63 63 63
63 63 63
63 63 63
63 63 63
63 63 63
63 63 63
63 63 63
63 63 63
63 63 63
63 63 63
63 63 63
63 63 63
63 63 63
63 63 63
63 63 63
63 63 63
63 63 63
63 63 63
63 63 63
63 63 63
63 63 63
63 63 63
63 63 63
63 63 63
63 63 63
63 63 63
63 63 63
63 63 63
63 63 63
63 63 63
63 63 63
63 63 63
63 63 63
63 63 63
63 63 63
63 63 63
63 63 63
63 63 63
63 63 63
63 63 63
63 63 63
63 63 63
63 63 63
63 63 63
63 63 63
63 63 63
63 63 63
63 63 63
63 63 63
63 63 63
63 63 63
63 63 63
63 63 63
63 63 63
63 63 63
63 63 63
63 63 63
63 63 63
63 63 63
63 63 63
63 63 63
63 63 63
63 63 63
63 63 63
63 63 63
63 63 63
63 63 63
63 63 63
63 63 63
63 63 63
63 63 63
63 63 63
63 63 63
63 63 63
63 63 63
63 63 63
63 63 63
63 63 63
63 63 63
63 63 63
63 63 63
63 63 63
63 63 63
63 63 63
63 63 63
63 63 63
63 63 63
63 63 63
63 63 63
63 63 63
63 63 63
63 63 63
63 63 63
63 63 63
63 63 63
63 63 63
63 63 63
63 63 63
63 63 63
63 63 63
63 63 63
63 63 63
63 63 63
63 63 63
63 63 63
63 63 63
63 63 63
63 63 63
63 63 63
63 63 63
63 63 63
63 63 63
63 63 63
63 63 63
63 63 63
63 63 63
63 63 63
63 63 63
63 63 63
63 63 63
63 63 63
63 63 63
63 63 63
63 63 63
63 63 63
63 63 63
63 63 63
63 63 63
63 63 63
63 63 63
63 63 63
63 63 63
63 63 63
63 63 63
63 63 63
63 63 63
63 63 63
63 63 63
63 63 63
63 63 63
63 63 63
63 63 63
63 63 63
63 63 63
63 63 63
63 63 63
63 63 63
63 63 63
63 63 63
63 63 63
63 63 63
63 63 63
63 63 63
63 63 63
63 63 63
63 63 63
63 63 63
63 63 63
63 63 63
63 63 63
63 63 63
63 63 63
63 63 63
63 63 63
63 63 63
63 63 63
63 63 63
63 63 63
63 63 63
63 63 63
63 63 63
63 63 63
63 63 63
63 63 63
63 63 63
63 63 63
63 63 63
63 63 63
63 63 63
63 63 63
63 63 63
63 63 63
63 63 63
63 63 63
63 63 63
63 63 63
63 63 63
63 63 63
63 63 63
63 63 63
63 63 63
63 63 63
63 63 63
63 63 63
63 63 63
63 63 63
63 63 63
63 63 63
63 63 63
63 63 63
63 63 63
63 63 63
63 63 63
63 63 63
63 63 63
63 63 63
63 63 63
63 63 63
63 63 63
63 63 63
63 63 63
63 63 63
63 63 63
63 63 63
63 63 63
63 63 63
63 63 63
63 63 63
63 63 63
63 63 63
63 63 63
63 63 63
63 63 63
63 63 63
63 63 63
63 63 63
63 63 63
63 63 63
63 63 63
63 63 63
63 63 63
63 63 63
63 63 63
63 63 63
63 63 63
63 63 63
63 63 63
63 63 63
63 63 63
63 63 63
63 63 63
63 63 63
63 63 63
63 63 63
63 63 63
63 63 63
63 63 63
63 63 63
63 63 63
63 63 63
63 63 63
63 63 63
63 63 63
63 63 63
63 63 63
63 63 63
63 63 63
63 63 63
63 63 63
63 63 63
63 63 63
63 63 63
63 63 63
63 63 63
63 63 63
63 63 63
63 63 63
63 63 63
63 63 63
63 63 63
63 63 63
63 63 63
63 63 63
63 63 63
63 63 63
63 63 63
63 63 63
63 63 63
63 63 63
63 63 63
63 63 63
63 63 63
63 63 63
63 63 63
63 63 63
63 63 63
63 63 63
63 63 63
63 63 63
63 63 63
63 63 63
63 63 63
63 63 63
63 63 63
63 63 63
63 63 63
63 63 63
63 63 63
63 63 63
63 63 63
63 63 63
63 63 63
63 63 63
63 63 63
63 63 63
63 63 63
63 63 63
63 63 63
63 63 63
63 63 63
63 63 63
63 63 63
63 63 63
63 63 63
63 63 63
63 63 63
63 63 63
63 63 63
63 63 63
63 63 63
63 63 63
63 63 63
63 63 63
63 63 63
63 63 63
63 63 63
63 63 63
63 63 63
63 63 63
63 63 63
63 63 63
63 63 63
63 63 63
63 63 63
63 63 63
63 63 63
63 63 63
63 63 63
63 63 63
63 63 63
63 63 63
63 63 63
63 63 63
63 63 63
63 63 63
63 63 63
63 63 63
63 63 63
63 63 63
63 63 63
63 63 63
63 63 63
63 63 63
63 63 63
63 63 63
63 63 63
63 63 63
63 63 63
63 63 63
63 63 63
63 63 63
63 63 63
63 63 63
63 63 63
63 63 63
63 63 63
63 63 63
63 63 63
63 63 63
63 63 63
63 63 63
63 63 63
63 63 63
63 63 63
63 63 63
63 63 63
63 63 63
63 63 63
63 63 63
63 63 63
63 63 63
63 63 63
63 63 63
63 63 63
63 63 63
63 63 63
63 63 63
63 63 63
63 63 63
63 63 63
63 63 63
63 63 63
63 63 63
63 63 63
63 63 63
63 63 63
63 63 63
63 63 63
63 63 63
63 63 63
63 63 63
63 63 63
63 63 63
63 63 63
63 63 63
63 63 63
63 63 63
63 63 63
63 63 63
63 63 63
63 63 63
63 63 63
63 63 63
63 63 63
63 63 63
63 63 63
63 63 63
63 63 63
63 63 63
63 63 63
63 63 63
63 63 63
63 63 63
63 63 63
63 63 63
63 63 63
63 63 63
63 63 63
63 63 63
63 63 63
63 63 63
63 63 63
63 63 63
63 63 63
63 63 63
63 63 63
63 63 63
63 63 63
63 63 63
63 63 63
63 63 63
63 63 63
63 63 63
63 63 63
63 63 63
63 63 63
63 63 63
63 63 63
63 63 63
63 63 63
63 63 63
63 63 63
63 63 63
63 63 63
63 63 63
63 63 63
63 63 63
63 63 63
63 63 63
63 63 63
63 63 63
63 63 63
63 63 63
63 63 63
63 63 63
63 63 63
63 63 63
63 63 63
63 63 63
63 63 63
63 63 63
63 63 63
63 63 63
63 63 63
63 63 63
63 63 63
63 63 63
63 63 63
63 63 63
63 63 63
63 63 63
63 63 63
63 63 63
63 63 63
63 63 63
63 63 63
63 63 63
63 63 63
63 63 63
63 63 63
63 63 63
63 63 63
63 63 63
63 63 63
63 63 63
63 63 63
63 63 63
63 63 63
63 63 63
63 63 63
63 63 63
63 63 63
63 63 63
63 63 63
148 244 78
147 246 83
147 248 88
148 249 91
149 249 95
151 250 97
153 250 100
155 250 102
158 250 104
160 249 106
164 249 107
167 248 108
172 246 108
177 244 107
63 63 63
63 63 63
63 63 63
63 63 63
63 63 63
63 63 63
63 63 63
63 63 63
63 63 63
63 63 63
63 63 63
63 63 63
63 63 63
63 63 63
63 63 63
63 63 63
63 63 63
63 63 63
63 63 63
63 63 63
63 63 63
63 63 63
63 63 63
63 63 63
63 63 63
63 63 63
63 63 63
63 63 63
63 63 63
63 63 63
63 63 63
63 63 63
63 63 63
63 63 63
63 63 63
63 63 63
63 63 63
63 63 63
63 63 63
63 63 63
63 63 63
63 63 63
63 63 63
63 63 63
63 63 63
63 63 63
63 63 63
63 63 63
63 63 63
63 63 63
63 63 63
63 63 63
63 63 63
63 63 63
63 63 63
63 63 63
63 63 63
63 63 63
63 63 63
63 63 63
63 63 63
63 63 63
63 63 63
63 63 63
63 63 63
63 63 63
63 63 63
63 63 63
63 63 63
63 63 63
63 63 63
63 63 63
63 63 63
63 63 63
63 63 63
63 63 63
63 63 63
63 63 63
63 63 63
63 63 63
63 63 63
63 63 63
63 63 63
63 63 63
63 63 63
63 63 63
63 63 63
63 63 63
63 63 63
63 63 63
63 63 63
63 63 63
63 63 63
63 63 63
63 63 63
63 63 63
63 63 63
63 63 63
63 63 63
63 63 63
63 63 63
63 63 63
63 63 63
63 63 63
63 63 63
63 63 63
63 63 63
63 63 63
63 63 63
63 63 63
63 63 63
63 63 63
63 63 63
63 63 63
63 63 63
63 63 63
63 63 63
63 63 63
63 63 63
63 63 63
63 63 63
63 63 63
63 63 63
63 63 63
63 63 63
63 63 63
63 63 63
63 63 63
63 63 63
63 63 63
63 63 63
63 63 63
63 63 63
63 63 63
63 63 63
63 63 63
63 63 63
63 63 63
63 63 63
63 63 63
63 63 63
63 63 63
63 63 63
63 63 63
63 63 63
63 63 63
63 63 63
63 63 63
63 63 63
63 63 63
63 63 63
63 63 63
63 63 63
63 63 63
63 63 63
63 63 63
63 63 63
63 63 63
63 63 63
63 63 63
63 63 63
63 63 63
63 63 63
63 63 63
63 63 63
63 63 63
63 63 63
63 63 63
63 63 63
63 63 63
63 63 63
63 63 63
63 63 63
63 63 63
63 63 63
63 63 63
63 63 63
63 63 63
63 63 63
63 63 63
63 63 63
63 63 63
63 63 63
63 63 63
63 63 63
63 63 63
63 63 63
63 63 63
63 63 63
63 63 63
63 63 63
63 63 63
63 63 63
63 63 63
63 63 63
63 63 63
63 63 63
63 63 63
63 63 63
63 63 63
63 63 63
63 63 63
63 63 63
63 63 63
63 63 63
63 63 63
63 63 63
63 63 63
63 63 63
63 63 63
63 63 63
63 63 63
63 63 63
63 63 63
63 63 63
63 63 63
63 63 63
63 63 63
63 63 63
63 63 63
63 63 63
63 63 63
63 63 63
63 63 63
63 63 63
63 63 63
63 63 63
63 63 63
63 63 63
63 63 63
63 63 63
63 63 63
63 63 63
63 63 63
63 63 63
63 63 63
63 63 63
63 63 63
63 63 63
63 63 63
63 63 63
63 63 63
63 63 63
63 63 63
63 63 63
63 63 63
63 63 63
63 63 63
63 63 63
63 63 63
63 63 63
63 63 63
63 63 63
63 63 63
63 63 63
63 63 63
63 63 63
63 63 63
63 63 63
63 63 63
63 63 63
63 63 63
63 63 63
63 63 63
63 63 63
63 63 63
63 63 63
63 63 63
63 63 63
63 63 63
63 63 63
63 63 63
63 63 63
63 63 63
63 63 63
63 63 63
63 63 63
63 63 63
63 63 63
63 63 63
63 63 63
63 63 63
63 63 63
63 63 63
63 63 63
63 63 63
63 63 63
63 63 63
63 63 63
63 63 63
63 63 63
63 63 63
63 63 63
63 63 63
63 63 63
63 63 63
63 63 63
63 63 63
63 63 63
63 63 63
63 63 63
63 63 63
63 63 63
63 63 63
63 63 63
63 63 63
63 63 63
63 63 63
63 63 63
63 63 63
63 63 63
63 63 63
63 63 63
63 63 63
63 63 63
63 63 63
63 63 63
63 63 63
63 63 63
63 63 63
63 63 63
63 63 63
63 63 63
63 63 63
63 63 63
63 63 63
63 63 63
63 63 63
63 63 63
63 63 63
63 63 63
63 63 63
63 63 63
63 63 63
63 63 63
63 63 63
63 63 63
63 63 63
63 63 63
63 63 63
63 63 63
63 63 63
63 63 63
63 63 63
63 63 63
63 63 63
63 63 63
63 63 63
63 63 63
63 63 63
63 63 63
63 63 63
63 63 63
63 63 63
63 63 63
63 63 63
63 63 63
63 63 63
63 63 63
63 63 63
63 63 63
63 63 63
63 63 63
63 63 63
63 63 63
63 63 63
63 63 63
63 63 63
63 63 63
63 63 63
63 63 63
63 63 63
63 63 63
63 63 63
63 63 63
63 63 63
63 63 63
63 63 63
63 63 63
63 63 63
63 63 63
63 63 63
135 243 73
134 246 79
133 248 84
134 249 88
134 250 92
136 251 95
137 252 99
138 252 102
140 253 104
142 253 107
144 253 109
146 253 111
148 253 113
151 253 115
153 252 117
156 252 118
160 251 119
163 250 121
167 249 121
171 248 122
176 246 121
182 243 120
63 63 63
63 63 63
63 63 63
63 63 63
63 63 63
63 63 63
63 63 63
63 63 63
63 63 63
63 63 63
63 63 63
63 63 63
63 63 63
63 63 63
63 63 63
63 63 63
63 63 63
63 63 63
63 63 63
63 63 63
63 63 63
63 63 63
63 63 63
63 63 63
63 63 63
63 63 63
63 63 63
63 63 63
63 63 63
63 63 63
63 63 63
63 63 63
63 63 63
63 63 63
63 63 63
63 63 63
63 63 63
63 63 63
63 63 63
63 63 63
63 63 63
63 63 63
63 63 63
63 63 63
63 63 63
63 63 63
63 63 63
63 63 63
63 63 63
63 63 63
63 63 63
63 63 63
63 63 63
63 63 63
63 63 63
63 63 63
63 63 63
63 63 63
63 63 63
63 63 63
63 63 63
63 63 63
63 63 63
63 63 63
63 63 63
63 63 63
63 63 63
63 63 63
63 63 63
63 63 63
63 63 63
63 63 63
63 63 63
63 63 63
63 63 63
63 63 63
63 63 63
63 63 63
63 63 63
63 63 63
63 63 63
63 63 63
63 63 63
63 63 63
63 63 63
63 63 63
63 63 63
63 63 63
63 63 63
63 63 63
63 63 63
63 63 63
63 63 63
63 63 63
63 63 63
63 63 63
63 63 63
63 63 63
63 63 63
63 63 63
63 63 63
63 63 63
63 63 63
63 63 63
63 63 63
63 63 63
63 63 63
63 63 63
63 63 63
63 63 63
63 63 63
63 63 63
63 63 63
63 63 63
63 63 63
63 63 63
63 63 63
63 63 63
63 63 63
63 63 63
63 63 63
63 63 63
63 63 63
63 63 63
63 63 63
63 63 63
63 63 63
63 63 63
63 63 63
63 63 63
63 63 63
63 63 63
63 63 63
63 63 63
63 63 63
63 63 63
63 63 63
63 63 63
63 63 63
63 63 63
63 63 63
63 63 63
63 63 63
63 63 63
63 63 63
63 63 63
63 63 63
63 63 63
63 63 63
63 63 63
63 63 63
63 63 63
63 63 63
63 63 63
63 63 63
63 63 63
63 63 63
63 63 63
63 63 63
63 63 63
63 63 63
63 63 63
63 63 63
63 63 63
63 63 63
63 63 63
63 63 63
63 63 63
63 63 63
63 63 63
63 63 63
63 63 63
63 63 63
63 63 63
63 63 63
63 63 63
63 63 63
63 63 63
63 63 63
63 63 63
63 63 63
63 63 63
63 63 63
63 63 63
63 63 63
63 63 63
63 63 63
63 63 63
63 63 63
63 63 63
63 63 63
63 63 63
63 63 63
63 63 63
63 63 63
63 63 63
63 63 63
63 63 63
63 63 63
63 63 63
63 63 63
63 63 63
63 63 63
63 63 63
63 63 63
63 63 63
63 63 63
63 63 63
63 63 63
63 63 63
63 63 63
63 63 63
63 63 63
63 63 63
63 63 63
63 63 63
63 63 63
63 63 63
63 63 63
63 63 63
63 63 63
63 63 63
63 63 63
63 63 63
63 63 63
63 63 63
63 63 63
63 63 63
63 63 63
63 63 63
63 63 63
63 63 63
63 63 63
63 63 63
63 63 63
63 63 63
63 63 63
63 63 63
63 63 63
63 63 63
63 63 63
63 63 63
63 63 63
63 63 63
63 63 63
63 63 63
63 63 63
63 63 63
63 63 63
63 63 63
63 63 63
63 63 63
63 63 63
63 63 63
63 63 63
63 63 63
63 63 63
63 63 63
63 63 63
63 63 63
63 63 63
63 63 63
63 63 63
63 63 63
63 63 63
63 63 63
63 63 63
63 63 63
63 63 63
63 63 63
63 63 63
63 63 63
63 63 63
63 63 63
63 63 63
63 63 63
63 63 63
63 63 63
63 63 63
63 63 63
63 63 63
63 63 63
63 63 63
63 63 63
63 63 63
63 63 63
63 63 63
63 63 63
63 63 63
63 63 63
63 63 63
63 63 63
63 63 63
63 63 63
63 63 63
63 63 63
63 63 63
63 63 63
63 63 63
63 63 63
63 63 63
63 63 63
63 63 63
63 63 63
63 63 63
63 63 63
63 63 63
63 63 63
63 63 63
63 63 63
63 63 63
63 63 63
63 63 63
63 63 63
63 63 63
63 63 63
63 63 63
63 63 63
63 63 63
63 63 63
63 63 63
63 63 63
63 63 63
63 63 63
63 63 63
63 63 63
63 63 63
63 63 63
63 63 63
63 63 63
63 63 63
63 63 63
63 63 63
63 63 63
63 63 63
63 63 63
63 63 63
63 63 63
63 63 63
63 63 63
63 63 63
63 63 63
63 63 63
63 63 63
63 63 63
63 63 63
63 63 63
63 63 63
63 63 63
63 63 63
63 63 63
63 63 63
63 63 63
63 63 63
63 63 63
63 63 63
63 63 63
63 63 63
63 63 63
63 63 63
63 63 63
63 63 63
63 63 63
63 63 63
63 63 63
63 63 63
63 63 63
63 63 63
63 63 63
63 63 63
63 63 63
63 63 63
63 63 63
63 63 63
63 63 63
127 241 68
125 244 75
124 247 81
124 248 85
124 250 89
125 251 93
126 252 97
127 252 100
128 253 103
130 254 106
131 254 109
133 254 111
135 255 113
137 255 116
139 255 118
142 255 120
144 254 122
146 254 124
149 254 125
152 253 127
155 252 128
158 252 129
162 251 130
166 250 131
170 248 131
174 247 131
180 244 130
187 241 128
63 63 63
63 63 63
63 63 63
63 63 63
63 63 63
63 63 63
63 63 63
63 63 63
63 63 63
63 63 63
63 63 63
63 63 63
63 63 63
63 63 63
63 63 63
63 63 63
63 63 63
63 63 63
63 63 63
63 63 63
63 63 63
63 63 63
63 63 63
63 63 63
63 63 63
63 63 63
63 63 63
63 63 63
63 63 63
63 63 63
63 63 63
63 63 63
63 63 63
63 63 63
63 63 63
63 63 63
63 63 63
63 63 63
63 63 63
63 63 63
63 63 63
63 63 63
63 63 63
63 63 63
63 63 63
63 63 63
63 63 63
63 63 63
63 63 63
63 63 63
63 63 63
63 63 63
63 63 63
63 63 63
63 63 63
63 63 63
63 63 63
63 63 63
63 63 63
63 63 63
63 63 63
63 63 63
63 63 63
63 63 63
63 63 63
63 63 63
63 63 63
63 63 63
63 63 63
63 63 63
63 63 63
63 63 63
63 63 63
63 63 63
63 63 63
63 63 63
63 63 63
63 63 63
63 63 63
63 63 63
63 63 63
63 63 63
63 63 63
63 63 63
63 63 63
63 63 63
63 63 63
63 63 63
63 63 63
63 63 63
63 63 63
63 63 63
63 63 63
63 63 63
63 63 63
63 63 63
63 63 63
63 63 63
63 63 63
63 63 63
63 63 63
63 63 63
63 63 63
63 63 63
63 63 63
63 63 63
63 63 63
63 63 63
63 63 63
63 63 63
63 63 63
63 63 63
63 63 63
63 63 63
63 63 63
63 63 63
63 63 63
63 63 63
63 63 63
63 63 63
63 63 63
63 63 63
63 63 63
63 63 63
63 63 63
63 63 63
63 63 63
63 63 63
63 63 63
63 63 63
63 63 63
63 63 63
63 63 63
63 63 63
63 63 63
63 63 63
63 63 63
63 63 63
63 63 63
63 63 63
63 63 63
63 63 63
63 63 63
63 63 63
63 63 63
63 63 63
63 63 63
63 63 63
63 63 63
63 63 63
63 63 63
63 63 63
63 63 63
63 63 63
63 63 63
63 63 63
63 63 63
63 63 63
63 63 63
63 63 63
63 63 63
63 63 63
63 63 63
63 63 63
63 63 63
63 63 63
63 63 63
63 63 63
63 63 63
63 63 63
63 63 63
63 63 63
63 63 63
63 63 63
63 63 63
63 63 63
63 63 63
63 63 63
63 63 63
63 63 63
63 63 63
63 63 63
63 63 63
63 63 63
63 63 63
63 63 63
63 63 63
63 63 63
63 63 63
63 63 63
63 63 63
63 63 63
63 63 63
63 63 63
63 63 63
63 63 63
63 63 63
63 63 63
63 63 63
63 63 63
63 63 63
63 63 63
63 63 63
63 63 63
63 63 63
63 63 63
63 63 63
63 63 63
63 63 63
63 63 63
63 63 63
63 63 63
63 63 63
63 63 63
63 63 63
63 63 63
63 63 63
63 63 63
63 63 63
63 63 63
63 63 63
63 63 63
63 63 63
63 63 63
63 63 63
63 63 63
63 63 63
63 63 63
63 63 63
63 63 63
63 63 63
63 63 63
63 63 63
63 63 63
63 63 63
63 63 63
63 63 63
63 63 63
63 63 63
63 63 63
63 63 63
63 63 63
63 63 63
63 63 63
63 63 63
63 63 63
63 63 63
63 63 63
63 63 63
63 63 63
63 63 63
63 63 63
63 63 63
63 63 63
63 63 63
63 63 63
63 63 63
63 63 63
63 63 63
63 63 63
63 63 63
63 63 63
63 63 63
63 63 63
63 63 63
63 63 63
63 63 63
63 63 63
63 63 63
63 63 63
63 63 63
63 63 63
63 63 63
63 63 63
63 63 63
63 63 63
63 63 63
63 63 63
63 63 63
63 63 63
63 63 63
63 63 63
63 63 63
63 63 63
63 63 63
63 63 63
63 63 63
63 63 63
63 63 63
63 63 63
63 63 63
63 63 63
63 63 63
63 63 63
63 63 63
63 63 63
63 63 63
63 63 63
63 63 63
63 63 63
63 63 63
63 63 63
63 63 63
63 63 63
63 63 63
63 63 63
63 63 63
63 63 63
63 63 63
63 63 63
63 63 63
63 63 63
63 63 63
63 63 63
63 63 63
63 63 63
63 63 63
63 63 63
63 63 63
63 63 63
63 63 63
63 63 63
63 63 63
63 63 63
63 63 63
63 63 63
63 63 63
63 63 63
63 63 63
63 63 63
63 63 63
63 63 63
63 63 63
63 63 63
63 63 63
63 63 63
63 63 63
63 63 63
63 63 63
63 63 63
63 63 63
63 63 63
63 63 63
63 63 63
63 63 63
63 63 63
63 63 63
63 63 63
63 63 63
63 63 63
63 63 63
63 63 63
63 63 63
63 63 63
63 63 63
63 63 63
63 63 63
63 63 63
63 63 63
63 63 63
63 63 63
63 63 63
63 63 63
63 63 63
63 63 63
63 63 63
63 63 63
63 63 63
63 63 63
124 234 56
118 241 68
117 244 75
116 246 80
116 248 85
116 249 89
117 250 93
118 251 96
119 252 100
120 253 103
121 254 106
123 254 109
124 254 112
126 255 114
128 255 117
130 255 119
132 255 121
134 255 123
136 255 125
138 255 127
141 255 129
143 254 131
146 254 132
149 254 134
152 253 135
155 252 136
159 251 137
162 250 138
166 249 139
170 248 139
175 246 139
180 244 138
187 241 137
199 234 131
63 63 63
63 63 63
63 63 63
63 63 63
63 63 63
63 63 63
63 63 63
63 63 63
63 63 63
63 63 63
63 63 63
63 63 63
63 63 63
63 63 63
63 63 63
63 63 63
63 63 63
63 63 63
63 63 63
63 63 63
63 63 63
63 63 63
63 63 63
63 63 63
63 63 63
63 63 63
63 63 63
63 63 63
63 63 63
63 63 63
63 63 63
63 63 63
63 63 63
63 63 63
63 63 63
63 63 63
63 63 63
63 63 63
63 63 63
63 63 63
63 63 63
63 63 63
63 63 63
63 63 63
63 63 63
63 63 63
63 63 63
63 63 63
63 63 63
63 63 63
63 63 63
63 63 63
63 63 63
63 63 63
63 63 63
63 63 63
63 63 63
63 63 63
63 63 63
63 63 63
63 63 63
63 63 63
63 63 63
63 63 63
63 63 63
63 63 63
63 63 63
63 63 63
63 63 63
63 63 63
63 63 63
63 63 63
63 63 63
63 63 63
63 63 63
63 63 63
63 63 63
63 63 63
63 63 63
63 63 63
63 63 63
63 63 63
63 63 63
63 63 63
63 63 63
63 63 63
63 63 63
63 63 63
63 63 63
63 63 63
63 63 63
63 63 63
63 63 63
63 63 63
63 63 63
63 63 63
63 63 63
63 63 63
63 63 63
63 63 63
63 63 63
63 63 63
63 63 63
63 63 63
63 63 63
63 63 63
63 63 63
63 63 63
63 63 63
63 63 63
63 63 63
63 63 63
63 63 63
63 63 63
63 63 63
63 63 63
63 63 63
63 63 63
63 63 63
63 63 63
63 63 63
63 63 63
63 63 63
63 63 63
63 63 63
63 63 63
63 63 63
63 63 63
63 63 63
63 63 63
63 63 63
63 63 63
63 63 63
63 63 63
63 63 63
63 63 63
63 63 63
63 63 63
63 63 63
63 63 63
63 63 63
63 63 63
63 63 63
63 63 63
63 63 63
63 63 63
63 63 63
63 63 63
63 63 63
63 63 63
63 63 63
63 63 63
63 63 63
63 63 63
63 63 63
63 63 63
63 63 63
63 63 63
63 63 63
63 63 63
63 63 63
63 63 63
63 63 63
63 63 63
63 63 63
63 63 63
63 63 63
63 63 63
63 63 63
63 63 63
63 63 63
63 63 63
63 63 63
63 63 63
63 63 63
63 63 63
63 63 63
63 63 63
63 63 63
63 63 63
63 63 63
63 63 63
63 63 63
63 63 63
63 63 63
63 63 63
63 63 63
63 63 63
63 63 63
63 63 63
63 63 63
63 63 63
63 63 63
63 63 63
63 63 63
63 63 63
63 63 63
63 63 63
63 63 63
63 63 63
63 63 63
63 63 63
63 63 63
63 63 63
63 63 63
63 63 63
63 63 63
63 63 63
63 63 63
63 63 63
63 63 63
63 63 63
63 63 63
63 63 63
63 63 63
63 63 63
63 63 63
63 63 63
63 63 63
63 63 63
63 63 63
63 63 63
63 63 63
63 63 63
63 63 63
63 63 63
63 63 63
63 63 63
63 63 63
63 63 63
63 63 63
63 63 63
63 63 63
63 63 63
63 63 63
63 63 63
63 63 63
63 63 63
63 63 63
63 63 63
63 63 63
63 63 63
63 63 63
63 63 63
63 63 63
63 63 63
63 63 63
63 63 63
63 63 63
63 63 63
63 63 63
63 63 63
63 63 63
63 63 63
63 63 63
63 63 63
63 63 63
63 63 63
63 63 63
63 63 63
63 63 63
63 63 63
63 63 63
63 63 63
63 63 63
63 63 63
63 63 63
63 63 63
63 63 63
63 63 63
63 63 63
63 63 63
63 63 63
63 63 63
63 63 63
63 63 63
63 63 63
63 63 63
63 63 63
63 63 63
63 63 63
63 63 63
63 63 63
63 63 63
63 63 63
63 63 63
63 63 63
63 63 63
63 63 63
63 63 63
63 63 63
63 63 63
63 63 63
63 63 63
63 63 63
63 63 63
63 63 63
63 63 63
63 63 63
63 63 63
63 63 63
63 63 63
63 63 63
63 63 63
63 63 63
63 63 63
63 63 63
63 63 63
63 63 63
63 63 63
63 63 63
63 63 63
63 63 63
63 63 63
63 63 63
63 63 63
63 63 63
63 63 63
63 63 63
63 63 63
63 63 63
63 63 63
63 63 63
63 63 63
63 63 63
63 63 63
63 63 63
63 63 63
63 63 63
63 63 63
63 63 63
63 63 63
63 63 63
63 63 63
63 63 63
63 63 63
63 63 63
63 63 63
63 63 63
63 63 63
63 63 63
63 63 63
63 63 63
63 63 63
63 63 63
63 63 63
63 63 63
63 63 63
63 63 63
63 63 63
63 63 63
63 63 63
63 63 63
63 63 63
63 63 63
63 63 63
63 63 63
63 63 63
63 63 63
63 63 63
63 63 63
63 63 63
63 63 63
63 63 63
118 232 54
112 239 66
110 242 73
109 244 78
109 246 83
109 248 88
110 249 92
110 250 95
111 251 99
112 252 102
113 253 105
115 253 108
116 254 111
118 254 114
119 255 117
121 255 119
123 255 122
125 255 124
127 255 126
129 255 128
131 255 130
133 255 132
136 255 134
138 255 136
141 254 137
144 254 139
147 253 140
150 253 142
153 252 143
156 251 144
160 250 145
163 249 145
167 248 146
172 246 146
177 244 146
182 242 145
189 239 143
201 232 137
63 63 63
63 63 63
63 63 63
63 63 63
63 63 63
63 63 63
63 63 63
63 63 63
63 63 63
63 63 63
63 63 63
63 63 63
63 63 63
63 63 63
63 63 63
63 63 63
63 63 63
63 63 63
63 63 63
63 63 63
63 63 63
63 63 63
63 63 63
63 63 63
63 63 63
63 63 63
63 63 63
63 63 63
63 63 63
63 63 63
63 63 63
63 63 63
63 63 63
63 63 63
63 63 63
63 63 63
63 63 63
63 63 63
63 63 63
63 63 63
63 63 63
63 63 63
63 63 63
63 63 63
63 63 63
63 63 63
63 63 63
63 63 63
63 63 63
63 63 63
63 63 63
63 63 63
63 63 63
63 63 63
63 63 63
63 63 63
63 63 63
63 63 63
63 63 63
63 63 63
63 63 63
63 63 63
63 63 63
63 63 63
63 63 63
63 63 63
63 63 63
63 63 63
63 63 63
63 63 63
63 63 63
63 63 63
63 63 63
63 63 63
63 63 63
63 63 63
63 63 63
63 63 63
63 63 63
63 63 63
63 63 63
63 63 63
63 63 63
63 63 63
63 63 63
63 63 63
63 63 63
63 63 63
63 63 63
63 63 63
63 63 63
63 63 63
63 63 63
63 63 63
63 63 63
63 63 63
63 63 63
63 63 63
63 63 63
63 63 63
63 63 63
63 63 63
63 63 63
63 63 63
63 63 63
63 63 63
63 63 63
63 63 63
63 63 63
63 63 63
63 63 63
63 63 63
63 63 63
63 63 63
63 63 63
63 63 63
63 63 63
63 63 63
63 63 63
63 63 63
63 63 63
63 63 63
63 63 63
63 63 63
63 63 63
63 63 63
63 63 63
63 63 63
63 63 63
63 63 63
63 63 63
63 63 63
63 63 63
63 63 63
63 63 63
63 63 63
63 63 63
63 63 63
63 63 63
63 63 63
63 63 63
63 63 63
63 63 63
63 63 63
63 63 63
63 63 63
63 63 63
63 63 63
63 63 63
63 63 63
63 63 63
63 63 63
63 63 63
63 63 63
63 63 63
63 63 63
63 63 63
63 63 63
63 63 63
63 63 63
63 63 63
63 63 63
63 63 63
63 63 63
63 63 63
63 63 63
63 63 63
63 63 63
63 63 63
63 63 63
63 63 63
63 63 63
63 63 63
63 63 63
63 63 63
63 63 63
63 63 63
63 63 63
63 63 63
63 63 63
63 63 63
63 63 63
63 63 63
63 63 63
63 63 63
63 63 63
63 63 63
63 63 63
63 63 63
63 63 63
63 63 63
63 63 63
63 63 63
63 63 63
63 63 63
63 63 63
63 63 63
63 63 63
63 63 63
63 63 63
63 63 63
63 63 63
63 63 63
63 63 63
63 63 63
63 63 63
63 63 63
63 63 63
63 63 63
63 63 63
63 63 63
63 63 63
63 63 63
63 63 63
63 63 63
63 63 63
63 63 63
63 63 63
63 63 63
63 63 63
63 63 63
63 63 63
63 63 63
63 63 63
63 63 63
63 63 63
63 63 63
63 63 63
63 63 63
63 63 63
63 63 63
63 63 63
63 63 63
63 63 63
63 63 63
63 63 63
63 63 63
63 63 63
63 63 63
63 63 63
63 63 63
63 63 63
63 63 63
63 63 63
63 63 63
63 63 63
63 63 63
63 63 63
63 63 63
63 63 63
63 63 63
63 63 63
63 63 63
63 63 63
63 63 63
63 63 63
63 63 63
63 63 63
63 63 63
63 63 63
63 63 63
63 63 63
63 63 63
63 63 63
63 63 63
63 63 63
63 63 63
63 63 63
63 63 63
63 63 63
63 63 63
63 63 63
63 63 63
63 63 63
63 63 63
63 63 63
63 63 63
63 63 63
63 63 63
63 63 63
63 63 63
63 63 63
63 63 63
63 63 63
63 63 63
63 63 63
63 63 63
63 63 63
63 63 63
63 63 63
63 63 63
63 63 63
63 63 63
63 63 63
63 63 63
63 63 63
63 63 63
63 63 63
63 63 63
63 63 63
63 63 63
63 63 63
63 63 63
63 63 63
63 63 63
63 63 63
63 63 63
63 63 63
63 63 63
63 63 63
63 63 63
63 63 63
63 63 63
63 63 63
63 63 63
63 63 63
63 63 63
63 63 63
63 63 63
63 63 63
63 63 63
63 63 63
63 63 63
63 63 63
63 63 63
63 63 63
63 63 63
63 63 63
63 63 63
63 63 63
63 63 63
63 63 63
63 63 63
63 63 63
63 63 63
63 63 63
63 63 63
63 63 63
63 63 63
63 63 63
63 63 63
63 63 63
63 63 63
63 63 63
63 63 63
63 63 63
63 63 63
63 63 63
63 63 63
63 63 63
63 63 63
63 63 63
63 63 63
63 63 63
63 63 63
63 63 63
63 63 63
63 63 63
63 63 63
63 63 63
63 63 63
107 235 62
104 239 69
103 242 76
103 244 81
103 246 85
103 247 90
104 249 94
104 250 97
105 251 101
106 252 104
108 252 107
109 253 110
110 254 113
112 254 116
113 254 119
115 255 121
117 255 124
119 255 126
121 255 128
123 255 130
125 255 132
127 255 134
129 255 136
131 255 138
134 255 140
136 254 142
139 254 143
142 254 145
145 253 146
148 252 147
151 252 149
154 251 150
158 250 151
161 249 151
165 247 152
170 246 152
174 244 152
179 242 152
186 239 151
193 235 148
63 63 63
63 63 63
63 63 63
63 63 63
63 63 63
63 63 63
63 63 63
63 63 63
63 63 63
63 63 63
63 63 63
63 63 63
63 63 63
63 63 63
63 63 63
63 63 63
63 63 63
63 63 63
63 63 63
63 63 63
63 63 63
63 63 63
63 63 63
63 63 63
63 63 63
63 63 63
63 63 63
63 63 63
63 63 63
63 63 63
63 63 63
63 63 63
63 63 63
63 63 63
63 63 63
63 63 63
63 63 63
63 63 63
63 63 63
63 63 63
63 63 63
63 63 63
63 63 63
63 63 63
63 63 63
63 63 63
63 63 63
63 63 63
63 63 63
63 63 63
63 63 63
63 63 63
63 63 63
63 63 63
63 63 63
63 63 63
63 63 63
63 63 63
63 63 63
63 63 63
63 63 63
63 63 63
63 63 63
63 63 63
63 63 63
63 63 63
63 63 63
63 63 63
63 63 63
63 63 63
63 63 63
63 63 63
63 63 63
63 63 63
63 63 63
63 63 63
63 63 63
63 63 63
63 63 63
63 63 63
63 63 63
63 63 63
63 63 63
63 63 63
63 63 63
63 63 63
63 63 63
63 63 63
63 63 63
63 63 63
63 63 63
63 63 63
63 63 63
63 63 63
63 63 63
63 63 63
63 63 63
63 63 63
63 63 63
63 63 63
63 63 63
63 63 63
63 63 63
63 63 63
63 63 63
63 63 63
63 63 63
63 63 63
63 63 63
63 63 63
63 63 63
63 63 63
63 63 63
63 63 63
63 63 63
63 63 63
63 63 63
63 63 63
63 63 63
63 63 63
63 63 63
63 63 63
63 63 63
63 63 63
63 63 63
63 63 63
63 63 63
63 63 63
63 63 63
63 63 63
63 63 63
63 63 63
63 63 63
63 63 63
63 63 63
63 63 63
63 63 63
63 63 63
63 63 63
63 63 63
63 63 63
63 63 63
63 63 63
63 63 63
63 63 63
63 63 63
63 63 63
63 63 63
63 63 63
63 63 63
63 63 63
63 63 63
63 63 63
63 63 63
63 63 63
63 63 63
63 63 63
63 63 63
63 63 63
63 63 63
63 63 63
63 63 63
63 63 63
63 63 63
63 63 63
63 63 63
63 63 63
63 63 63
63 63 63
63 63 63
63 63 63
63 63 63
63 63 63
63 63 63
63 63 63
63 63 63
63 63 63
63 63 63
63 63 63
63 63 63
63 63 63
63 63 63
63 63 63
63 63 63
63 63 63
63 63 63
63 63 63
63 63 63
63 63 63
63 63 63
63 63 63
63 63 63
63 63 63
63 63 63
63 63 63
63 63 63
63 63 63
63 63 63
63 63 63
63 63 63
63 63 63
63 63 63
63 63 63
63 63 63
63 63 63
63 63 63
63 63 63
63 63 63
63 63 63
63 63 63
63 63 63
63 63 63
63 63 63
63 63 63
63 63 63
63 63 63
63 63 63
63 63 63
63 63 63
63 63 63
63 63 63
63 63 63
63 63 63
63 63 63
63 63 63
63 63 63
63 63 63
63 63 63
63 63 63
63 63 63
63 63 63
63 63 63
63 63 63
63 63 63
63 63 63
63 63 63
63 63 63
63 63 63
63 63 63
63 63 63
63 63 63
63 63 63
63 63 63
63 63 63
63 63 63
63 63 63
63 63 63
63 63 63
63 63 63
63 63 63
63 63 63
63 63 63
63 63 63
63 63 63
63 63 63
63 63 63
63 63 63
63 63 63
63 63 63
63 63 63
63 63 63
63 63 63
63 63 63
63 63 63
63 63 63
63 63 63
63 63 63
63 63 63
63 63 63
63 63 63
63 63 63
63 63 63
63 63 63
63 63 63
63 63 63
63 63 63
63 63 63
63 63 63
63 63 63
63 63 63
63 63 63
63 63 63
63 63 63
63 63 63
63 63 63
63 63 63
63 63 63
63 63 63
63 63 63
63 63 63
63 63 63
63 63 63
63 63 63
63 63 63
63 63 63
63 63 63
63 63 63
63 63 63
63 63 63
63 63 63
63 63 63
63 63 63
63 63 63
63 63 63
63 63 63
63 63 63
63 63 63
63 63 63
63 63 63
63 63 63
63 63 63
63 63 63
63 63 63
63 63 63
63 63 63
63 63 63
63 63 63
63 63 63
63 63 63
63 63 63
63 63 63
63 63 63
63 63 63
63 63 63
63 63 63
63 63 63
63 63 63
63 63 63
63 63 63
63 63 63
63 63 63
63 63 63
63 63 63
63 63 63
63 63 63
63 63 63
63 63 63
63 63 63
63 63 63
63 63 63
63 63 63
63 63 63
63 63 63
63 63 63
63 63 63
63 63 63
63 63 63
63 63 63
63 63 63
63 63 63
63 63 63
63 63 63
63 63 63
63 63 63
63 63 63
63 63 63
63 63 63
63 63 63
104 231 56
100 236 65
98 239 72
97 241 77
97 243 82
97 245 87
98 247 91
98 248 95
99 249 99
100 250 102
101 251 105
102 252 109
103 252 112
105 253 115
106 253 117
108 254 120
109 254 123
111 254 125
113 255 128
115 255 130
117 255 132
119 255 134
121 255 136
123 255 138
125 255 140
127 255 142
130 254 144
132 254 146
135 254 147
138 253 149
140 253 150
143 252 152
146 252 153
150 251 154
153 250 155
156 249 156
160 248 157
164 247 157
168 245 158
173 243 158
178 241 158
183 239 157
190 236 155
199 231 151
63 63 63
63 63 63
63 63 63
63 63 63
63 63 63
63 63 63
63 63 63
63 63 63
63 63 63
63 63 63
63 63 63
63 63 63
63 63 63
63 63 63
63 63 63
63 63 63
63 63 63
63 63 63
63 63 63
63 63 63
63 63 63
63 63 63
63 63 63
63 63 63
63 63 63
63 63 63
63 63 63
63 63 63
63 63 63
63 63 63
63 63 63
63 63 63
63 63 63
63 63 63
63 63 63
63 63 63
63 63 63
63 63 63
63 63 63
63 63 63
63 63 63
63 63 63
63 63 63
63 63 63
63 63 63
63 63 63
63 63 63
63 63 63
63 63 63
63 63 63
63 63 63
63 63 63
63 63 63
63 63 63
63 63 63
63 63 63
63 63 63
63 63 63
63 63 63
63 63 63
63 63 63
63 63 63
63 63 63
63 63 63
63 63 63
63 63 63
63 63 63
63 63 63
63 63 63
63 63 63
63 63 63
63 63 63
63 63 63
63 63 63
63 63 63
63 63 63
63 63 63
63 63 63
63 63 63
63 63 63
63 63 63
63 63 63
63 63 63
63 63 63
63 63 63
63 63 63
63 63 63
63 63 63
63 63 63
63 63 63
63 63 63
63 63 63
63 63 63
63 63 63
63 63 63
63 63 63
63 63 63
63 63 63
63 63 63
63 63 63
63 63 63
63 63 63
63 63 63
63 63 63
63 63 63
63 63 63
63 63 63
63 63 63
63 63 63
63 63 63
63 63 63
63 63 63
63 63 63
63 63 63
63 63 63
63 63 63
63 63 63
63 63 63
63 63 63
63 63 63
63 63 63
63 63 63
63 63 63
63 63 63
63 63 63
63 63 63
63 63 63
63 63 63
63 63 63
63 63 63
63 63 63
63 63 63
63 63 63
63 63 63
63 63 63
63 63 63
63 63 63
63 63 63
63 63 63
63 63 63
63 63 63
63 63 63
63 63 63
63 63 63
63 63 63
63 63 63
63 63 63
63 63 63
63 63 63
63 63 63
63 63 63
63 63 63
63 63 63
63 63 63
63 63 63
63 63 63
63 63 63
63 63 63
63 63 63
63 63 63
63 63 63
63 63 63
63 63 63
63 63 63
63 63 63
63 63 63
63 63 63
63 63 63
63 63 63
63 63 63
63 63 63
63 63 63
63 63 63
63 63 63
63 63 63
63 63 63
63 63 63
63 63 63
63 63 63
63 63 63
63 63 63
63 63 63
63 63 63
63 63 63
63 63 63
63 63 63
63 63 63
63 63 63
63 63 63
63 63 63
63 63 63
63 63 63
63 63 63
63 63 63
63 63 63
63 63 63
63 63 63
63 63 63
63 63 63
63 63 63
63 63 63
63 63 63
63 63 63
63 63 63
63 63 63
63 63 63
63 63 63
63 63 63
63 63 63
63 63 63
63 63 63
63 63 63
63 63 63
63 63 63
63 63 63
63 63 63
63 63 63
63 63 63
63 63 63
63 63 63
63 63 63
63 63 63
63 63 63
63 63 63
63 63 63
63 63 63
63 63 63
63 63 63
63 63 63
63 63 63
63 63 63
63 63 63
63 63 63
63 63 63
63 63 63
63 63 63
63 63 63
63 63 63
63 63 63
63 63 63
63 63 63
63 63 63
63 63 63
63 63 63
63 63 63
63 63 63
63 63 63
63 63 63
63 63 63
63 63 63
63 63 63
63 63 63
63 63 63
63 63 63
63 63 63
63 63 63
63 63 63
63 63 63
63 63 63
63 63 63
63 63 63
63 63 63
63 63 63
63 63 63
63 63 63
63 63 63
63 63 63
63 63 63
63 63 63
63 63 63
63 63 63
63 63 63
63 63 63
63 63 63
63 63 63
63 63 63
63 63 63
63 63 63
63 63 63
63 63 63
63 63 63
63 63 63
63 63 63
63 63 63
63 63 63
63 63 63
63 63 63
63 63 63
63 63 63
63 63 63
63 63 63
63 63 63
63 63 63
63 63 63
63 63 63
63 63 63
63 63 63
63 63 63
63 63 63
63 63 63
63 63 63
63 63 63
63 63 63
63 63 63
63 63 63
63 63 63
63 63 63
63 63 63
63 63 63
63 63 63
63 63 63
63 63 63
63 63 63
63 63 63
63 63 63
63 63 63
63 63 63
63 63 63
63 63 63
63 63 63
63 63 63
63 63 63
63 63 63
63 63 63
63 63 63
63 63 63
63 63 63
63 63 63
63 63 63
63 63 63
63 63 63
63 63 63
63 63 63
63 63 63
63 63 63
63 63 63
63 63 63
63 63 63
63 63 63
63 63 63
63 63 63
63 63 63
63 63 63
63 63 63
63 63 63
63 63 63
63 63 63
63 63 63
63 63 63
63 63 63
63 63 63
63 63 63
63 63 63
63 63 63
63 63 63
97 231 59
94 235 67
93 238 73
92 240 79
92 242 83
92 244 88
93 245 92
93 247 96
94 248 100
95 249 103
96 250 106
97 251 110
98 251 113
99 252 116
101 252 118
102 253 121
104 253 124
106 254 126
107 254 129
109 254 131
111 254 134
113 254 136
115 254 138
117 254 140
119 254 142
121 254 144
124 254 146
126 254 148
129 254 149
131 253 151
134 253 153
137 252 154
139 252 155
142 251 157
145 251 158
149 250 159
152 249 160
155 248 161
159 247 162
163 245 162
167 244 163
172 242 163
176 240 163
182 238 162
188 235 161
196 231 158
63 63 63
63 63 63
63 63 63
63 63 63
63 63 63
63 63 63
63 63 63
63 63 63
63 63 63
63 63 63
63 63 63
63 63 63
63 63 63
63 63 63
63 63 63
63 63 63
63 63 63
63 63 63
63 63 63
63 63 63
63 63 63
63 63 63
63 63 63
63 63 63
63 63 63
63 63 63
63 63 63
63 63 63
63 63 63
63 63 63
63 63 63
63 63 63
63 63 63
63 63 63
63 63 63
63 63 63
63 63 63
63 63 63
63 63 63
63 63 63
63 63 63
63 63 63
63 63 63
63 63 63
63 63 63
63 63 63
63 63 63
63 63 63
63 63 63
63 63 63
63 63 63
63 63 63
63 63 63
63 63 63
63 63 63
63 63 63
63 63 63
63 63 63
63 63 63
63 63 63
63 63 63
63 63 63
63 63 63
63 63 63
63 63 63
63 63 63
63 63 63
63 63 63
63 63 63
63 63 63
63 63 63
63 63 63
63 63 63
63 63 63
63 63 63
63 63 63
63 63 63
63 63 63
63 63 63
63 63 63
63 63 63
63 63 63
63 63 63
63 63 63
63 63 63
63 63 63
63 63 63
63 63 63
63 63 63
63 63 63
63 63 63
63 63 63
63 63 63
63 63 63
63 63 63
63 63 63
63 63 63
63 63 63
63 63 63
63 63 63
63 63 63
63 63 63
63 63 63
63 63 63
63 63 63
63 63 63
63 63 63
63 63 63
63 63 63
63 63 63
63 63 63
63 63 63
63 63 63
63 63 63
63 63 63
63 63 63
63 63 63
63 63 63
63 63 63
63 63 63
63 63 63
63 63 63
63 63 63
63 63 63
63 63 63
63 63 63
63 63 63
63 63 63
63 63 63
63 63 63
63 63 63
63 63 63
63 63 63
63 63 63
63 63 63
63 63 63
63 63 63
63 63 63
63 63 63
63 63 63
63 63 63
63 63 63
63 63 63
63 63 63
63 63 63
63 63 63
63 63 63
63 63 63
63 63 63
63 63 63
63 63 63
63 63 63
63 63 63
63 63 63
63 63 63
63 63 63
63 63 63
63 63 63
63 63 63
63 63 63
63 63 63
63 63 63
63 63 63
63 63 63
63 63 63
63 63 63
63 63 63
63 63 63
63 63 63
63 63 63
63 63 63
63 63 63
63 63 63
63 63 63
63 63 63
63 63 63
63 63 63
63 63 63
63 63 63
63 63 63
63 63 63
63 63 63
63 63 63
63 63 63
63 63 63
63 63 63
63 63 63
63 63 63
63 63 63
63 63 63
63 63 63
63 63 63
63 63 63
63 63 63
63 63 63
63 63 63
63 63 63
63 63 63
63 63 63
63 63 63
63 63 63
63 63 63
63 63 63
63 63 63
63 63 63
63 63 63
63 63 63
63 63 63
63 63 63
63 63 63
63 63 63
63 63 63
63 63 63
63 63 63
63 63 63
63 63 63
63 63 63
63 63 63
63 63 63
63 63 63
63 63 63
63 63 63
63 63 63
63 63 63
63 63 63
63 63 63
63 63 63
63 63 63
63 63 63
63 63 63
63 63 63
63 63 63
63 63 63
63 63 63
63 63 63
63 63 63
63 63 63
63 63 63
63 63 63
63 63 63
63 63 63
63 63 63
63 63 63
63 63 63
63 63 63
63 63 63
63 63 63
63 63 63
63 63 63
63 63 63
63 63 63
63 63 63
63 63 63
63 63 63
63 63 63
63 63 63
63 63 63
63 63 63
63 63 63
63 63 63
63 63 63
63 63 63
63 63 63
63 63 63
63 63 63
63 63 63
63 63 63
63 63 63
63 63 63
63 63 63
63 63 63
63 63 63
63 63 63
63 63 63
63 63 63
63 63 63
63 63 63
63 63 63
63 63 63
63 63 63
63 63 63
63 63 63
63 63 63
63 63 63
63 63 63
63 63 63
63 63 63
63 63 63
63 63 63
63 63 63
63 63 63
63 63 63
63 63 63
63 63 63
63 63 63
63 63 63
63 63 63
63 63 63
63 63 63
63 63 63
63 63 63
63 63 63
63 63 63
63 63 63
63 63 63
63 63 63
63 63 63
63 63 63
63 63 63
63 63 63
63 63 63
63 63 63
63 63 63
63 63 63
63 63 63
63 63 63
63 63 63
63 63 63
63 63 63
63 63 63
63 63 63
63 63 63
63 63 63
63 63 63
63 63 63
63 63 63
63 63 63
63 63 63
63 63 63
63 63 63
63 63 63
63 63 63
63 63 63
63 63 63
63 63 63
63 63 63
63 63 63
63 63 63
63 63 63
63 63 63
63 63 63
63 63 63
63 63 63
63 63 63
63 63 63
63 63 63
63 63 63
63 63 63
63 63 63
63 63 63
63 63 63
63 63 63
97 223 48
91 230 60
89 234 68
88 237 74
87 239 79
87 241 84
87 243 89
88 244 93
88 245 97
89 247 100
90 248 104
91 248 107
92 249 110
93 250 114
95 251 116
96 251 119
97 252 122
99 252 125
101 253 127
102 253 130
104 253 132
106 253 135
108 254 137
110 254 139
112 254 141
114 254 143
116 254 145
118 254 147
120 253 149
123 253 151
125 253 153
128 253 154
130 252 156
133 252 158
136 251 159
138 251 160
141 250 162
145 249 163
148 248 164
151 248 165
155 247 166
158 245 167
162 244 167
166 243 168
171 241 168
176 239 168
181 237 167
187 234 166
195 230 164
207 223 158
63 63 63
63 63 63
63 63 63
63 63 63
63 63 63
63 63 63
63 63 63
63 63 63
63 63 63
63 63 63
63 63 63
63 63 63
63 63 63
63 63 63
63 63 63
63 63 63
63 63 63
63 63 63
63 63 63
63 63 63
63 63 63
63 63 63
63 63 63
63 63 63
63 63 63
63 63 63
63 63 63
63 63 63
63 63 63
63 63 63
63 63 63
63 63 63
63 63 63
63 63 63
63 63 63
63 63 63
63 63 63
63 63 63
63 63 63
63 63 63
63 63 63
63 63 63
63 63 63
63 63 63
63 63 63
63 63 63
63 63 63
63 63 63
63 63 63
63 63 63
63 63 63
63 63 63
63 63 63
63 63 63
63 63 63
63 63 63
63 63 63
63 63 63
63 63 63
63 63 63
63 63 63
63 63 63
63 63 63
63 63 63
63 63 63
63 63 63
63 63 63
63 63 63
63 63 63
63 63 63
63 63 63
63 63 63
63 63 63
63 63 63
63 63 63
63 63 63
63 63 63
63 63 63
63 63 63
63 63 63
63 63 63
63 63 63
63 63 63
63 63 63
63 63 63
63 63 63
63 63 63
63 63 63
63 63 63
63 63 63
63 63 63
63 63 63
63 63 63
63 63 63
63 63 63
63 63 63
63 63 63
63 63 63
63 63 63
63 63 63
63 63 63
63 63 63
63 63 63
63 63 63
63 63 63
63 63 63
63 63 63
63 63 63
63 63 63
63 63 63
63 63 63
63 63 63
63 63 63
63 63 63
63 63 63
63 63 63
63 63 63
63 63 63
63 63 63
63 63 63
63 63 63
63 63 63
63 63 63
63 63 63
63 63 63
63 63 63
63 63 63
63 63 63
63 63 63
63 63 63
63 63 63
63 63 63
63 63 63
63 63 63
63 63 63
63 63 63
63 63 63
63 63 63
63 63 63
63 63 63
63 63 63
63 63 63
63 63 63
63 63 63
63 63 63
63 63 63
63 63 63
63 63 63
63 63 63
63 63 63
63 63 63
63 63 63
63 63 63
63 63 63
63 63 63
63 63 63
63 63 63
63 63 63
63 63 63
63 63 63
63 63 63
63 63 63
63 63 63
63 63 63
63 63 63
63 63 63
63 63 63
63 63 63
63 63 63
63 63 63
63 63 63
63 63 63
63 63 63
63 63 63
63 63 63
63 63 63
63 63 63
63 63 63
63 63 63
63 63 63
63 63 63
63 63 63
63 63 63
63 63 63
63 63 63
63 63 63
63 63 63
63 63 63
63 63 63
63 63 63
63 63 63
63 63 63
63 63 63
63 63 63
63 63 63
63 63 63
63 63 63
63 63 63
63 63 63
63 63 63
63 63 63
63 63 63
63 63 63
63 63 63
63 63 63
63 63 63
63 63 63
63 63 63
63 63 63
63 63 63
63 63 63
63 63 63
63 63 63
63 63 63
63 63 63
63 63 63
63 63 63
63 63 63
63 63 63
63 63 63
63 63 63
63 63 63
63 63 63
63 63 63
63 63 63
63 63 63
63 63 63
63 63 63
63 63 63
63 63 63
63 63 63
63 63 63
63 63 63
63 63 63
63 63 63
63 63 63
63 63 63
63 63 63
63 63 63
63 63 63
63 63 63
63 63 63
63 63 63
63 63 63
63 63 63
63 63 63
63 63 63
63 63 63
63 63 63
63 63 63
63 63 63
63 63 63
63 63 63
63 63 63
63 63 63
63 63 63
63 63 63
63 63 63
63 63 63
63 63 63
63 63 63
63 63 63
63 63 63
63 63 63
63 63 63
63 63 63
63 63 63
63 63 63
63 63 63
63 63 63
63 63 63
63 63 63
63 63 63
63 63 63
63 63 63
63 63 63
63 63 63
63 63 63
63 63 63
63 63 63
63 63 63
63 63 63
63 63 63
63 63 63
63 63 63
63 63 63
63 63 63
63 63 63
63 63 63
63 63 63
63 63 63
63 63 63
63 63 63
63 63 63
63 63 63
63 63 63
63 63 63
63 63 63
63 63 63
63 63 63
63 63 63
63 63 63
63 63 63
63 63 63
63 63 63
63 63 63
63 63 63
63 63 63
63 63 63
63 63 63
63 63 63
63 63 63
63 63 63
63 63 63
63 63 63
63 63 63
63 63 63
63 63 63
63 63 63
63 63 63
63 63 63
63 63 63
63 63 63
63 63 63
63 63 63
63 63 63
63 63 63
63 63 63
63 63 63
63 63 63
63 63 63
63 63 63
63 63 63
63 63 63
63 63 63
63 63 63
63 63 63
63 63 63
63 63 63
63 63 63
63 63 63
63 63 63
63 63 63
63 63 63
63 63 63
63 63 63
63 63 63
63 63 63
63 63 63
91 223 51
86 229 61
84 233 68
83 235 74
83 238 80
83 239 85
83 241 89
83 243 93
84 244 97
85 245 101
85 246 104
86 247 108
88 248 111
89 249 114
90 249 117
91 250 120
93 251 123
94 251 126
96 251 128
97 252 131
99 252 133
101 252 136
103 253 138
104 253 140
106 253 142
108 253 145
110 253 147
113 253 149
115 253 151
117 253 152
119 252 154
122 252 156
124 252 158
127 251 159
129 251 161
132 251 162
135 250 164
138 249 165
141 249 166
144 248 167
147 247 169
151 246 170
154 245 170
158 244 171
162 243 172
166 241 172
170 239 172
175 238 172
181 235 172
187 233 171
194 229 169
204 223 164
63 63 63
63 63 63
63 63 63
63 63 63
63 63 63
63 63 63
63 63 63
63 63 63
63 63 63
63 63 63
63 63 63
63 63 63
63 63 63
63 63 63
63 63 63
63 63 63
63 63 63
63 63 63
63 63 63
63 63 63
63 63 63
63 63 63
63 63 63
63 63 63
63 63 63
63 63 63
63 63 63
63 63 63
63 63 63
63 63 63
63 63 63
63 63 63
63 63 63
63 63 63
63 63 63
63 63 63
63 63 63
63 63 63
63 63 63
63 63 63
63 63 63
63 63 63
63 63 63
63 63 63
63 63 63
63 63 63
63 63 63
63 63 63
63 63 63
63 63 63
63 63 63
63 63 63
63 63 63
63 63 63
63 63 63
63 63 63
63 63 63
63 63 63
63 63 63
63 63 63
63 63 63
63 63 63
63 63 63
63 63 63
63 63 63
63 63 63
63 63 63
63 63 63
63 63 63
63 63 63
63 63 63
63 63 63
63 63 63
63 63 63
63 63 63
63 63 63
63 63 63
63 63 63
63 63 63
63 63 63
63 63 63
63 63 63
63 63 63
63 63 63
63 63 63
63 63 63
63 63 63
63 63 63
63 63 63
63 63 63
63 63 63
63 63 63
63 63 63
63 63 63
63 63 63
63 63 63
63 63 63
63 63 63
63 63 63
63 63 63
63 63 63
63 63 63
63 63 63
63 63 63
63 63 63
63 63 63
63 63 63
63 63 63
63 63 63
63 63 63
63 63 63
63 63 63
63 63 63
63 63 63
63 63 63
63 63 63
63 63 63
63 63 63
63 63 63
63 63 63
63 63 63
63 63 63
63 63 63
63 63 63
63 63 63
63 63 63
63 63 63
63 63 63
63 63 63
63 63 63
63 63 63
63 63 63
63 63 63
63 63 63
63 63 63
63 63 63
63 63 63
63 63 63
63 63 63
63 63 63
63 63 63
63 63 63
63 63 63
63 63 63
63 63 63
63 63 63
63 63 63
63 63 63
63 63 63
63 63 63
63 63 63
63 63 63
63 63 63
63 63 63
63 63 63
63 63 63
63 63 63
63 63 63
63 63 63
63 63 63
63 63 63
63 63 63
63 63 63
63 63 63
63 63 63
63 63 63
63 63 63
63 63 63
63 63 63
63 63 63
63 63 63
63 63 63
63 63 63
63 63 63
63 63 63
63 63 63
63 63 63
63 63 63
63 63 63
63 63 63
63 63 63
63 63 63
63 63 63
63 63 63
63 63 63
63 63 63
63 63 63
63 63 63
63 63 63
63 63 63
63 63 63
63 63 63
63 63 63
63 63 63
63 63 63
63 63 63
63 63 63
63 63 63
63 63 63
63 63 63
63 63 63
63 63 63
63 63 63
63 63 63
63 63 63
63 63 63
63 63 63
63 63 63
63 63 63
63 63 63
63 63 63
63 63 63
63 63 63
63 63 63
63 63 63
63 63 63
63 63 63
63 63 63
63 63 63
63 63 63
63 63 63
63 63 63
63 63 63
63 63 63
63 63 63
63 63 63
63 63 63
63 63 63
63 63 63
63 63 63
63 63 63
63 63 63
63 63 63
63 63 63
63 63 63
63 63 63
63 63 63
63 63 63
63 63 63
63 63 63
63 63 63
63 63 63
63 63 63
63 63 63
63 63 63
63 63 63
63 63 63
63 63 63
63 63 63
63 63 63
63 63 63
63 63 63
63 63 63
63 63 63
63 63 63
63 63 63
63 63 63
63 63 63
63 63 63
63 63 63
63 63 63
63 63 63
63 63 63
63 63 63
63 63 63
63 63 63
63 63 63
63 63 63
63 63 63
63 63 63
63 63 63
63 63 63
63 63 63
63 63 63
63 63 63
63 63 63
63 63 63
63 63 63
63 63 63
63 63 63
63 63 63
63 63 63
63 63 63
63 63 63
63 63 63
63 63 63
63 63 63
63 63 63
63 63 63
63 63 63
63 63 63
63 63 63
63 63 63
63 63 63
63 63 63
63 63 63
63 63 63
63 63 63
63 63 63
63 63 63
63 63 63
63 63 63
63 63 63
63 63 63
63 63 63
63 63 63
63 63 63
63 63 63
63 63 63
63 63 63
63 63 63
63 63 63
63 63 63
63 63 63
63 63 63
63 63 63
63 63 63
63 63 63
63 63 63
63 63 63
63 63 63
63 63 63
63 63 63
63 63 63
63 63 63
63 63 63
63 63 63
63 63 63
63 63 63
63 63 63
63 63 63
63 63 63
63 63 63
63 63 63
63 63 63
63 63 63
63 63 63
63 63 63
63 63 63
63 63 63
63 63 63
63 63 63
63 63 63
63 63 63
63 63 63
63 63 63
63 63 63
86 222 51
82 227 61
80 231 68
79 234 75
79 236 80
79 238 85
79 239 89
79 241 93
80 242 97
80 244 101
81 245 105
82 246 108
83 246 111
84 247 114
85 248 118
87 249 120
88 249 123
90 250 126
91 250 129
93 251 131
94 251 134
96 251 136
98 251 139
100 252 141
101 252 143
103 252 145
105 252 148
107 252 150
110 252 152
112 252 154
114 252 155
116 251 157
119 251 159
121 251 161
124 251 162
126 250 164
129 250 165
132 249 167
135 249 168
137 248 170
140 247 171
144 246 172
147 246 173
150 245 174
154 244 175
158 242 175
162 241 176
166 239 176
170 238 176
175 236 176
180 234 176
187 231 175
194 227 173
204 222 169
63 63 63
63 63 63
63 63 63
63 63 63
63 63 63
63 63 63
63 63 63
63 63 63
63 63 63
63 63 63
63 63 63
63 63 63
63 63 63
63 63 63
63 63 63
63 63 63
63 63 63
63 63 63
63 63 63
63 63 63
63 63 63
63 63 63
63 63 63
63 63 63
63 63 63
63 63 63
63 63 63
63 63 63
63 63 63
63 63 63
63 63 63
63 63 63
63 63 63
63 63 63
63 63 63
63 63 63
63 63 63
63 63 63
63 63 63
63 63 63
63 63 63
63 63 63
63 63 63
63 63 63
63 63 63
63 63 63
63 63 63
63 63 63
63 63 63
63 63 63
63 63 63
63 63 63
63 63 63
63 63 63
63 63 63
63 63 63
63 63 63
63 63 63
63 63 63
63 63 63
63 63 63
63 63 63
63 63 63
63 63 63
63 63 63
63 63 63
63 63 63
63 63 63
63 63 63
63 63 63
63 63 63
63 63 63
63 63 63
63 63 63
63 63 63
63 63 63
63 63 63
63 63 63
63 63 63
63 63 63
63 63 63
63 63 63
63 63 63
63 63 63
63 63 63
63 63 63
63 63 63
63 63 63
63 63 63
63 63 63
63 63 63
63 63 63
63 63 63
63 63 63
63 63 63
63 63 63
63 63 63
63 63 63
63 63 63
63 63 63
63 63 63
63 63 63
63 63 63
63 63 63
63 63 63
63 63 63
63 63 63
63 63 63
63 63 63
63 63 63
63 63 63
63 63 63
63 63 63
63 63 63
63 63 63
63 63 63
63 63 63
63 63 63
63 63 63
63 63 63
63 63 63
63 63 63
63 63 63
63 63 63
63 63 63
63 63 63
63 63 63
63 63 63
63 63 63
63 63 63
63 63 63
63 63 63
63 63 63
63 63 63
63 63 63
63 63 63
63 63 63
63 63 63
63 63 63
63 63 63
63 63 63
63 63 63
63 63 63
63 63 63
63 63 63
63 63 63
63 63 63
63 63 63
63 63 63
63 63 63
63 63 63
63 63 63
63 63 63
63 63 63
63 63 63
63 63 63
63 63 63
63 63 63
63 63 63
63 63 63
63 63 63
63 63 63
63 63 63
63 63 63
63 63 63
63 63 63
63 63 63
63 63 63
63 63 63
63 63 63
63 63 63
63 63 63
63 63 63
63 63 63
63 63 63
63 63 63
63 63 63
63 63 63
63 63 63
63 63 63
63 63 63
63 63 63
63 63 63
63 63 63
63 63 63
63 63 63
63 63 63
63 63 63
63 63 63
63 63 63
63 63 63
63 63 63
63 63 63
63 63 63
63 63 63
63 63 63
63 63 63
63 63 63
63 63 63
63 63 63
63 63 63
63 63 63
63 63 63
63 63 63
63 63 63
63 63 63
63 63 63
63 63 63
63 63 63
63 63 63
63 63 63
63 63 63
63 63 63
63 63 63
63 63 63
63 63 63
63 63 63
63 63 63
63 63 63
63 63 63
63 63 63
63 63 63
63 63 63
63 63 63
63 63 63
63 63 63
63 63 63
63 63 63
63 63 63
63 63 63
63 63 63
63 63 63
63 63 63
63 63 63
63 63 63
63 63 63
63 63 63
63 63 63
63 63 63
63 63 63
63 63 63
63 63 63
63 63 63
63 63 63
63 63 63
63 63 63
63 63 63
63 63 63
63 63 63
63 63 63
63 63 63
63 63 63
63 63 63
63 63 63
63 63 63
63 63 63
63 63 63
63 63 63
63 63 63
63 63 63
63 63 63
63 63 63
63 63 63
63 63 63
63 63 63
63 63 63
63 63 63
63 63 63
63 63 63
63 63 63
63 63 63
63 63 63
63 63 63
63 63 63
63 63 63
63 63 63
63 63 63
63 63 63
63 63 63
63 63 63
63 63 63
63 63 63
63 63 63
63 63 63
63 63 63
63 63 63
63 63 63
63 63 63
63 63 63
63 63 63
63 63 63
63 63 63
63 63 63
63 63 63
63 63 63
63 63 63
63 63 63
63 63 63
63 63 63
63 63 63
63 63 63
63 63 63
63 63 63
63 63 63
63 63 63
63 63 63
63 63 63
63 63 63
63 63 63
63 63 63
63 63 63
63 63 63
63 63 63
63 63 63
63 63 63
63 63 63
63 63 63
63 63 63
63 63 63
63 63 63
63 63 63
63 63 63
63 63 63
63 63 63
63 63 63
63 63 63
63 63 63
63 63 63
63 63 63
63 63 63
63 63 63
63 63 63
63 63 63
63 63 63
63 63 63
63 63 63
63 63 63
63 63 63
63 63 63
63 63 63
63 63 63
63 63 63
63 63 63
63 63 63
63 63 63
82 220 51
78 225 61
76 229 68
75 231 74
75 234 80
75 236 85
75 238 89
75 239 93
76 241 97
76 242 101
77 243 105
78 244 108
79 245 111
80 246 115
81 246 118
82 247 121
84 248 124
85 248 126
87 249 129
88 249 132
90 250 134
91 250 137
93 250 139
95 250 142
97 251 144
99 251 146
101 251 148
103 251 150
105 251 152
107 251 154
109 251 156
111 251 158
113 250 160
116 250 162
118 250 164
121 250 165
123 249 167
126 249 168
129 248 170
131 248 171
134 247 173
137 246 174
140 246 175
144 245 176
147 244 177
150 243 178
154 242 179
158 241 179
162 239 180
166 238 180
170 236 180
175 234 180
181 231 180
187 229 179
194 225 177
204 220 173
63 63 63
63 63 63
63 63 63
63 63 63
63 63 63
63 63 63
63 63 63
63 63 63
63 63 63
63 63 63
63 63 63
63 63 63
63 63 63
63 63 63
63 63 63
63 63 63
63 63 63
63 63 63
63 63 63
63 63 63
63 63 63
63 63 63
63 63 63
63 63 63
63 63 63
63 63 63
63 63 63
63 63 63
63 63 63
63 63 63
63 63 63
63 63 63
63 63 63
63 63 63
63 63 63
63 63 63
63 63 63
63 63 63
63 63 63
63 63 63
63 63 63
63 63 63
63 63 63
63 63 63
63 63 63
63 63 63
63 63 63
63 63 63
63 63 63
63 63 63
63 63 63
63 63 63
63 63 63
63 63 63
63 63 63
63 63 63
63 63 63
63 63 63
63 63 63
63 63 63
63 63 63
63 63 63
63 63 63
63 63 63
63 63 63
63 63 63
63 63 63
63 63 63
63 63 63
63 63 63
63 63 63
63 63 63
63 63 63
63 63 63
63 63 63
63 63 63
63 63 63
63 63 63
63 63 63
63 63 63
63 63 63
63 63 63
63 63 63
63 63 63
63 63 63
63 63 63
63 63 63
63 63 63
63 63 63
63 63 63
63 63 63
63 63 63
63 63 63
63 63 63
63 63 63
63 63 63
63 63 63
63 63 63
63 63 63
63 63 63
63 63 63
63 63 63
63 63 63
63 63 63
63 63 63
63 63 63
63 63 63
63 63 63
63 63 63
63 63 63
63 63 63
63 63 63
63 63 63
63 63 63
63 63 63
63 63 63
63 63 63
63 63 63
63 63 63
63 63 63
63 63 63
63 63 63
63 63 63
63 63 63
63 63 63
63 63 63
63 63 63
63 63 63
63 63 63
63 63 63
63 63 63
63 63 63
63 63 63
63 63 63
63 63 63
63 63 63
63 63 63
63 63 63
63 63 63
63 63 63
63 63 63
63 63 63
63 63 63
63 63 63
63 63 63
63 63 63
63 63 63
63 63 63
63 63 63
63 63 63
63 63 63
63 63 63
63 63 63
63 63 63
63 63 63
63 63 63
63 63 63
63 63 63
63 63 63
63 63 63
63 63 63
63 63 63
63 63 63
63 63 63
63 63 63
63 63 63
63 63 63
63 63 63
63 63 63
63 63 63
63 63 63
63 63 63
63 63 63
63 63 63
63 63 63
63 63 63
63 63 63
63 63 63
63 63 63
63 63 63
63 63 63
63 63 63
63 63 63
63 63 63
63 63 63
63 63 63
63 63 63
63 63 63
63 63 63
63 63 63
63 63 63
63 63 63
63 63 63
63 63 63
63 63 63
63 63 63
63 63 63
63 63 63
63 63 63
63 63 63
63 63 63
63 63 63
63 63 63
63 63 63
63 63 63
63 63 63
63 63 63
63 63 63
63 63 63
63 63 63
63 63 63
63 63 63
63 63 63
63 63 63
63 63 63
63 63 63
63 63 63
63 63 63
63 63 63
63 63 63
63 63 63
63 63 63
63 63 63
63 63 63
63 63 63
63 63 63
63 63 63
63 63 63
63 63 63
63 63 63
63 63 63
63 63 63
63 63 63
63 63 63
63 63 63
63 63 63
63 63 63
63 63 63
63 63 63
63 63 63
63 63 63
63 63 63
63 63 63
63 63 63
63 63 63
63 63 63
63 63 63
63 63 63
63 63 63
63 63 63
63 63 63
63 63 63
63 63 63
63 63 63
63 63 63
63 63 63
63 63 63
63 63 63
63 63 63
63 63 63
63 63 63
63 63 63
63 63 63
63 63 63
63 63 63
63 63 63
63 63 63
63 63 63
63 63 63
63 63 63
63 63 63
63 63 63
63 63 63
63 63 63
63 63 63
63 63 63
63 63 63
63 63 63
63 63 63
63 63 63
63 63 63
63 63 63
63 63 63
63 63 63
63 63 63
63 63 63
63 63 63
63 63 63
63 63 63
63 63 63
63 63 63
63 63 63
63 63 63
63 63 63
63 63 63
63 63 63
63 63 63
63 63 63
63 63 63
63 63 63
63 63 63
63 63 63
63 63 63
63 63 63
63 63 63
63 63 63
63 63 63
63 63 63
63 63 63
63 63 63
63 63 63
63 63 63
63 63 63
63 63 63
63 63 63
63 63 63
63 63 63
63 63 63
63 63 63
63 63 63
63 63 63
63 63 63
63 63 63
63 63 63
63 63 63
63 63 63
63 63 63
63 63 63
63 63 63
63 63 63
63 63 63
63 63 63
63 63 63
63 63 63
63 63 63
63 63 63
63 63 63
63 63 63
63 63 63
63 63 63
63 63 63
63 63 63
63 63 63
79 217 50
75 223 60
73 226 68
72 229 74
71 232 79
71 234 84
71 236 89
71 237 93
72 239 97
72 240 101
73 241 105
74 242 108
75 243 111
76 244 115
77 245 118
78 245 121
80 246 124
81 247 127
82 247 129
84 248 132
85 248 135
87 249 137
89 249 140
90 249 142
92 249 144
94 250 147
96 250 149
98 250 151
100 250 153
102 250 155
104 250 157
106 250 159
108 250 161
111 249 163
113 249 165
115 249 166
118 249 168
120 248 170
123 248 171
126 247 173
128 247 174
131 246 175
134 245 177
137 245 178
140 244 179
144 243 180
147 242 181
150 241 182
154 240 183
158 239 183
162 237 184
166 236 184
171 234 184
176 232 184
181 229 183
187 226 182
195 223 180
205 217 176
63 63 63
63 63 63
63 63 63
63 63 63
63 63 63
63 63 63
63 63 63
63 63 63
63 63 63
63 63 63
63 63 63
63 63 63
63 63 63
63 63 63
63 63 63
63 63 63
63 63 63
63 63 63
63 63 63
63 63 63
63 63 63
63 63 63
63 63 63
63 63 63
63 63 63
63 63 63
63 63 63
63 63 63
63 63 63
63 63 63
63 63 63
63 63 63
63 63 63
63 63 63
63 63 63
63 63 63
63 63 63
63 63 63
63 63 63
63 63 63
63 63 63
63 63 63
63 63 63
63 63 63
63 63 63
63 63 63
63 63 63
63 63 63
63 63 63
63 63 63
63 63 63
63 63 63
63 63 63
63 63 63
63 63 63
63 63 63
63 63 63
63 63 63
63 63 63
63 63 63
63 63 63
63 63 63
63 63 63
63 63 63
63 63 63
63 63 63
63 63 63
63 63 63
63 63 63
63 63 63
63 63 63
63 63 63
63 63 63
63 63 63
63 63 63
63 63 63
63 63 63
63 63 63
63 63 63
63 63 63
63 63 63
63 63 63
63 63 63
63 63 63
63 63 63
63 63 63
63 63 63
63 63 63
63 63 63
63 63 63
63 63 63
63 63 63
63 63 63
63 63 63
63 63 63
63 63 63
63 63 63
63 63 63
63 63 63
63 63 63
63 63 63
63 63 63
63 63 63
63 63 63
63 63 63
63 63 63
63 63 63
63 63 63
63 63 63
63 63 63
63 63 63
63 63 63
63 63 63
63 63 63
63 63 63
63 63 63
63 63 63
63 63 63
63 63 63
63 63 63
63 63 63
63 63 63
63 63 63
63 63 63
63 63 63
63 63 63
63 63 63
63 63 63
63 63 63
63 63 63
63 63 63
63 63 63
63 63 63
63 63 63
63 63 63
63 63 63
63 63 63
63 63 63
63 63 63
63 63 63
63 63 63
63 63 63
63 63 63
63 63 63
63 63 63
63 63 63
63 63 63
63 63 63
63 63 63
63 63 63
63 63 63
63 63 63
63 63 63
63 63 63
63 63 63
63 63 63
63 63 63
63 63 63
63 63 63
63 63 63
63 63 63
63 63 63
63 63 63
63 63 63
63 63 63
63 63 63
63 63 63
63 63 63
63 63 63
63 63 63
63 63 63
63 63 63
63 63 63
63 63 63
63 63 63
63 63 63
63 63 63
63 63 63
63 63 63
63 63 63
63 63 63
63 63 63
63 63 63
63 63 63
63 63 63
63 63 63
63 63 63
63 63 63
63 63 63
63 63 63
63 63 63
63 63 63
63 63 63
63 63 63
63 63 63
63 63 63
63 63 63
63 63 63
63 63 63
63 63 63
63 63 63
63 63 63
63 63 63
63 63 63
63 63 63
63 63 63
63 63 63
63 63 63
63 63 63
63 63 63
63 63 63
63 63 63
63 63 63
63 63 63
63 63 63
63 63 63
63 63 63
63 63 63
63 63 63
63 63 63
63 63 63
63 63 63
63 63 63
63 63 63
63 63 63
63 63 63
63 63 63
63 63 63
63 63 63
63 63 63
63 63 63
63 63 63
63 63 63
63 63 63
63 63 63
63 63 63
63 63 63
63 63 63
63 63 63
63 63 63
63 63 63
63 63 63
63 63 63
63 63 63
63 63 63
63 63 63
63 63 63
63 63 63
63 63 63
63 63 63
63 63 63
63 63 63
63 63 63
63 63 63
63 63 63
63 63 63
63 63 63
63 63 63
63 63 63
63 63 63
63 63 63
63 63 63
63 63 63
63 63 63
63 63 63
63 63 63
63 63 63
63 63 63
63 63 63
63 63 63
63 63 63
63 63 63
63 63 63
63 63 63
63 63 63
63 63 63
63 63 63
63 63 63
63 63 63
63 63 63
63 63 63
63 63 63
63 63 63
63 63 63
63 63 63
63 63 63
63 63 63
63 63 63
63 63 63
63 63 63
63 63 63
63 63 63
63 63 63
63 63 63
63 63 63
63 63 63
63 63 63
63 63 63
63 63 63
63 63 63
63 63 63
63 63 63
63 63 63
63 63 63
63 63 63
63 63 63
63 63 63
63 63 63
63 63 63
63 63 63
63 63 63
63 63 63
63 63 63
63 63 63
63 63 63
63 63 63
63 63 63
63 63 63
63 63 63
63 63 63
63 63 63
63 63 63
63 63 63
63 63 63
63 63 63
63 63 63
63 63 63
63 63 63
63 63 63
63 63 63
63 63 63
63 63 63
63 63 63
63 63 63
63 63 63
63 63 63
63 63 63
63 63 63
63 63 63
63 63 63
63 63 63
76 214 48
71 220 59
69 224 67
68 227 73
67 229 78
67 231 84
67 233 88
67 235 93
68 237 97
69 238 101
69 239 104
70 240 108
71 241 111
72 242 115
73 243 118
74 244 121
76 244 124
77 245 127
78 246 129
80 246 132
81 247 135
83 247 137
84 247 140
86 248 142
88 248 145
90 248 147
91 248 149
93 248 152
95 249 154
97 249 156
99 249 158
101 249 160
103 248 162
106 248 164
108 248 165
110 248 167
113 248 169
115 247 171
118 247 172
120 247 174
123 246 175
126 246 177
128 245 178
131 244 179
134 244 181
137 243 182
140 242 183
144 241 184
147 240 185
151 239 186
154 238 186
158 237 187
162 235 188
167 233 188
171 231 188
177 229 188
182 227 187
188 224 186
196 220 184
207 214 179
63 63 63
63 63 63
63 63 63
63 63 63
63 63 63
63 63 63
63 63 63
63 63 63
63 63 63
63 63 63
63 63 63
63 63 63
63 63 63
63 63 63
63 63 63
63 63 63
63 63 63
63 63 63
63 63 63
63 63 63
63 63 63
63 63 63
63 63 63
63 63 63
63 63 63
63 63 63
63 63 63
63 63 63
63 63 63
63 63 63
63 63 63
63 63 63
63 63 63
63 63 63
63 63 63
63 63 63
63 63 63
63 63 63
63 63 63
63 63 63
63 63 63
63 63 63
63 63 63
63 63 63
63 63 63
63 63 63
63 63 63
63 63 63
63 63 63
63 63 63
63 63 63
63 63 63
63 63 63
63 63 63
63 63 63
63 63 63
63 63 63
63 63 63
63 63 63
63 63 63
63 63 63
63 63 63
63 63 63
63 63 63
63 63 63
63 63 63
63 63 63
63 63 63
63 63 63
63 63 63
63 63 63
63 63 63
63 63 63
63 63 63
63 63 63
63 63 63
63 63 63
63 63 63
63 63 63
63 63 63
63 63 63
63 63 63
63 63 63
63 63 63
63 63 63
63 63 63
63 63 63
63 63 63
63 63 63
63 63 63
63 63 63
63 63 63
63 63 63
63 63 63
63 63 63
63 63 63
63 63 63
63 63 63
63 63 63
63 63 63
63 63 63
63 63 63
63 63 63
63 63 63
63 63 63
63 63 63
63 63 63
63 63 63
63 63 63
63 63 63
63 63 63
63 63 63
63 63 63
63 63 63
63 63 63
63 63 63
63 63 63
63 63 63
63 63 63
63 63 63
63 63 63
63 63 63
63 63 63
63 63 63
63 63 63
63 63 63
63 63 63
63 63 63
63 63 63
63 63 63
63 63 63
63 63 63
63 63 63
63 63 63
63 63 63
63 63 63
63 63 63
63 63 63
63 63 63
63 63 63
63 63 63
63 63 63
63 63 63
63 63 63
63 63 63
63 63 63
63 63 63
63 63 63
63 63 63
63 63 63
63 63 63
63 63 63
63 63 63
63 63 63
63 63 63
63 63 63
63 63 63
63 63 63
63 63 63
63 63 63
63 63 63
63 63 63
63 63 63
63 63 63
63 63 63
63 63 63
63 63 63
63 63 63
63 63 63
63 63 63
63 63 63
63 63 63
63 63 63
63 63 63
63 63 63
63 63 63
63 63 63
63 63 63
63 63 63
63 63 63
63 63 63
63 63 63
63 63 63
63 63 63
63 63 63
63 63 63
63 63 63
63 63 63
63 63 63
63 63 63
63 63 63
63 63 63
63 63 63
63 63 63
63 63 63
63 63 63
63 63 63
63 63 63
63 63 63
63 63 63
63 63 63
63 63 63
63 63 63
63 63 63
63 63 63
63 63 63
63 63 63
63 63 63
63 63 63
63 63 63
63 63 63
63 63 63
63 63 63
63 63 63
63 63 63
63 63 63
63 63 63
63 63 63
63 63 63
63 63 63
63 63 63
63 63 63
63 63 63
63 63 63
63 63 63
63 63 63
63 63 63
63 63 63
63 63 63
63 63 63
63 63 63
63 63 63
63 63 63
63 63 63
63 63 63
63 63 63
63 63 63
63 63 63
63 63 63
63 63 63
63 63 63
63 63 63
63 63 63
63 63 63
63 63 63
63 63 63
63 63 63
63 63 63
63 63 63
63 63 63
63 63 63
63 63 63
63 63 63
63 63 63
63 63 63
63 63 63
63 63 63
63 63 63
63 63 63
63 63 63
63 63 63
63 63 63
63 63 63
63 63 63
63 63 63
63 63 63
63 63 63
63 63 63
63 63 63
63 63 63
63 63 63
63 63 63
63 63 63
63 63 63
63 63 63
63 63 63
63 63 63
63 63 63
63 63 63
63 63 63
63 63 63
63 63 63
63 63 63
63 63 63
63 63 63
63 63 63
63 63 63
63 63 63
63 63 63
63 63 63
63 63 63
63 63 63
63 63 63
63 63 63
63 63 63
63 63 63
63 63 63
63 63 63
63 63 63
63 63 63
63 63 63
63 63 63
63 63 63
63 63 63
63 63 63
63 63 63
63 63 63
63 63 63
63 63 63
63 63 63
63 63 63
63 63 63
63 63 63
63 63 63
63 63 63
63 63 63
63 63 63
63 63 63
63 63 63
63 63 63
63 63 63
63 63 63
63 63 63
63 63 63
63 63 63
63 63 63
63 63 63
63 63 63
63 63 63
63 63 63
63 63 63
63 63 63
63 63 63
63 63 63
63 63 63
63 63 63
63 63 63
63 63 63
63 63 63
74 209 45
69 217 57
66 221 65
65 224 72
64 227 77
64 229 83
64 231 87
64 233 92
64 234 96
65 236 100
66 237 104
66 238 107
67 239 111
68 240 114
69 241 118
70 242 121
72 243 124
73 243 127
74 244 129
76 244 132
77 245 135
79 245 138
80 246 140
82 246 143
84 246 145
85 247 147
87 247 150
89 247 152
91 247 154
93 247 156
95 247 158
97 247 160
99 247 162
101 247 164
103 247 166
105 247 168
108 247 170
110 246 171
112 246 173
115 246 175
117 245 176
120 245 178
123 244 179
126 244 181
128 243 182
131 243 183
134 242 185
137 241 186
141 240 187
144 239 188
148 238 189
151 237 189
155 236 190
159 234 191
163 233 191
168 231 191
172 229 191
178 227 191
183 224 190
190 221 189
198 217 186
210 209 181
63 63 63
63 63 63
63 63 63
63 63 63
63 63 63
63 63 63
63 63 63
63 63 63
63 63 63
63 63 63
63 63 63
63 63 63
63 63 63
63 63 63
63 63 63
63 63 63
63 63 63
63 63 63
63 63 63
63 63 63
63 63 63
63 63 63
63 63 63
63 63 63
63 63 63
63 63 63
63 63 63
63 63 63
63 63 63
63 63 63
63 63 63
63 63 63
63 63 63
63 63 63
63 63 63
63 63 63
63 63 63
63 63 63
63 63 63
63 63 63
63 63 63
63 63 63
63 63 63
63 63 63
63 63 63
63 63 63
63 63 63
63 63 63
63 63 63
63 63 63
63 63 63
63 63 63
63 63 63
63 63 63
63 63 63
63 63 63
63 63 63
63 63 63
63 63 63
63 63 63
63 63 63
63 63 63
63 63 63
63 63 63
63 63 63
63 63 63
63 63 63
63 63 63
63 63 63
63 63 63
63 63 63
63 63 63
63 63 63
63 63 63
63 63 63
63 63 63
63 63 63
63 63 63
63 63 63
63 63 63
63 63 63
63 63 63
63 63 63
63 63 63
63 63 63
63 63 63
63 63 63
63 63 63
63 63 63
63 63 63
63 63 63
63 63 63
63 63 63
63 63 63
63 63 63
63 63 63
63 63 63
63 63 63
63 63 63
63 63 63
63 63 63
63 63 63
63 63 63
63 63 63
63 63 63
63 63 63
63 63 63
63 63 63
63 63 63
63 63 63
63 63 63
63 63 63
63 63 63
63 63 63
63 63 63
63 63 63
63 63 63
63 63 63
63 63 63
63 63 63
63 63 63
63 63 63
63 63 63
63 63 63
63 63 63
63 63 63
63 63 63
63 63 63
63 63 63
63 63 63
63 63 63
63 63 63
63 63 63
63 63 63
63 63 63
63 63 63
63 63 63
63 63 63
63 63 63
63 63 63
63 63 63
63 63 63
63 63 63
63 63 63
63 63 63
63 63 63
63 63 63
63 63 63
63 63 63
63 63 63
63 63 63
63 63 63
63 63 63
63 63 63
63 63 63
63 63 63
63 63 63
63 63 63
63 63 63
63 63 63
63 63 63
63 63 63
63 63 63
63 63 63
63 63 63
63 63 63
63 63 63
63 63 63
63 63 63
63 63 63
63 63 63
63 63 63
63 63 63
63 63 63
63 63 63
63 63 63
63 63 63
63 63 63
63 63 63
63 63 63
63 63 63
63 63 63
63 63 63
63 63 63
63 63 63
63 63 63
63 63 63
63 63 63
63 63 63
63 63 63
63 63 63
63 63 63
63 63 63
63 63 63
63 63 63
63 63 63
63 63 63
63 63 63
63 63 63
63 63 63
63 63 63
63 63 63
63 63 63
63 63 63
63 63 63
63 63 63
63 63 63
63 63 63
63 63 63
63 63 63
63 63 63
63 63 63
63 63 63
63 63 63
63 63 63
63 63 63
63 63 63
63 63 63
63 63 63
63 63 63
63 63 63
63 63 63
63 63 63
63 63 63
63 63 63
63 63 63
63 63 63
63 63 63
63 63 63
63 63 63
63 63 63
63 63 63
63 63 63
63 63 63
63 63 63
63 63 63
63 63 63
63 63 63
63 63 63
63 63 63
63 63 63
63 63 63
63 63 63
63 63 63
63 63 63
63 63 63
63 63 63
63 63 63
63 63 63
63 63 63
63 63 63
63 63 63
63 63 63
63 63 63
63 63 63
63 63 63
63 63 63
63 63 63
63 63 63
63 63 63
63 63 63
63 63 63
63 63 63
63 63 63
63 63 63
63 63 63
63 63 63
63 63 63
63 63 63
63 63 63
63 63 63
63 63 63
63 63 63
63 63 63
63 63 63
63 63 63
63 63 63
63 63 63
63 63 63
63 63 63
63 63 63
63 63 63
63 63 63
63 63 63
63 63 63
63 63 63
63 63 63
63 63 63
63 63 63
63 63 63
63 63 63
63 63 63
63 63 63
63 63 63
63 63 63
63 63 63
63 63 63
63 63 63
63 63 63
63 63 63
63 63 63
63 63 63
63 63 63
63 63 63
63 63 63
63 63 63
63 63 63
63 63 63
63 63 63
63 63 63
63 63 63
63 63 63
63 63 63
63 63 63
63 63 63
63 63 63
63 63 63
63 63 63
63 63 63
63 63 63
63 63 63
63 63 63
63 63 63
63 63 63
63 63 63
63 63 63
63 63 63
63 63 63
63 63 63
63 63 63
63 63 63
63 63 63
63 63 63
63 63 63
63 63 63
63 63 63
63 63 63
75 203 38
66 213 55
63 218 63
62 221 70
61 224 76
61 226 82
60 229 87
61 230 91
61 232 95
61 233 99
62 235 103
63 236 107
64 237 110
65 238 114
66 239 117
67 240 120
68 241 123
69 241 126
70 242 129
72 243 132
73 243 135
75 244 137
76 244 140
78 244 143
79 245 145
81 245 147
83 245 150
85 246 152
86 246 154
88 246 156
90 246 159
92 246 161
94 246 163
96 246 165
99 246 167
101 246 169
103 246 170
105 245 172
108 245 174
110 245 176
112 244 177
115 244 179
118 244 180
120 243 182
123 243 183
126 242 185
129 241 186
132 241 187
135 240 188
138 239 189
141 238 190
145 237 191
148 236 192
152 235 193
156 233 194
160 232 194
164 230 194
168 229 195
173 226 194
179 224 194
185 221 193
192 218 192
200 213 189
217 203 180
63 63 63
63 63 63
63 63 63
63 63 63
63 63 63
63 63 63
63 63 63
63 63 63
63 63 63
63 63 63
63 63 63
63 63 63
63 63 63
63 63 63
63 63 63
63 63 63
63 63 63
63 63 63
63 63 63
63 63 63
63 63 63
63 63 63
63 63 63
63 63 63
63 63 63
63 63 63
63 63 63
63 63 63
63 63 63
63 63 63
63 63 63
63 63 63
63 63 63
63 63 63
63 63 63
63 63 63
63 63 63
63 63 63
63 63 63
63 63 63
63 63 63
63 63 63
63 63 63
63 63 63
63 63 63
63 63 63
63 63 63
63 63 63
63 63 63
63 63 63
63 63 63
63 63 63
63 63 63
63 63 63
63 63 63
63 63 63
63 63 63
63 63 63
63 63 63
63 63 63
63 63 63
63 63 63
63 63 63
63 63 63
63 63 63
63 63 63
63 63 63
63 63 63
63 63 63
63 63 63
63 63 63
63 63 63
63 63 63
63 63 63
63 63 63
63 63 63
63 63 63
63 63 63
63 63 63
63 63 63
63 63 63
63 63 63
63 63 63
63 63 63
63 63 63
63 63 63
63 63 63
63 63 63
63 63 63
63 63 63
63 63 63
63 63 63
63 63 63
63 63 63
63 63 63
63 63 63
63 63 63
63 63 63
63 63 63
63 63 63
63 63 63
63 63 63
63 63 63
63 63 63
63 63 63
63 63 63
63 63 63
63 63 63
63 63 63
63 63 63
63 63 63
63 63 63
63 63 63
63 63 63
63 63 63
63 63 63
63 63 63
63 63 63
63 63 63
63 63 63
63 63 63
63 63 63
63 63 63
63 63 63
63 63 63
63 63 63
63 63 63
63 63 63
63 63 63
63 63 63
63 63 63
63 63 63
63 63 63
63 63 63
63 63 63
63 63 63
63 63 63
63 63 63
63 63 63
63 63 63
63 63 63
63 63 63
63 63 63
63 63 63
63 63 63
63 63 63
63 63 63
63 63 63
63 63 63
63 63 63
63 63 63
63 63 63
63 63 63
63 63 63
63 63 63
63 63 63
63 63 63
63 63 63
63 63 63
63 63 63
63 63 63
63 63 63
63 63 63
63 63 63
63 63 63
63 63 63
63 63 63
63 63 63
63 63 63
63 63 63
63 63 63
63 63 63
63 63 63
63 63 63
63 63 63
63 63 63
63 63 63
63 63 63
63 63 63
63 63 63
63 63 63
63 63 63
63 63 63
63 63 63
63 63 63
63 63 63
63 63 63
63 63 63
63 63 63
63 63 63
63 63 63
63 63 63
63 63 63
63 63 63
63 63 63
63 63 63
63 63 63
63 63 63
63 63 63
63 63 63
63 63 63
63 63 63
63 63 63
63 63 63
63 63 63
63 63 63
63 63 63
63 63 63
63 63 63
63 63 63
63 63 63
63 63 63
63 63 63
63 63 63
63 63 63
63 63 63
63 63 63
63 63 63
63 63 63
63 63 63
63 63 63
63 63 63
63 63 63
63 63 63
63 63 63
63 63 63
63 63 63
63 63 63
63 63 63
63 63 63
63 63 63
63 63 63
63 63 63
63 63 63
63 63 63
63 63 63
63 63 63
63 63 63
63 63 63
63 63 63
63 63 63
63 63 63
63 63 63
63 63 63
63 63 63
63 63 63
63 63 63
63 63 63
63 63 63
63 63 63
63 63 63
63 63 63
63 63 63
63 63 63
63 63 63
63 63 63
63 63 63
63 63 63
63 63 63
63 63 63
63 63 63
63 63 63
63 63 63
63 63 63
63 63 63
63 63 63
63 63 63
63 63 63
63 63 63
63 63 63
63 63 63
63 63 63
63 63 63
63 63 63
63 63 63
63 63 63
63 63 63
63 63 63
63 63 63
63 63 63
63 63 63
63 63 63
63 63 63
63 63 63
63 63 63
63 63 63
63 63 63
63 63 63
63 63 63
63 63 63
63 63 63
63 63 63
63 63 63
63 63 63
63 63 63
63 63 63
63 63 63
63 63 63
63 63 63
63 63 63
63 63 63
63 63 63
63 63 63
63 63 63
63 63 63
63 63 63
63 63 63
63 63 63
63 63 63
63 63 63
63 63 63
63 63 63
63 63 63
63 63 63
63 63 63
63 63 63
63 63 63
63 63 63
63 63 63
63 63 63
63 63 63
63 63 63
63 63 63
63 63 63
63 63 63
63 63 63
63 63 63
63 63 63
63 63 63
63 63 63
63 63 63
63 63 63
63 63 63
63 63 63
63 63 63
63 63 63
64 209 52
61 214 61
59 218 69
58 221 75
58 224 80
57 226 85
57 228 90
58 230 94
58 231 99
59 232 103
59 234 106
60 235 110
61 236 113
62 237 117
63 238 120
64 239 123
65 239 126
67 240 129
68 241 132
69 241 135
71 242 137
72 242 140
74 243 142
75 243 145
77 243 147
79 244 150
81 244 152
82 244 154
84 244 157
86 244 159
88 245 161
90 245 163
92 245 165
94 245 167
96 244 169
98 244 171
101 244 173
103 244 174
105 244 176
108 243 178
110 243 180
113 243 181
115 242 183
118 242 184
120 241 186
123 241 187
126 240 188
129 239 190
132 239 191
135 238 192
138 237 193
142 236 194
145 235 195
149 234 196
152 232 196
156 231 197
161 230 197
165 228 198
170 226 198
175 224 197
180 221 197
186 218 196
194 214 194
203 209 191
63 63 63
63 63 63
63 63 63
63 63 63
63 63 63
63 63 63
63 63 63
63 63 63
63 63 63
63 63 63
63 63 63
63 63 63
63 63 63
63 63 63
63 63 63
63 63 63
63 63 63
63 63 63
63 63 63
63 63 63
63 63 63
63 63 63
63 63 63
63 63 63
63 63 63
63 63 63
63 63 63
63 63 63
63 63 63
63 63 63
63 63 63
63 63 63
63 63 63
63 63 63
63 63 63
63 63 63
63 63 63
63 63 63
63 63 63
63 63 63
63 63 63
63 63 63
63 63 63
63 63 63
63 63 63
63 63 63
63 63 63
63 63 63
63 63 63
63 63 63
63 63 63
63 63 63
63 63 63
63 63 63
63 63 63
63 63 63
63 63 63
63 63 63
63 63 63
63 63 63
63 63 63
63 63 63
63 63 63
63 63 63
63 63 63
63 63 63
63 63 63
63 63 63
63 63 63
63 63 63
63 63 63
63 63 63
63 63 63
63 63 63
63 63 63
63 63 63
63 63 63
63 63 63
63 63 63
63 63 63
63 63 63
63 63 63
63 63 63
63 63 63
63 63 63
63 63 63
63 63 63
63 63 63
63 63 63
63 63 63
63 63 63
63 63 63
63 63 63
63 63 63
63 63 63
63 63 63
63 63 63
63 63 63
63 63 63
63 63 63
63 63 63
63 63 63
63 63 63
63 63 63
63 63 63
63 63 63
63 63 63
63 63 63
63 63 63
63 63 63
63 63 63
63 63 63
63 63 63
63 63 63
63 63 63
63 63 63
63 63 63
63 63 63
63 63 63
63 63 63
63 63 63
63 63 63
63 63 63
63 63 63
63 63 63
63 63 63
63 63 63
63 63 63
63 63 63
63 63 63
63 63 63
63 63 63
63 63 63
63 63 63
63 63 63
63 63 63
63 63 63
63 63 63
63 63 63
63 63 63
63 63 63
63 63 63
63 63 63
63 63 63
63 63 63
63 63 63
63 63 63
63 63 63
63 63 63
63 63 63
63 63 63
63 63 63
63 63 63
63 63 63
63 63 63
63 63 63
63 63 63
63 63 63
63 63 63
63 63 63
63 63 63
63 63 63
63 63 63
63 63 63
63 63 63
63 63 63
63 63 63
63 63 63
63 63 63
63 63 63
63 63 63
63 63 63
63 63 63
63 63 63
63 63 63
63 63 63
63 63 63
63 63 63
63 63 63
63 63 63
63 63 63
63 63 63
63 63 63
63 63 63
63 63 63
63 63 63
63 63 63
63 63 63
63 63 63
63 63 63
63 63 63
63 63 63
63 63 63
63 63 63
63 63 63
63 63 63
63 63 63
63 63 63
63 63 63
63 63 63
63 63 63
63 63 63
63 63 63
63 63 63
63 63 63
63 63 63
63 63 63
63 63 63
63 63 63
63 63 63
63 63 63
63 63 63
63 63 63
63 63 63
63 63 63
63 63 63
63 63 63
63 63 63
63 63 63
63 63 63
63 63 63
63 63 63
63 63 63
63 63 63
63 63 63
63 63 63
63 63 63
63 63 63
63 63 63
63 63 63
63 63 63
63 63 63
63 63 63
63 63 63
63 63 63
63 63 63
63 63 63
63 63 63
63 63 63
63 63 63
63 63 63
63 63 63
63 63 63
63 63 63
63 63 63
63 63 63
63 63 63
63 63 63
63 63 63
63 63 63
63 63 63
63 63 63
63 63 63
63 63 63
63 63 63
63 63 63
63 63 63
63 63 63
63 63 63
63 63 63
63 63 63
63 63 63
63 63 63
63 63 63
63 63 63
63 63 63
63 63 63
63 63 63
63 63 63
63 63 63
63 63 63
63 63 63
63 63 63
63 63 63
63 63 63
63 63 63
63 63 63
63 63 63
63 63 63
63 63 63
63 63 63
63 63 63
63 63 63
63 63 63
63 63 63
63 63 63
63 63 63
63 63 63
63 63 63
63 63 63
63 63 63
63 63 63
63 63 63
63 63 63
63 63 63
63 63 63
63 63 63
63 63 63
63 63 63
63 63 63
63 63 63
63 63 63
63 63 63
63 63 63
63 63 63
63 63 63
63 63 63
63 63 63
63 63 63
63 63 63
63 63 63
63 63 63
63 63 63
63 63 63
63 63 63
63 63 63
63 63 63
63 63 63
63 63 63
63 63 63
63 63 63
63 63 63
63 63 63
63 63 63
63 63 63
63 63 63
63 63 63
63 63 63
63 63 63
63 63 63
63 63 63
63 63 63
63 63 63
63 63 63
63 63 63
63 204 48
59 211 59
57 215 67
55 218 73
55 221 79
54 223 84
54 225 89
55 227 93
55 229 98
55 230 102
56 231 105
57 233 109
58 234 113
59 235 116
60 236 119
61 237 122
62 237 126
63 238 129
64 239 131
66 239 134
67 240 137
69 240 140
70 241 142
72 241 145
73 242 147
75 242 150
77 242 152
78 243 154
80 243 157
82 243 159
84 243 161
86 243 163
88 243 165
90 243 167
92 243 169
94 243 171
96 243 173
98 243 175
101 243 177
103 242 178
105 242 180
108 242 182
110 241 183
113 241 185
115 240 186
118 240 188
121 239 189
124 239 191
126 238 192
129 237 193
133 237 194
136 236 195
139 235 196
142 234 197
146 233 198
150 231 199
153 230 200
157 229 200
162 227 200
166 225 201
171 223 201
176 221 200
182 218 200
188 215 198
196 211 196
207 204 192
63 63 63
63 63 63
63 63 63
63 63 63
63 63 63
63 63 63
63 63 63
63 63 63
63 63 63
63 63 63
63 63 63
63 63 63
63 63 63
63 63 63
63 63 63
63 63 63
63 63 63
63 63 63
63 63 63
63 63 63
63 63 63
63 63 63
63 63 63
63 63 63
63 63 63
63 63 63
63 63 63
63 63 63
63 63 63
63 63 63
63 63 63
63 63 63
63 63 63
63 63 63
63 63 63
63 63 63
63 63 63
63 63 63
63 63 63
63 63 63
63 63 63
63 63 63
63 63 63
63 63 63
63 63 63
63 63 63
63 63 63
63 63 63
63 63 63
63 63 63
63 63 63
63 63 63
63 63 63
63 63 63
63 63 63
63 63 63
63 63 63
63 63 63
63 63 63
63 63 63
63 63 63
63 63 63
63 63 63
63 63 63
63 63 63
63 63 63
63 63 63
63 63 63
63 63 63
63 63 63
63 63 63
63 63 63
63 63 63
63 63 63
63 63 63
63 63 63
63 63 63
63 63 63
63 63 63
63 63 63
63 63 63
63 63 63
63 63 63
63 63 63
63 63 63
63 63 63
63 63 63
63 63 63
63 63 63
63 63 63
63 63 63
63 63 63
63 63 63
63 63 63
63 63 63
63 63 63
63 63 63
63 63 63
63 63 63
63 63 63
63 63 63
63 63 63
63 63 63
63 63 63
63 63 63
63 63 63
63 63 63
63 63 63
63 63 63
63 63 63
63 63 63
63 63 63
63 63 63
63 63 63
63 63 63
63 63 63
63 63 63
63 63 63
63 63 63
63 63 63
63 63 63
63 63 63
63 63 63
63 63 63
63 63 63
63 63 63
63 63 63
63 63 63
63 63 63
63 63 63
63 63 63
63 63 63
63 63 63
63 63 63
63 63 63
63 63 63
63 63 63
63 63 63
63 63 63
63 63 63
63 63 63
63 63 63
63 63 63
63 63 63
63 63 63
63 63 63
63 63 63
63 63 63
63 63 63
63 63 63
63 63 63
63 63 63
63 63 63
63 63 63
63 63 63
63 63 63
63 63 63
63 63 63
63 63 63
63 63 63
63 63 63
63 63 63
63 63 63
63 63 63
63 63 63
63 63 63
63 63 63
63 63 63
63 63 63
63 63 63
63 63 63
63 63 63
63 63 63
63 63 63
63 63 63
63 63 63
63 63 63
63 63 63
63 63 63
63 63 63
63 63 63
63 63 63
63 63 63
63 63 63
63 63 63
63 63 63
63 63 63
63 63 63
63 63 63
63 63 63
63 63 63
63 63 63
63 63 63
63 63 63
63 63 63
63 63 63
63 63 63
63 63 63
63 63 63
63 63 63
63 63 63
63 63 63
63 63 63
63 63 63
63 63 63
63 63 63
63 63 63
63 63 63
63 63 63
63 63 63
63 63 63
63 63 63
63 63 63
63 63 63
63 63 63
63 63 63
63 63 63
63 63 63
63 63 63
63 63 63
63 63 63
63 63 63
63 63 63
63 63 63
63 63 63
63 63 63
63 63 63
63 63 63
63 63 63
63 63 63
63 63 63
63 63 63
63 63 63
63 63 63
63 63 63
63 63 63
63 63 63
63 63 63
63 63 63
63 63 63
63 63 63
63 63 63
63 63 63
63 63 63
63 63 63
63 63 63
63 63 63
63 63 63
63 63 63
63 63 63
63 63 63
63 63 63
63 63 63
63 63 63
63 63 63
63 63 63
63 63 63
63 63 63
63 63 63
63 63 63
63 63 63
63 63 63
63 63 63
63 63 63
63 63 63
63 63 63
63 63 63
63 63 63
63 63 63
63 63 63
63 63 63
63 63 63
63 63 63
63 63 63
63 63 63
63 63 63
63 63 63
63 63 63
63 63 63
63 63 63
63 63 63
63 63 63
63 63 63
63 63 63
63 63 63
63 63 63
63 63 63
63 63 63
63 63 63
63 63 63
63 63 63
63 63 63
63 63 63
63 63 63
63 63 63
63 63 63
63 63 63
63 63 63
63 63 63
63 63 63
63 63 63
63 63 63
63 63 63
63 63 63
63 63 63
63 63 63
63 63 63
63 63 63
63 63 63
63 63 63
63 63 63
63 63 63
63 63 63
63 63 63
63 63 63
63 63 63
63 63 63
63 63 63
63 63 63
63 63 63
63 63 63
63 63 63
63 63 63
63 63 63
63 63 63
63 63 63
63 63 63
63 63 63
63 63 63
63 63 63
63 63 63
63 63 63
63 63 63
64 197 40
57 206 55
54 211 64
53 215 71
52 218 77
52 220 82
51 222 87
52 224 92
52 226 96
52 227 101
53 229 104
54 230 108
54 231 112
55 232 115
56 233 119
57 234 122
58 235 125
60 236 128
61 237 131
62 237 134
64 238 137
65 239 139
66 239 142
68 239 145
69 240 147
71 240 150
73 241 152
74 241 154
76 241 157
78 241 159
80 241 161
82 242 163
84 242 165
86 242 167
88 242 169
90 242 171
92 242 173
94 241 175
96 241 177
98 241 179
101 241 181
103 241 182
105 240 184
108 240 186
110 239 187
113 239 189
116 239 190
118 238 191
121 237 193
124 237 194
127 236 195
130 235 197
133 234 198
136 233 199
140 232 200
143 231 201
147 230 201
151 229 202
154 227 203
159 226 203
163 224 203
168 222 204
173 220 203
178 218 203
184 215 202
191 211 201
200 206 198
215 197 191
63 63 63
63 63 63
63 63 63
63 63 63
63 63 63
63 63 63
63 63 63
63 63 63
63 63 63
63 63 63
63 63 63
63 63 63
63 63 63
63 63 63
63 63 63
63 63 63
63 63 63
63 63 63
63 63 63
63 63 63
63 63 63
63 63 63
63 63 63
63 63 63
63 63 63
63 63 63
63 63 63
63 63 63
63 63 63
63 63 63
63 63 63
63 63 63
63 63 63
63 63 63
63 63 63
63 63 63
63 63 63
63 63 63
63 63 63
63 63 63
63 63 63
63 63 63
63 63 63
63 63 63
63 63 63
63 63 63
63 63 63
63 63 63
63 63 63
63 63 63
63 63 63
63 63 63
63 63 63
63 63 63
63 63 63
63 63 63
63 63 63
63 63 63
63 63 63
63 63 63
63 63 63
63 63 63
63 63 63
63 63 63
63 63 63
63 63 63
63 63 63
63 63 63
63 63 63
63 63 63
63 63 63
63 63 63
63 63 63
63 63 63
63 63 63
63 63 63
63 63 63
63 63 63
63 63 63
63 63 63
63 63 63
63 63 63
63 63 63
63 63 63
63 63 63
63 63 63
63 63 63
63 63 63
63 63 63
63 63 63
63 63 63
63 63 63
63 63 63
63 63 63
63 63 63
63 63 63
63 63 63
63 63 63
63 63 63
63 63 63
63 63 63
63 63 63
63 63 63
63 63 63
63 63 63
63 63 63
63 63 63
63 63 63
63 63 63
63 63 63
63 63 63
63 63 63
63 63 63
63 63 63
63 63 63
63 63 63
63 63 63
63 63 63
63 63 63
63 63 63
63 63 63
63 63 63
63 63 63
63 63 63
63 63 63
63 63 63
63 63 63
63 63 63
63 63 63
63 63 63
63 63 63
63 63 63
63 63 63
63 63 63
63 63 63
63 63 63
63 63 63
63 63 63
63 63 63
63 63 63
63 63 63
63 63 63
63 63 63
63 63 63
63 63 63
63 63 63
63 63 63
63 63 63
63 63 63
63 63 63
63 63 63
63 63 63
63 63 63
63 63 63
63 63 63
63 63 63
63 63 63
63 63 63
63 63 63
63 63 63
63 63 63
63 63 63
63 63 63
63 63 63
63 63 63
63 63 63
63 63 63
63 63 63
63 63 63
63 63 63
63 63 63
63 63 63
63 63 63
63 63 63
63 63 63
63 63 63
63 63 63
63 63 63
63 63 63
63 63 63
63 63 63
63 63 63
63 63 63
63 63 63
63 63 63
63 63 63
63 63 63
63 63 63
63 63 63
63 63 63
63 63 63
63 63 63
63 63 63
63 63 63
63 63 63
63 63 63
63 63 63
63 63 63
63 63 63
63 63 63
63 63 63
63 63 63
63 63 63
63 63 63
63 63 63
63 63 63
63 63 63
63 63 63
63 63 63
63 63 63
63 63 63
63 63 63
63 63 63
63 63 63
63 63 63
63 63 63
63 63 63
63 63 63
63 63 63
63 63 63
63 63 63
63 63 63
63 63 63
63 63 63
63 63 63
63 63 63
63 63 63
63 63 63
63 63 63
63 63 63
63 63 63
63 63 63
63 63 63
63 63 63
63 63 63
63 63 63
63 63 63
63 63 63
63 63 63
63 63 63
63 63 63
63 63 63
63 63 63
63 63 63
63 63 63
63 63 63
63 63 63
63 63 63
63 63 63
63 63 63
63 63 63
63 63 63
63 63 63
63 63 63
63 63 63
63 63 63
63 63 63
63 63 63
63 63 63
63 63 63
63 63 63
63 63 63
63 63 63
63 63 63
63 63 63
63 63 63
63 63 63
63 63 63
63 63 63
63 63 63
63 63 63
63 63 63
63 63 63
63 63 63
63 63 63
63 63 63
63 63 63
63 63 63
63 63 63
63 63 63
63 63 63
63 63 63
63 63 63
63 63 63
63 63 63
63 63 63
63 63 63
63 63 63
63 63 63
63 63 63
63 63 63
63 63 63
63 63 63
63 63 63
63 63 63
63 63 63
63 63 63
63 63 63
63 63 63
63 63 63
63 63 63
63 63 63
63 63 63
63 63 63
63 63 63
63 63 63
63 63 63
63 63 63
63 63 63
63 63 63
63 63 63
63 63 63
63 63 63
63 63 63
63 63 63
63 63 63
63 63 63
63 63 63
63 63 63
63 63 63
63 63 63
63 63 63
63 63 63
63 63 63
63 63 63
63 63 63
63 63 63
63 63 63
63 63 63
63 63 63
63 63 63
63 63 63
56 201 51
53 207 61
51 211 69
50 214 75
49 217 81
49 219 86
49 221 91
49 223 95
49 225 99
50 226 103
50 228 107
51 229 111
52 230 114
53 231 118
54 232 121
55 233 124
56 234 127
57 235 130
59 235 133
60 236 136
61 237 139
63 237 142
64 238 144
66 238 147
67 238 149
69 239 152
71 239 154
72 239 156
74 240 159
76 240 161
78 240 163
80 240 165
82 240 167
84 240 169
86 240 171
88 240 173
90 240 175
92 240 177
94 240 179
96 240 181
99 239 183
101 239 184
103 239 186
106 238 188
108 238 189
111 238 191
113 237 192
116 237 194
119 236 195
122 235 196
125 235 198
128 234 199
131 233 200
134 232 201
137 231 202
141 230 203
144 229 204
148 228 205
152 226 205
156 225 206
160 223 206
164 221 206
169 219 206
174 217 206
180 214 205
186 211 204
194 207 202
204 201 199
63 63 63
63 63 63
63 63 63
63 63 63
63 63 63
63 63 63
63 63 63
63 63 63
63 63 63
63 63 63
63 63 63
63 63 63
63 63 63
63 63 63
63 63 63
63 63 63
63 63 63
63 63 63
63 63 63
63 63 63
63 63 63
63 63 63
63 63 63
63 63 63
63 63 63
63 63 63
63 63 63
63 63 63
63 63 63
63 63 63
63 63 63
63 63 63
63 63 63
63 63 63
63 63 63
63 63 63
63 63 63
63 63 63
63 63 63
63 63 63
63 63 63
63 63 63
63 63 63
63 63 63
63 63 63
63 63 63
63 63 63
63 63 63
63 63 63
63 63 63
63 63 63
63 63 63
63 63 63
63 63 63
63 63 63
63 63 63
63 63 63
63 63 63
63 63 63
63 63 63
63 63 63
63 63 63
63 63 63
63 63 63
63 63 63
63 63 63
63 63 63
63 63 63
63 63 63
63 63 63
63 63 63
63 63 63
63 63 63
63 63 63
63 63 63
63 63 63
63 63 63
63 63 63
63 63 63
63 63 63
63 63 63
63 63 63
63 63 63
63 63 63
63 63 63
63 63 63
63 63 63
63 63 63
63 63 63
63 63 63
63 63 63
63 63 63
63 63 63
63 63 63
63 63 63
63 63 63
63 63 63
63 63 63
63 63 63
63 63 63
63 63 63
63 63 63
63 63 63
63 63 63
63 63 63
63 63 63
63 63 63
63 63 63
63 63 63
63 63 63
63 63 63
63 63 63
63 63 63
63 63 63
63 63 63
63 63 63
63 63 63
63 63 63
63 63 63
63 63 63
63 63 63
63 63 63
63 63 63
63 63 63
63 63 63
63 63 63
63 63 63
63 63 63
63 63 63
63 63 63
63 63 63
63 63 63
63 63 63
63 63 63
63 63 63
63 63 63
63 63 63
63 63 63
63 63 63
63 63 63
63 63 63
63 63 63
63 63 63
63 63 63
63 63 63
63 63 63
63 63 63
63 63 63
63 63 63
63 63 63
63 63 63
63 63 63
63 63 63
63 63 63
63 63 63
63 63 63
63 63 63
63 63 63
63 63 63
63 63 63
63 63 63
63 63 63
63 63 63
63 63 63
63 63 63
63 63 63
63 63 63
63 63 63
63 63 63
63 63 63
63 63 63
63 63 63
63 63 63
63 63 63
63 63 63
63 63 63
63 63 63
63 63 63
63 63 63
63 63 63
63 63 63
63 63 63
63 63 63
63 63 63
63 63 63
63 63 63
63 63 63
63 63 63
63 63 63
63 63 63
63 63 63
63 63 63
63 63 63
63 63 63
63 63 63
63 63 63
63 63 63
63 63 63
63 63 63
63 63 63
63 63 63
63 63 63
63 63 63
63 63 63
63 63 63
63 63 63
63 63 63
63 63 63
63 63 63
63 63 63
63 63 63
63 63 63
63 63 63
63 63 63
63 63 63
63 63 63
63 63 63
63 63 63
63 63 63
63 63 63
63 63 63
63 63 63
63 63 63
63 63 63
63 63 63
63 63 63
63 63 63
63 63 63
63 63 63
63 63 63
63 63 63
63 63 63
63 63 63
63 63 63
63 63 63
63 63 63
63 63 63
63 63 63
63 63 63
63 63 63
63 63 63
63 63 63
63 63 63
63 63 63
63 63 63
63 63 63
63 63 63
63 63 63
63 63 63
63 63 63
63 63 63
63 63 63
63 63 63
63 63 63
63 63 63
63 63 63
63 63 63
63 63 63
63 63 63
63 63 63
63 63 63
63 63 63
63 63 63
63 63 63
63 63 63
63 63 63
63 63 63
63 63 63
63 63 63
63 63 63
63 63 63
63 63 63
63 63 63
63 63 63
63 63 63
63 63 63
63 63 63
63 63 63
63 63 63
63 63 63
63 63 63
63 63 63
63 63 63
63 63 63
63 63 63
63 63 63
63 63 63
63 63 63
63 63 63
63 63 63
63 63 63
63 63 63
63 63 63
63 63 63
63 63 63
63 63 63
63 63 63
63 63 63
63 63 63
63 63 63
63 63 63
63 63 63
63 63 63
63 63 63
63 63 63
63 63 63
63 63 63
63 63 63
63 63 63
63 63 63
63 63 63
63 63 63
63 63 63
63 63 63
63 63 63
63 63 63
63 63 63
63 63 63
63 63 63
63 63 63
63 63 63
63 63 63
63 63 63
63 63 63
63 63 63
63 63 63
63 63 63
63 63 63
63 63 63
63 63 63
63 63 63
57 195 45
51 203 57
49 207 66
47 211 73
46 214 79
46 216 84
46 218 89
46 220 94
46 222 98
47 224 102
47 225 106
48 226 110
49 228 113
50 229 117
51 230 120
52 231 123
53 232 127
54 232 130
55 233 133
57 234 135
58 234 138
59 235 141
61 236 144
62 236 146
64 236 149
65 237 151
67 237 154
69 237 156
70 238 159
72 238 161
74 238 163
76 238 165
78 238 167
80 239 169
81 239 172
83 239 174
86 239 175
88 238 177
90 238 179
92 238 181
94 238 183
96 238 185
99 237 186
101 237 188
104 237 190
106 236 191
109 236 193
111 236 194
114 235 196
117 234 197
120 234 198
122 233 200
125 232 201
128 232 202
132 231 203
135 230 204
138 229 205
142 228 206
145 226 207
149 225 208
153 224 208
157 222 209
161 220 209
166 218 209
171 216 209
176 214 209
182 211 208
189 207 206
198 203 204
210 195 198
63 63 63
63 63 63
63 63 63
63 63 63
63 63 63
63 63 63
63 63 63
63 63 63
63 63 63
63 63 63
63 63 63
63 63 63
63 63 63
63 63 63
63 63 63
63 63 63
63 63 63
63 63 63
63 63 63
63 63 63
63 63 63
63 63 63
63 63 63
63 63 63
63 63 63
63 63 63
63 63 63
63 63 63
63 63 63
63 63 63
63 63 63
63 63 63
63 63 63
63 63 63
63 63 63
63 63 63
63 63 63
63 63 63
63 63 63
63 63 63
63 63 63
63 63 63
63 63 63
63 63 63
63 63 63
63 63 63
63 63 63
63 63 63
63 63 63
63 63 63
63 63 63
63 63 63
63 63 63
63 63 63
63 63 63
63 63 63
63 63 63
63 63 63
63 63 63
63 63 63
63 63 63
63 63 63
63 63 63
63 63 63
63 63 63
63 63 63
63 63 63
63 63 63
63 63 63
63 63 63
63 63 63
63 63 63
63 63 63
63 63 63
63 63 63
63 63 63
63 63 63
63 63 63
63 63 63
63 63 63
63 63 63
63 63 63
63 63 63
63 63 63
63 63 63
63 63 63
63 63 63
63 63 63
63 63 63
63 63 63
63 63 63
63 63 63
63 63 63
63 63 63
63 63 63
63 63 63
63 63 63
63 63 63
63 63 63
63 63 63
63 63 63
63 63 63
63 63 63
63 63 63
63 63 63
63 63 63
63 63 63
63 63 63
63 63 63
63 63 63
63 63 63
63 63 63
63 63 63
63 63 63
63 63 63
63 63 63
63 63 63
63 63 63
63 63 63
63 63 63
63 63 63
63 63 63
63 63 63
63 63 63
63 63 63
63 63 63
63 63 63
63 63 63
63 63 63
63 63 63
63 63 63
63 63 63
63 63 63
63 63 63
63 63 63
63 63 63
63 63 63
63 63 63
63 63 63
63 63 63
63 63 63
63 63 63
63 63 63
63 63 63
63 63 63
63 63 63
63 63 63
63 63 63
63 63 63
63 63 63
63 63 63
63 63 63
63 63 63
63 63 63
63 63 63
63 63 63
63 63 63
63 63 63
63 63 63
63 63 63
63 63 63
63 63 63
63 63 63
63 63 63
63 63 63
63 63 63
63 63 63
63 63 63
63 63 63
63 63 63
63 63 63
63 63 63
63 63 63
63 63 63
63 63 63
63 63 63
63 63 63
63 63 63
63 63 63
63 63 63
63 63 63
63 63 63
63 63 63
63 63 63
63 63 63
63 63 63
63 63 63
63 63 63
63 63 63
63 63 63
63 63 63
63 63 63
63 63 63
63 63 63
63 63 63
63 63 63
63 63 63
63 63 63
63 63 63
63 63 63
63 63 63
63 63 63
63 63 63
63 63 63
63 63 63
63 63 63
63 63 63
63 63 63
63 63 63
63 63 63
63 63 63
63 63 63
63 63 63
63 63 63
63 63 63
63 63 63
63 63 63
63 63 63
63 63 63
63 63 63
63 63 63
63 63 63
63 63 63
63 63 63
63 63 63
63 63 63
63 63 63
63 63 63
63 63 63
63 63 63
63 63 63
63 63 63
63 63 63
63 63 63
63 63 63
63 63 63
63 63 63
63 63 63
63 63 63
63 63 63
63 63 63
63 63 63
63 63 63
63 63 63
63 63 63
63 63 63
63 63 63
63 63 63
63 63 63
63 63 63
63 63 63
63 63 63
63 63 63
63 63 63
63 63 63
63 63 63
63 63 63
63 63 63
63 63 63
63 63 63
63 63 63
63 63 63
63 63 63
63 63 63
63 63 63
63 63 63
63 63 63
63 63 63
63 63 63
63 63 63
63 63 63
63 63 63
63 63 63
63 63 63
63 63 63
63 63 63
63 63 63
63 63 63
63 63 63
63 63 63
63 63 63
63 63 63
63 63 63
63 63 63
63 63 63
63 63 63
63 63 63
63 63 63
63 63 63
63 63 63
63 63 63
63 63 63
63 63 63
63 63 63
63 63 63
63 63 63
63 63 63
63 63 63
63 63 63
63 63 63
63 63 63
63 63 63
63 63 63
63 63 63
63 63 63
63 63 63
63 63 63
63 63 63
63 63 63
63 63 63
63 63 63
63 63 63
63 63 63
63 63 63
63 63 63
63 63 63
63 63 63
63 63 63
63 63 63
63 63 63
63 63 63
63 63 63
63 63 63
63 63 63
63 63 63
63 63 63
63 63 63
63 63 63
63 63 63
63 63 63
51 197 53
47 203 62
45 207 70
44 210 76
44 213 82
43 215 87
43 217 92
44 219 96
44 221 101
45 222 105
45 224 108
46 225 112
47 226 116
48 227 119
49 228 122
50 229 126
51 230 129
52 231 132
53 232 135
55 232 138
56 233 140
57 233 143
59 234 146
60 234 148
62 235 151
63 235 153
65 236 156
67 236 158
68 236 161
70 236 163
72 237 165
74 237 167
76 237 169
78 237 171
80 237 173
82 237 175
84 237 177
86 237 179
88 237 181
90 237 183
92 236 185
94 236 187
97 236 188
99 236 190
102 235 192
104 235 193
107 234 195
109 234 196
112 233 198
115 233 199
117 232 200
120 232 202
123 231 203
126 230 204
129 229 205
133 228 206
136 227 207
139 226 208
143 225 209
147 224 210
150 222 210
154 221 211
159 219 211
163 217 212
168 215 212
173 213 211
179 210 211
185 207 210
193 203 208
202 197 204
63 63 63
63 63 63
63 63 63
63 63 63
63 63 63
63 63 63
63 63 63
63 63 63
63 63 63
63 63 63
63 63 63
63 63 63
63 63 63
63 63 63
63 63 63
63 63 63
63 63 63
63 63 63
63 63 63
63 63 63
63 63 63
63 63 63
63 63 63
63 63 63
63 63 63
63 63 63
63 63 63
63 63 63
63 63 63
63 63 63
63 63 63
63 63 63
63 63 63
63 63 63
63 63 63
63 63 63
63 63 63
63 63 63
63 63 63
63 63 63
63 63 63
63 63 63
63 63 63
63 63 63
63 63 63
63 63 63
63 63 63
63 63 63
63 63 63
63 63 63
63 63 63
63 63 63
63 63 63
63 63 63
63 63 63
63 63 63
63 63 63
63 63 63
63 63 63
63 63 63
63 63 63
63 63 63
63 63 63
63 63 63
63 63 63
63 63 63
63 63 63
63 63 63
63 63 63
63 63 63
63 63 63
63 63 63
63 63 63
63 63 63
63 63 63
63 63 63
63 63 63
63 63 63
63 63 63
63 63 63
63 63 63
63 63 63
63 63 63
63 63 63
63 63 63
63 63 63
63 63 63
63 63 63
63 63 63
63 63 63
63 63 63
63 63 63
63 63 63
63 63 63
63 63 63
63 63 63
63 63 63
63 63 63
63 63 63
63 63 63
63 63 63
63 63 63
63 63 63
63 63 63
63 63 63
63 63 63
63 63 63
63 63 63
63 63 63
63 63 63
63 63 63
63 63 63
63 63 63
63 63 63
63 63 63
63 63 63
63 63 63
63 63 63
63 63 63
63 63 63
63 63 63
63 63 63
63 63 63
63 63 63
63 63 63
63 63 63
63 63 63
63 63 63
63 63 63
63 63 63
63 63 63
63 63 63
63 63 63
63 63 63
63 63 63
63 63 63
63 63 63
63 63 63
63 63 63
63 63 63
63 63 63
63 63 63
63 63 63
63 63 63
63 63 63
63 63 63
63 63 63
63 63 63
63 63 63
63 63 63
63 63 63
63 63 63
63 63 63
63 63 63
63 63 63
63 63 63
63 63 63
63 63 63
63 63 63
63 63 63
63 63 63
63 63 63
63 63 63
63 63 63
63 63 63
63 63 63
63 63 63
63 63 63
63 63 63
63 63 63
63 63 63
63 63 63
63 63 63
63 63 63
63 63 63
63 63 63
63 63 63
63 63 63
63 63 63
63 63 63
63 63 63
63 63 63
63 63 63
63 63 63
63 63 63
63 63 63
63 63 63
63 63 63
63 63 63
63 63 63
63 63 63
63 63 63
63 63 63
63 63 63
63 63 63
63 63 63
63 63 63
63 63 63
63 63 63
63 63 63
63 63 63
63 63 63
63 63 63
63 63 63
63 63 63
63 63 63
63 63 63
63 63 63
63 63 63
63 63 63
63 63 63
63 63 63
63 63 63
63 63 63
63 63 63
63 63 63
63 63 63
63 63 63
63 63 63
63 63 63
63 63 63
63 63 63
63 63 63
63 63 63
63 63 63
63 63 63
63 63 63
63 63 63
63 63 63
63 63 63
63 63 63
63 63 63
63 63 63
63 63 63
63 63 63
63 63 63
63 63 63
63 63 63
63 63 63
63 63 63
63 63 63
63 63 63
63 63 63
63 63 63
63 63 63
63 63 63
63 63 63
63 63 63
63 63 63
63 63 63
63 63 63
63 63 63
63 63 63
63 63 63
63 63 63
63 63 63
63 63 63
63 63 63
63 63 63
63 63 63
63 63 63
63 63 63
63 63 63
63 63 63
63 63 63
63 63 63
63 63 63
63 63 63
63 63 63
63 63 63
63 63 63
63 63 63
63 63 63
63 63 63
63 63 63
63 63 63
63 63 63
63 63 63
63 63 63
63 63 63
63 63 63
63 63 63
63 63 63
63 63 63
63 63 63
63 63 63
63 63 63
63 63 63
63 63 63
63 63 63
63 63 63
63 63 63
63 63 63
63 63 63
63 63 63
63 63 63
63 63 63
63 63 63
63 63 63
63 63 63
63 63 63
63 63 63
63 63 63
63 63 63
63 63 63
63 63 63
63 63 63
63 63 63
63 63 63
63 63 63
63 63 63
63 63 63
63 63 63
63 63 63
63 63 63
63 63 63
63 63 63
63 63 63
63 63 63
63 63 63
63 63 63
63 63 63
63 63 63
63 63 63
63 63 63
63 63 63
63 63 63
63 63 63
63 63 63
52 190 45
46 198 58
44 203 67
42 206 73
41 209 79
41 212 85
41 214 90
41 216 95
41 218 99
42 219 103
42 221 107
43 222 111
44 223 114
45 225 118
46 226 121
47 227 125
48 228 128
49 228 131
50 229 134
51 230 137
53 231 140
54 231 142
55 232 145
57 232 148
58 233 150
60 233 153
61 234 155
63 234 158
65 234 160
67 234 162
68 235 165
70 235 167
72 235 169
74 235 171
76 235 173
78 235 175
80 235 177
82 235 179
84 235 181
86 235 183
88 235 185
90 235 187
93 234 188
95 234 190
97 234 192
100 234 194
102 233 195
105 233 197
107 232 198
110 232 200
113 231 201
115 231 202
118 230 204
121 229 205
124 228 206
127 228 207
130 227 208
134 226 209
137 225 210
141 223 211
144 222 212
148 221 213
152 219 213
156 218 214
160 216 214
165 214 214
170 212 214
176 209 214
182 206 213
188 203 211
197 198 209
210 190 203
63 63 63
63 63 63
63 63 63
63 63 63
63 63 63
63 63 63
63 63 63
63 63 63
63 63 63
63 63 63
63 63 63
63 63 63
63 63 63
63 63 63
63 63 63
63 63 63
63 63 63
63 63 63
63 63 63
63 63 63
63 63 63
63 63 63
63 63 63
63 63 63
63 63 63
63 63 63
63 63 63
63 63 63
63 63 63
63 63 63
63 63 63
63 63 63
63 63 63
63 63 63
63 63 63
63 63 63
63 63 63
63 63 63
63 63 63
63 63 63
63 63 63
63 63 63
63 63 63
63 63 63
63 63 63
63 63 63
63 63 63
63 63 63
63 63 63
63 63 63
63 63 63
63 63 63
63 63 63
63 63 63
63 63 63
63 63 63
63 63 63
63 63 63
63 63 63
63 63 63
63 63 63
63 63 63
63 63 63
63 63 63
63 63 63
63 63 63
63 63 63
63 63 63
63 63 63
63 63 63
63 63 63
63 63 63
63 63 63
63 63 63
63 63 63
63 63 63
63 63 63
63 63 63
63 63 63
63 63 63
63 63 63
63 63 63
63 63 63
63 63 63
63 63 63
63 63 63
63 63 63
63 63 63
63 63 63
63 63 63
63 63 63
63 63 63
63 63 63
63 63 63
63 63 63
63 63 63
63 63 63
63 63 63
63 63 63
63 63 63
63 63 63
63 63 63
63 63 63
63 63 63
63 63 63
63 63 63
63 63 63
63 63 63
63 63 63
63 63 63
63 63 63
63 63 63
63 63 63
63 63 63
63 63 63
63 63 63
63 63 63
63 63 63
63 63 63
63 63 63
63 63 63
63 63 63
63 63 63
63 63 63
63 63 63
63 63 63
63 63 63
63 63 63
63 63 63
63 63 63
63 63 63
63 63 63
63 63 63
63 63 63
63 63 63
63 63 63
63 63 63
63 63 63
63 63 63
63 63 63
63 63 63
63 63 63
63 63 63
63 63 63
63 63 63
63 63 63
63 63 63
63 63 63
63 63 63
63 63 63
63 63 63
63 63 63
63 63 63
63 63 63
63 63 63
63 63 63
63 63 63
63 63 63
63 63 63
63 63 63
63 63 63
63 63 63
63 63 63
63 63 63
63 63 63
63 63 63
63 63 63
63 63 63
63 63 63
63 63 63
63 63 63
63 63 63
63 63 63
63 63 63
63 63 63
63 63 63
63 63 63
63 63 63
63 63 63
63 63 63
63 63 63
63 63 63
63 63 63
63 63 63
63 63 63
63 63 63
63 63 63
63 63 63
63 63 63
63 63 63
63 63 63
63 63 63
63 63 63
63 63 63
63 63 63
63 63 63
63 63 63
63 63 63
63 63 63
63 63 63
63 63 63
63 63 63
63 63 63
63 63 63
63 63 63
63 63 63
63 63 63
63 63 63
63 63 63
63 63 63
63 63 63
63 63 63
63 63 63
63 63 63
63 63 63
63 63 63
63 63 63
63 63 63
63 63 63
63 63 63
63 63 63
63 63 63
63 63 63
63 63 63
63 63 63
63 63 63
63 63 63
63 63 63
63 63 63
63 63 63
63 63 63
63 63 63
63 63 63
63 63 63
63 63 63
63 63 63
63 63 63
63 63 63
63 63 63
63 63 63
63 63 63
63 63 63
63 63 63
63 63 63
63 63 63
63 63 63
63 63 63
63 63 63
63 63 63
63 63 63
63 63 63
63 63 63
63 63 63
63 63 63
63 63 63
63 63 63
63 63 63
63 63 63
63 63 63
63 63 63
63 63 63
63 63 63
63 63 63
63 63 63
63 63 63
63 63 63
63 63 63
63 63 63
63 63 63
63 63 63
63 63 63
63 63 63
63 63 63
63 63 63
63 63 63
63 63 63
63 63 63
63 63 63
63 63 63
63 63 63
63 63 63
63 63 63
63 63 63
63 63 63
63 63 63
63 63 63
63 63 63
63 63 63
63 63 63
63 63 63
63 63 63
63 63 63
63 63 63
63 63 63
63 63 63
63 63 63
63 63 63
63 63 63
63 63 63
63 63 63
63 63 63
63 63 63
63 63 63
63 63 63
63 63 63
63 63 63
63 63 63
63 63 63
63 63 63
63 63 63
63 63 63
63 63 63
63 63 63
63 63 63
63 63 63
63 63 63
63 63 63
63 63 63
63 63 63
63 63 63
63 63 63
63 63 63
63 63 63
63 63 63
63 63 63
63 63 63
63 63 63
63 63 63
46 192 53
42 198 63
41 202 70
39 205 77
39 208 82
39 211 88
39 213 93
39 215 97
39 216 101
40 218 105
40 219 109
41 221 113
42 222 117
43 223 120
44 224 124
45 225 127
46 226 130
47 227 133
48 228 136
49 228 139
51 229 142
52 230 144
54 230 147
55 231 150
56 231 152
58 231 155
60 232 157
61 232 160
63 233 162
65 233 164
66 233 167
68 233 169
70 233 171
72 233 173
74 233 175
76 234 177
78 234 179
80 233 181
82 233 183
84 233 185
86 233 187
88 233 189
91 233 190
93 233 192
95 232 194
98 232 195
100 231 197
103 231 199
105 231 200
108 230 201
111 230 203
113 229 204
116 228 206
119 228 207
122 227 208
125 226 209
128 225 210
131 224 211
135 223 212
138 222 213
142 221 214
146 219 215
150 218 215
154 216 216
158 215 216
162 213 216
167 211 216
173 208 216
178 205 216
185 202 214
192 198 213
202 192 209
63 63 63
63 63 63
63 63 63
63 63 63
63 63 63
63 63 63
63 63 63
63 63 63
63 63 63
63 63 63
63 63 63
63 63 63
63 63 63
63 63 63
63 63 63
63 63 63
63 63 63
63 63 63
63 63 63
63 63 63
63 63 63
63 63 63
63 63 63
63 63 63
63 63 63
63 63 63
63 63 63
63 63 63
63 63 63
63 63 63
63 63 63
63 63 63
63 63 63
63 63 63
63 63 63
63 63 63
63 63 63
63 63 63
63 63 63
63 63 63
63 63 63
63 63 63
63 63 63
63 63 63
63 63 63
63 63 63
63 63 63
63 63 63
63 63 63
63 63 63
63 63 63
63 63 63
63 63 63
63 63 63
63 63 63
63 63 63
63 63 63
63 63 63
63 63 63
63 63 63
63 63 63
63 63 63
63 63 63
63 63 63
63 63 63
63 63 63
63 63 63
63 63 63
63 63 63
63 63 63
63 63 63
63 63 63
63 63 63
63 63 63
63 63 63
63 63 63
63 63 63
63 63 63
63 63 63
63 63 63
63 63 63
63 63 63
63 63 63
63 63 63
63 63 63
63 63 63
63 63 63
63 63 63
63 63 63
63 63 63
63 63 63
63 63 63
63 63 63
63 63 63
63 63 63
63 63 63
63 63 63
63 63 63
63 63 63
63 63 63
63 63 63
63 63 63
63 63 63
63 63 63
63 63 63
63 63 63
63 63 63
63 63 63
63 63 63
63 63 63
63 63 63
63 63 63
63 63 63
63 63 63
63 63 63
63 63 63
63 63 63
63 63 63
63 63 63
63 63 63
63 63 63
63 63 63
63 63 63
63 63 63
63 63 63
63 63 63
63 63 63
63 63 63
63 63 63
63 63 63
63 63 63
63 63 63
63 63 63
63 63 63
63 63 63
63 63 63
63 63 63
63 63 63
63 63 63
63 63 63
63 63 63
63 63 63
63 63 63
63 63 63
63 63 63
63 63 63
63 63 63
63 63 63
63 63 63
63 63 63
63 63 63
63 63 63
63 63 63
63 63 63
63 63 63
63 63 63
63 63 63
63 63 63
63 63 63
63 63 63
63 63 63
63 63 63
63 63 63
63 63 63
63 63 63
63 63 63
63 63 63
63 63 63
63 63 63
63 63 63
63 63 63
63 63 63
63 63 63
63 63 63
63 63 63
63 63 63
63 63 63
63 63 63
63 63 63
63 63 63
63 63 63
63 63 63
63 63 63
63 63 63
63 63 63
63 63 63
63 63 63
63 63 63
63 63 63
63 63 63
63 63 63
63 63 63
63 63 63
63 63 63
63 63 63
63 63 63
63 63 63
63 63 63
63 63 63
63 63 63
63 63 63
63 63 63
63 63 63
63 63 63
63 63 63
63 63 63
63 63 63
63 63 63
63 63 63
63 63 63
63 63 63
63 63 63
63 63 63
63 63 63
63 63 63
63 63 63
63 63 63
63 63 63
63 63 63
63 63 63
63 63 63
63 63 63
63 63 63
63 63 63
63 63 63
63 63 63
63 63 63
63 63 63
63 63 63
63 63 63
63 63 63
63 63 63
63 63 63
63 63 63
63 63 63
63 63 63
63 63 63
63 63 63
63 63 63
63 63 63
63 63 63
63 63 63
63 63 63
63 63 63
63 63 63
63 63 63
63 63 63
63 63 63
63 63 63
63 63 63
63 63 63
63 63 63
63 63 63
63 63 63
63 63 63
63 63 63
63 63 63
63 63 63
63 63 63
63 63 63
63 63 63
63 63 63
63 63 63
63 63 63
63 63 63
63 63 63
63 63 63
63 63 63
63 63 63
63 63 63
63 63 63
63 63 63
63 63 63
63 63 63
63 63 63
63 63 63
63 63 63
63 63 63
63 63 63
63 63 63
63 63 63
63 63 63
63 63 63
63 63 63
63 63 63
63 63 63
63 63 63
63 63 63
63 63 63
63 63 63
63 63 63
63 63 63
63 63 63
63 63 63
63 63 63
63 63 63
63 63 63
63 63 63
63 63 63
63 63 63
63 63 63
63 63 63
63 63 63
63 63 63
63 63 63
63 63 63
63 63 63
63 63 63
63 63 63
63 63 63
63 63 63
63 63 63
63 63 63
63 63 63
63 63 63
63 63 63
63 63 63
63 63 63
63 63 63
63 63 63
63 63 63
63 63 63
63 63 63
63 63 63
63 63 63
63 63 63
63 63 63
48 183 44
42 192 58
39 197 67
38 201 74
37 204 80
36 207 85
36 209 90
36 211 95
37 213 100
37 215 104
38 216 108
38 218 112
39 219 115
40 220 119
41 221 122
42 222 126
43 223 129
44 224 132
45 225 135
46 226 138
48 227 141
49 227 144
50 228 146
52 228 149
53 229 152
55 229 154
56 230 157
58 230 159
59 230 161
61 231 164
63 231 166
65 231 168
66 231 171
68 232 173
70 232 175
72 232 177
74 232 179
76 232 181
78 232 183
80 232 185
82 232 187
84 231 189
87 231 190
89 231 192
91 231 194
94 230 196
96 230 197
98 230 199
101 229 200
103 229 202
106 228 203
109 228 205
111 227 206
114 227 207
117 226 209
120 225 210
123 224 211
126 223 212
129 222 213
133 221 214
136 220 215
140 219 216
143 218 217
147 216 217
151 215 218
155 213 218
160 211 219
165 209 219
170 207 219
175 204 218
181 201 217
188 197 216
197 192 213
211 183 207
63 63 63
63 63 63
63 63 63
63 63 63
63 63 63
63 63 63
63 63 63
63 63 63
63 63 63
63 63 63
63 63 63
63 63 63
63 63 63
63 63 63
63 63 63
63 63 63
63 63 63
63 63 63
63 63 63
63 63 63
63 63 63
63 63 63
63 63 63
63 63 63
63 63 63
63 63 63
63 63 63
63 63 63
63 63 63
63 63 63
63 63 63
63 63 63
63 63 63
63 63 63
63 63 63
63 63 63
63 63 63
63 63 63
63 63 63
63 63 63
63 63 63
63 63 63
63 63 63
63 63 63
63 63 63
63 63 63
63 63 63
63 63 63
63 63 63
63 63 63
63 63 63
63 63 63
63 63 63
63 63 63
63 63 63
63 63 63
63 63 63
63 63 63
63 63 63
63 63 63
63 63 63
63 63 63
63 63 63
63 63 63
63 63 63
63 63 63
63 63 63
63 63 63
63 63 63
63 63 63
63 63 63
63 63 63
63 63 63
63 63 63
63 63 63
63 63 63
63 63 63
63 63 63
63 63 63
63 63 63
63 63 63
63 63 63
63 63 63
63 63 63
63 63 63
63 63 63
63 63 63
63 63 63
63 63 63
63 63 63
63 63 63
63 63 63
63 63 63
63 63 63
63 63 63
63 63 63
63 63 63
63 63 63
63 63 63
63 63 63
63 63 63
63 63 63
63 63 63
63 63 63
63 63 63
63 63 63
63 63 63
63 63 63
63 63 63
63 63 63
63 63 63
63 63 63
63 63 63
63 63 63
63 63 63
63 63 63
63 63 63
63 63 63
63 63 63
63 63 63
63 63 63
63 63 63
63 63 63
63 63 63
63 63 63
63 63 63
63 63 63
63 63 63
63 63 63
63 63 63
63 63 63
63 63 63
63 63 63
63 63 63
63 63 63
63 63 63
63 63 63
63 63 63
63 63 63
63 63 63
63 63 63
63 63 63
63 63 63
63 63 63
63 63 63
63 63 63
63 63 63
63 63 63
63 63 63
63 63 63
63 63 63
63 63 63
63 63 63
63 63 63
63 63 63
63 63 63
63 63 63
63 63 63
63 63 63
63 63 63
63 63 63
63 63 63
63 63 63
63 63 63
63 63 63
63 63 63
63 63 63
63 63 63
63 63 63
63 63 63
63 63 63
63 63 63
63 63 63
63 63 63
63 63 63
63 63 63
63 63 63
63 63 63
63 63 63
63 63 63
63 63 63
63 63 63
63 63 63
63 63 63
63 63 63
63 63 63
63 63 63
63 63 63
63 63 63
63 63 63
63 63 63
63 63 63
63 63 63
63 63 63
63 63 63
63 63 63
63 63 63
63 63 63
63 63 63
63 63 63
63 63 63
63 63 63
63 63 63
63 63 63
63 63 63
63 63 63
63 63 63
63 63 63
63 63 63
63 63 63
63 63 63
63 63 63
63 63 63
63 63 63
63 63 63
63 63 63
63 63 63
63 63 63
63 63 63
63 63 63
63 63 63
63 63 63
63 63 63
63 63 63
63 63 63
63 63 63
63 63 63
63 63 63
63 63 63
63 63 63
63 63 63
63 63 63
63 63 63
63 63 63
63 63 63
63 63 63
63 63 63
63 63 63
63 63 63
63 63 63
63 63 63
63 63 63
63 63 63
63 63 63
63 63 63
63 63 63
63 63 63
63 63 63
63 63 63
63 63 63
63 63 63
63 63 63
63 63 63
63 63 63
63 63 63
63 63 63
63 63 63
63 63 63
63 63 63
63 63 63
63 63 63
63 63 63
63 63 63
63 63 63
63 63 63
63 63 63
63 63 63
63 63 63
63 63 63
63 63 63
63 63 63
63 63 63
63 63 63
63 63 63
63 63 63
63 63 63
63 63 63
63 63 63
63 63 63
63 63 63
63 63 63
63 63 63
63 63 63
63 63 63
63 63 63
63 63 63
63 63 63
63 63 63
63 63 63
63 63 63
63 63 63
63 63 63
63 63 63
63 63 63
63 63 63
63 63 63
63 63 63
63 63 63
63 63 63
63 63 63
63 63 63
63 63 63
63 63 63
63 63 63
63 63 63
63 63 63
63 63 63
63 63 63
63 63 63
63 63 63
63 63 63
63 63 63
63 63 63
63 63 63
63 63 63
63 63 63
63 63 63
63 63 63
63 63 63
63 63 63
63 63 63
63 63 63
63 63 63
63 63 63
63 63 63
63 63 63
43 185 51
38 192 62
36 197 70
35 200 77
34 203 83
34 206 88
34 208 93
34 210 98
35 212 102
35 213 106
36 215 110
36 216 114
37 217 117
38 219 121
39 220 124
40 221 128
41 222 131
42 223 134
43 223 137
44 224 140
46 225 143
47 225 145
49 226 148
50 227 151
51 227 153
53 228 156
55 228 158
56 228 161
58 229 163
59 229 166
61 229 168
63 229 170
65 230 172
67 230 174
68 230 177
70 230 179
72 230 181
74 230 183
76 230 185
78 230 187
81 230 188
83 230 190
85 229 192
87 229 194
89 229 196
92 229 197
94 228 199
97 228 200
99 228 202
102 227 204
104 227 205
107 226 206
110 225 208
112 225 209
115 224 211
118 223 212
121 223 213
124 222 214
127 221 215
131 220 216
134 219 217
138 217 218
141 216 219
145 215 219
149 213 220
153 212 220
157 210 221
162 208 221
167 206 221
172 203 221
178 200 220
185 197 219
193 192 217
204 185 212
63 63 63
63 63 63
63 63 63
63 63 63
63 63 63
63 63 63
63 63 63
63 63 63
63 63 63
63 63 63
63 63 63
63 63 63
63 63 63
63 63 63
63 63 63
63 63 63
63 63 63
63 63 63
63 63 63
63 63 63
63 63 63
63 63 63
63 63 63
63 63 63
63 63 63
63 63 63
63 63 63
63 63 63
63 63 63
63 63 63
63 63 63
63 63 63
63 63 63
63 63 63
63 63 63
63 63 63
63 63 63
63 63 63
63 63 63
63 63 63
63 63 63
63 63 63
63 63 63
63 63 63
63 63 63
63 63 63
63 63 63
63 63 63
63 63 63
63 63 63
63 63 63
63 63 63
63 63 63
63 63 63
63 63 63
63 63 63
63 63 63
63 63 63
63 63 63
63 63 63
63 63 63
63 63 63
63 63 63
63 63 63
63 63 63
63 63 63
63 63 63
63 63 63
63 63 63
63 63 63
63 63 63
63 63 63
63 63 63
63 63 63
63 63 63
63 63 63
63 63 63
63 63 63
63 63 63
63 63 63
63 63 63
63 63 63
63 63 63
63 63 63
63 63 63
63 63 63
63 63 63
63 63 63
63 63 63
63 63 63
63 63 63
63 63 63
63 63 63
63 63 63
63 63 63
63 63 63
63 63 63
63 63 63
63 63 63
63 63 63
63 63 63
63 63 63
63 63 63
63 63 63
63 63 63
63 63 63
63 63 63
63 63 63
63 63 63
63 63 63
63 63 63
63 63 63
63 63 63
63 63 63
63 63 63
63 63 63
63 63 63
63 63 63
63 63 63
63 63 63
63 63 63
63 63 63
63 63 63
63 63 63
63 63 63
63 63 63
63 63 63
63 63 63
63 63 63
63 63 63
63 63 63
63 63 63
63 63 63
63 63 63
63 63 63
63 63 63
63 63 63
63 63 63
63 63 63
63 63 63
63 63 63
63 63 63
63 63 63
63 63 63
63 63 63
63 63 63
63 63 63
63 63 63
63 63 63
63 63 63
63 63 63
63 63 63
63 63 63
63 63 63
63 63 63
63 63 63
63 63 63
63 63 63
63 63 63
63 63 63
63 63 63
63 63 63
63 63 63
63 63 63
63 63 63
63 63 63
63 63 63
63 63 63
63 63 63
63 63 63
63 63 63
63 63 63
63 63 63
63 63 63
63 63 63
63 63 63
63 63 63
63 63 63
63 63 63
63 63 63
63 63 63
63 63 63
63 63 63
63 63 63
63 63 63
63 63 63
63 63 63
63 63 63
63 63 63
63 63 63
63 63 63
63 63 63
63 63 63
63 63 63
63 63 63
63 63 63
63 63 63
63 63 63
63 63 63
63 63 63
63 63 63
63 63 63
63 63 63
63 63 63
63 63 63
63 63 63
63 63 63
63 63 63
63 63 63
63 63 63
63 63 63
63 63 63
63 63 63
63 63 63
63 63 63
63 63 63
63 63 63
63 63 63
63 63 63
63 63 63
63 63 63
63 63 63
63 63 63
63 63 63
63 63 63
63 63 63
63 63 63
63 63 63
63 63 63
63 63 63
63 63 63
63 63 63
63 63 63
63 63 63
63 63 63
63 63 63
63 63 63
63 63 63
63 63 63
63 63 63
63 63 63
63 63 63
63 63 63
63 63 63
63 63 63
63 63 63
63 63 63
63 63 63
63 63 63
63 63 63
63 63 63
63 63 63
63 63 63
63 63 63
63 63 63
63 63 63
63 63 63
63 63 63
63 63 63
63 63 63
63 63 63
63 63 63
63 63 63
63 63 63
63 63 63
63 63 63
63 63 63
63 63 63
63 63 63
63 63 63
63 63 63
63 63 63
63 63 63
63 63 63
63 63 63
63 63 63
63 63 63
63 63 63
63 63 63
63 63 63
63 63 63
63 63 63
63 63 63
63 63 63
63 63 63
63 63 63
63 63 63
63 63 63
63 63 63
63 63 63
63 63 63
63 63 63
63 63 63
63 63 63
63 63 63
63 63 63
63 63 63
63 63 63
63 63 63
63 63 63
63 63 63
63 63 63
63 63 63
63 63 63
63 63 63
63 63 63
63 63 63
63 63 63
63 63 63
63 63 63
63 63 63
63 63 63
63 63 63
63 63 63
63 63 63
63 63 63
63 63 63
63 63 63
63 63 63
63 63 63
63 63 63
63 63 63
63 63 63
63 63 63
63 63 63
63 63 63
39 186 56
35 191 66
34 196 73
33 199 79
32 202 85
32 204 90
32 206 95
32 208 100
33 210 104
33 212 108
34 213 112
34 215 116
35 216 119
36 217 123
37 218 126
38 219 130
39 220 133
40 221 136
41 222 139
43 222 142
44 223 144
45 224 147
47 224 150
48 225 153
50 225 155
51 226 158
53 226 160
54 227 163
56 227 165
58 227 167
59 227 170
61 228 172
63 228 174
65 228 176
67 228 178
69 228 180
71 228 182
73 228 184
75 228 186
77 228 188
79 228 190
81 228 192
83 228 194
85 227 196
88 227 197
90 227 199
92 227 201
95 226 202
97 226 204
100 225 205
102 225 207
105 224 208
108 224 210
111 223 211
113 222 212
116 222 214
119 221 215
122 220 216
125 219 217
129 218 218
132 217 219
136 216 220
139 215 221
143 213 221
147 212 222
151 210 222
155 208 223
160 206 223
165 204 223
170 202 223
176 199 222
182 196 221
189 191 220
199 186 216
63 63 63
63 63 63
63 63 63
63 63 63
63 63 63
63 63 63
63 63 63
63 63 63
63 63 63
63 63 63
63 63 63
63 63 63
63 63 63
63 63 63
63 63 63
63 63 63
63 63 63
63 63 63
63 63 63
63 63 63
63 63 63
63 63 63
63 63 63
63 63 63
63 63 63
63 63 63
63 63 63
63 63 63
63 63 63
63 63 63
63 63 63
63 63 63
63 63 63
63 63 63
63 63 63
63 63 63
63 63 63
63 63 63
63 63 63
63 63 63
63 63 63
63 63 63
63 63 63
63 63 63
63 63 63
63 63 63
63 63 63
63 63 63
63 63 63
63 63 63
63 63 63
63 63 63
63 63 63
63 63 63
63 63 63
63 63 63
63 63 63
63 63 63
63 63 63
63 63 63
63 63 63
63 63 63
63 63 63
63 63 63
63 63 63
63 63 63
63 63 63
63 63 63
63 63 63
63 63 63
63 63 63
63 63 63
63 63 63
63 63 63
63 63 63
63 63 63
63 63 63
63 63 63
63 63 63
63 63 63
63 63 63
63 63 63
63 63 63
63 63 63
63 63 63
63 63 63
63 63 63
63 63 63
63 63 63
63 63 63
63 63 63
63 63 63
63 63 63
63 63 63
63 63 63
63 63 63
63 63 63
63 63 63
63 63 63
63 63 63
63 63 63
63 63 63
63 63 63
63 63 63
63 63 63
63 63 63
63 63 63
63 63 63
63 63 63
63 63 63
63 63 63
63 63 63
63 63 63
63 63 63
63 63 63
63 63 63
63 63 63
63 63 63
63 63 63
63 63 63
63 63 63
63 63 63
63 63 63
63 63 63
63 63 63
63 63 63
63 63 63
63 63 63
63 63 63
63 63 63
63 63 63
63 63 63
63 63 63
63 63 63
63 63 63
63 63 63
63 63 63
63 63 63
63 63 63
63 63 63
63 63 63
63 63 63
63 63 63
63 63 63
63 63 63
63 63 63
63 63 63
63 63 63
63 63 63
63 63 63
63 63 63
63 63 63
63 63 63
63 63 63
63 63 63
63 63 63
63 63 63
63 63 63
63 63 63
63 63 63
63 63 63
63 63 63
63 63 63
63 63 63
63 63 63
63 63 63
63 63 63
63 63 63
63 63 63
63 63 63
63 63 63
63 63 63
63 63 63
63 63 63
63 63 63
63 63 63
63 63 63
63 63 63
63 63 63
63 63 63
63 63 63
63 63 63
63 63 63
63 63 63
63 63 63
63 63 63
63 63 63
63 63 63
63 63 63
63 63 63
63 63 63
63 63 63
63 63 63
63 63 63
63 63 63
63 63 63
63 63 63
63 63 63
63 63 63
63 63 63
63 63 63
63 63 63
63 63 63
63 63 63
63 63 63
63 63 63
63 63 63
63 63 63
63 63 63
63 63 63
63 63 63
63 63 63
63 63 63
63 63 63
63 63 63
63 63 63
63 63 63
63 63 63
63 63 63
63 63 63
63 63 63
63 63 63
63 63 63
63 63 63
63 63 63
63 63 63
63 63 63
63 63 63
63 63 63
63 63 63
63 63 63
63 63 63
63 63 63
63 63 63
63 63 63
63 63 63
63 63 63
63 63 63
63 63 63
63 63 63
63 63 63
63 63 63
63 63 63
63 63 63
63 63 63
63 63 63
63 63 63
63 63 63
63 63 63
63 63 63
63 63 63
63 63 63
63 63 63
63 63 63
63 63 63
63 63 63
63 63 63
63 63 63
63 63 63
63 63 63
63 63 63
63 63 63
63 63 63
63 63 63
63 63 63
63 63 63
63 63 63
63 63 63
63 63 63
63 63 63
63 63 63
63 63 63
63 63 63
63 63 63
63 63 63
63 63 63
63 63 63
63 63 63
63 63 63
63 63 63
63 63 63
63 63 63
63 63 63
63 63 63
63 63 63
63 63 63
63 63 63
63 63 63
63 63 63
63 63 63
63 63 63
63 63 63
63 63 63
63 63 63
63 63 63
63 63 63
63 63 63
63 63 63
63 63 63
63 63 63
63 63 63
63 63 63
63 63 63
63 63 63
63 63 63
63 63 63
63 63 63
63 63 63
63 63 63
63 63 63
63 63 63
63 63 63
63 63 63
63 63 63
63 63 63
63 63 63
63 63 63
63 63 63
63 63 63
63 63 63
63 63 63
63 63 63
63 63 63
63 63 63
63 63 63
41 177 47
35 185 60
33 191 69
31 194 76
30 198 82
30 200 88
30 203 93
30 205 97
30 207 102
31 208 106
31 210 110
32 211 114
33 213 118
33 214 121
34 215 125
35 216 128
36 217 131
37 218 134
39 219 138
40 220 141
41 221 143
42 221 146
44 222 149
45 222 152
47 223 154
48 223 157
50 224 159
51 224 162
53 225 164
54 225 167
56 225 169
58 226 171
60 226 173
61 226 176
63 226 178
65 226 180
67 226 182
69 226 184
71 226 186
73 226 188
75 226 190
77 226 192
79 226 194
82 226 195
84 226 197
86 225 199
88 225 201
91 225 202
93 224 204
96 224 205
98 223 207
101 223 208
103 222 210
106 222 211
109 221 213
112 221 214
114 220 215
117 219 216
121 218 218
124 217 219
127 216 220
130 215 221
134 214 222
137 213 222
141 211 223
145 210 224
149 208 224
153 207 225
158 205 225
162 203 225
167 200 225
173 198 225
179 194 224
186 191 222
195 185 220
208 177 214
63 63 63
63 63 63
63 63 63
63 63 63
63 63 63
63 63 63
63 63 63
63 63 63
63 63 63
63 63 63
63 63 63
63 63 63
63 63 63
63 63 63
63 63 63
63 63 63
63 63 63
63 63 63
63 63 63
63 63 63
63 63 63
63 63 63
63 63 63
63 63 63
63 63 63
63 63 63
63 63 63
63 63 63
63 63 63
63 63 63
63 63 63
63 63 63
63 63 63
63 63 63
63 63 63
63 63 63
63 63 63
63 63 63
63 63 63
63 63 63
63 63 63
63 63 63
63 63 63
63 63 63
63 63 63
63 63 63
63 63 63
63 63 63
63 63 63
63 63 63
63 63 63
63 63 63
63 63 63
63 63 63
63 63 63
63 63 63
63 63 63
63 63 63
63 63 63
63 63 63
63 63 63
63 63 63
63 63 63
63 63 63
63 63 63
63 63 63
63 63 63
63 63 63
63 63 63
63 63 63
63 63 63
63 63 63
63 63 63
63 63 63
63 63 63
63 63 63
63 63 63
63 63 63
63 63 63
63 63 63
63 63 63
63 63 63
63 63 63
63 63 63
63 63 63
63 63 63
63 63 63
63 63 63
63 63 63
63 63 63
63 63 63
63 63 63
63 63 63
63 63 63
63 63 63
63 63 63
63 63 63
63 63 63
63 63 63
63 63 63
63 63 63
63 63 63
63 63 63
63 63 63
63 63 63
63 63 63
63 63 63
63 63 63
63 63 63
63 63 63
63 63 63
63 63 63
63 63 63
63 63 63
63 63 63
63 63 63
63 63 63
63 63 63
63 63 63
63 63 63
63 63 63
63 63 63
63 63 63
63 63 63
63 63 63
63 63 63
63 63 63
63 63 63
63 63 63
63 63 63
63 63 63
63 63 63
63 63 63
63 63 63
63 63 63
63 63 63
63 63 63
63 63 63
63 63 63
63 63 63
63 63 63
63 63 63
63 63 63
63 63 63
63 63 63
63 63 63
63 63 63
63 63 63
63 63 63
63 63 63
63 63 63
63 63 63
63 63 63
63 63 63
63 63 63
63 63 63
63 63 63
63 63 63
63 63 63
63 63 63
63 63 63
63 63 63
63 63 63
63 63 63
63 63 63
63 63 63
63 63 63
63 63 63
63 63 63
63 63 63
63 63 63
63 63 63
63 63 63
63 63 63
63 63 63
63 63 63
63 63 63
63 63 63
63 63 63
63 63 63
63 63 63
63 63 63
63 63 63
63 63 63
63 63 63
63 63 63
63 63 63
63 63 63
63 63 63
63 63 63
63 63 63
63 63 63
63 63 63
63 63 63
63 63 63
63 63 63
63 63 63
63 63 63
63 63 63
63 63 63
63 63 63
63 63 63
63 63 63
63 63 63
63 63 63
63 63 63
63 63 63
63 63 63
63 63 63
63 63 63
63 63 63
63 63 63
63 63 63
63 63 63
63 63 63
63 63 63
63 63 63
63 63 63
63 63 63
63 63 63
63 63 63
63 63 63
63 63 63
63 63 63
63 63 63
63 63 63
63 63 63
63 63 63
63 63 63
63 63 63
63 63 63
63 63 63
63 63 63
63 63 63
63 63 63
63 63 63
63 63 63
63 63 63
63 63 63
63 63 63
63 63 63
63 63 63
63 63 63
63 63 63
63 63 63
63 63 63
63 63 63
63 63 63
63 63 63
63 63 63
63 63 63
63 63 63
63 63 63
63 63 63
63 63 63
63 63 63
63 63 63
63 63 63
63 63 63
63 63 63
63 63 63
63 63 63
63 63 63
63 63 63
63 63 63
63 63 63
63 63 63
63 63 63
63 63 63
63 63 63
63 63 63
63 63 63
63 63 63
63 63 63
63 63 63
63 63 63
63 63 63
63 63 63
63 63 63
63 63 63
63 63 63
63 63 63
63 63 63
63 63 63
63 63 63
63 63 63
63 63 63
63 63 63
63 63 63
63 63 63
63 63 63
63 63 63
63 63 63
63 63 63
63 63 63
63 63 63
63 63 63
63 63 63
63 63 63
63 63 63
63 63 63
63 63 63
63 63 63
63 63 63
63 63 63
63 63 63
63 63 63
63 63 63
63 63 63
63 63 63
63 63 63
63 63 63
63 63 63
63 63 63
63 63 63
63 63 63
63 63 63
63 63 63
63 63 63
63 63 63
63 63 63
63 63 63
63 63 63
63 63 63
36 178 53
32 185 64
30 189 72
29 193 79
28 196 85
28 199 90
28 201 95
28 203 100
28 205 104
29 207 108
29 208 112
30 210 116
31 211 120
32 212 123
33 213 127
34 214 130
35 215 133
36 216 136
37 217 139
38 218 142
39 219 145
41 219 148
42 220 151
44 221 153
45 221 156
46 222 159
48 222 161
50 222 164
51 223 166
53 223 168
55 223 171
56 224 173
58 224 175
60 224 177
62 224 179
64 224 182
65 224 184
67 224 186
69 224 188
71 224 190
73 224 191
76 224 193
78 224 195
80 224 197
82 224 199
84 223 200
87 223 202
89 223 204
91 222 205
94 222 207
96 222 209
99 221 210
102 221 211
104 220 213
107 219 214
110 219 216
113 218 217
116 217 218
119 216 219
122 215 220
125 214 221
128 213 222
132 212 223
135 211 224
139 210 225
143 208 226
147 207 226
151 205 227
155 203 227
160 201 227
165 199 227
170 196 227
176 193 226
183 189 225
191 185 223
202 178 219
63 63 63
63 63 63
63 63 63
63 63 63
63 63 63
63 63 63
63 63 63
63 63 63
63 63 63
63 63 63
63 63 63
63 63 63
63 63 63
63 63 63
63 63 63
63 63 63
63 63 63
63 63 63
63 63 63
63 63 63
63 63 63
63 63 63
63 63 63
63 63 63
63 63 63
63 63 63
63 63 63
63 63 63
63 63 63
63 63 63
63 63 63
63 63 63
63 63 63
63 63 63
63 63 63
63 63 63
63 63 63
63 63 63
63 63 63
63 63 63
63 63 63
63 63 63
63 63 63
63 63 63
63 63 63
63 63 63
63 63 63
63 63 63
63 63 63
63 63 63
63 63 63
63 63 63
63 63 63
63 63 63
63 63 63
63 63 63
63 63 63
63 63 63
63 63 63
63 63 63
63 63 63
63 63 63
63 63 63
63 63 63
63 63 63
63 63 63
63 63 63
63 63 63
63 63 63
63 63 63
63 63 63
63 63 63
63 63 63
63 63 63
63 63 63
63 63 63
63 63 63
63 63 63
63 63 63
63 63 63
63 63 63
63 63 63
63 63 63
63 63 63
63 63 63
63 63 63
63 63 63
63 63 63
63 63 63
63 63 63
63 63 63
63 63 63
63 63 63
63 63 63
63 63 63
63 63 63
63 63 63
63 63 63
63 63 63
63 63 63
63 63 63
63 63 63
63 63 63
63 63 63
63 63 63
63 63 63
63 63 63
63 63 63
63 63 63
63 63 63
63 63 63
63 63 63
63 63 63
63 63 63
63 63 63
63 63 63
63 63 63
63 63 63
63 63 63
63 63 63
63 63 63
63 63 63
63 63 63
63 63 63
63 63 63
63 63 63
63 63 63
63 63 63
63 63 63
63 63 63
63 63 63
63 63 63
63 63 63
63 63 63
63 63 63
63 63 63
63 63 63
63 63 63
63 63 63
63 63 63
63 63 63
63 63 63
63 63 63
63 63 63
63 63 63
63 63 63
63 63 63
63 63 63
63 63 63
63 63 63
63 63 63
63 63 63
63 63 63
63 63 63
63 63 63
63 63 63
63 63 63
63 63 63
63 63 63
63 63 63
63 63 63
63 63 63
63 63 63
63 63 63
63 63 63
63 63 63
63 63 63
63 63 63
63 63 63
63 63 63
63 63 63
63 63 63
63 63 63
63 63 63
63 63 63
63 63 63
63 63 63
63 63 63
63 63 63
63 63 63
63 63 63
63 63 63
63 63 63
63 63 63
63 63 63
63 63 63
63 63 63
63 63 63
63 63 63
63 63 63
63 63 63
63 63 63
63 63 63
63 63 63
63 63 63
63 63 63
63 63 63
63 63 63
63 63 63
63 63 63
63 63 63
63 63 63
63 63 63
63 63 63
63 63 63
63 63 63
63 63 63
63 63 63
63 63 63
63 63 63
63 63 63
63 63 63
63 63 63
63 63 63
63 63 63
63 63 63
63 63 63
63 63 63
63 63 63
63 63 63
63 63 63
63 63 63
63 63 63
63 63 63
63 63 63
63 63 63
63 63 63
63 63 63
63 63 63
63 63 63
63 63 63
63 63 63
63 63 63
63 63 63
63 63 63
63 63 63
63 63 63
63 63 63
63 63 63
63 63 63
63 63 63
63 63 63
63 63 63
63 63 63
63 63 63
63 63 63
63 63 63
63 63 63
63 63 63
63 63 63
63 63 63
63 63 63
63 63 63
63 63 63
63 63 63
63 63 63
63 63 63
63 63 63
63 63 63
63 63 63
63 63 63
63 63 63
63 63 63
63 63 63
63 63 63
63 63 63
63 63 63
63 63 63
63 63 63
63 63 63
63 63 63
63 63 63
63 63 63
63 63 63
63 63 63
63 63 63
63 63 63
63 63 63
63 63 63
63 63 63
63 63 63
63 63 63
63 63 63
63 63 63
63 63 63
63 63 63
63 63 63
63 63 63
63 63 63
63 63 63
63 63 63
63 63 63
63 63 63
63 63 63
63 63 63
63 63 63
63 63 63
63 63 63
63 63 63
63 63 63
63 63 63
63 63 63
63 63 63
63 63 63
63 63 63
63 63 63
63 63 63
63 63 63
63 63 63
63 63 63
63 63 63
63 63 63
63 63 63
63 63 63
63 63 63
63 63 63
63 63 63
63 63 63
63 63 63
63 63 63
63 63 63
63 63 63
63 63 63
63 63 63
33 178 57
30 184 67
28 188 75
27 192 81
26 194 87
26 197 92
26 199 97
26 201 102
27 203 106
27 205 110
28 206 114
28 208 118
29 209 121
30 210 125
31 211 128
32 213 132
33 214 135
34 214 138
35 215 141
37 216 144
38 217 147
39 217 150
41 218 152
42 219 155
43 219 158
45 220 160
46 220 163
48 221 165
50 221 168
51 221 170
53 222 172
55 222 174
56 222 177
58 222 179
60 222 181
62 222 183
64 222 185
66 223 187
68 223 189
70 222 191
72 222 193
74 222 195
76 222 197
78 222 199
81 222 200
83 222 202
85 221 204
87 221 205
90 221 207
92 220 209
95 220 210
97 219 212
100 219 213
103 218 214
105 217 216
108 217 217
111 216 218
114 215 220
117 214 221
120 214 222
123 213 223
127 211 224
130 210 225
134 209 226
137 208 227
141 206 227
145 205 228
149 203 228
153 201 229
158 199 229
163 197 229
168 194 229
174 192 228
180 188 227
188 184 225
198 178 222
63 63 63
63 63 63
63 63 63
63 63 63
63 63 63
63 63 63
63 63 63
63 63 63
63 63 63
63 63 63
63 63 63
63 63 63
63 63 63
63 63 63
63 63 63
63 63 63
63 63 63
63 63 63
63 63 63
63 63 63
63 63 63
63 63 63
63 63 63
63 63 63
63 63 63
63 63 63
63 63 63
63 63 63
63 63 63
63 63 63
63 63 63
63 63 63
63 63 63
63 63 63
63 63 63
63 63 63
63 63 63
63 63 63
63 63 63
63 63 63
63 63 63
63 63 63
63 63 63
63 63 63
63 63 63
63 63 63
63 63 63
63 63 63
63 63 63
63 63 63
63 63 63
63 63 63
63 63 63
63 63 63
63 63 63
63 63 63
63 63 63
63 63 63
63 63 63
63 63 63
63 63 63
63 63 63
63 63 63
63 63 63
63 63 63
63 63 63
63 63 63
63 63 63
63 63 63
63 63 63
63 63 63
63 63 63
63 63 63
63 63 63
63 63 63
63 63 63
63 63 63
63 63 63
63 63 63
63 63 63
63 63 63
63 63 63
63 63 63
63 63 63
63 63 63
63 63 63
63 63 63
63 63 63
63 63 63
63 63 63
63 63 63
63 63 63
63 63 63
63 63 63
63 63 63
63 63 63
63 63 63
63 63 63
63 63 63
63 63 63
63 63 63
63 63 63
63 63 63
63 63 63
63 63 63
63 63 63
63 63 63
63 63 63
63 63 63
63 63 63
63 63 63
63 63 63
63 63 63
63 63 63
63 63 63
63 63 63
63 63 63
63 63 63
63 63 63
63 63 63
63 63 63
63 63 63
63 63 63
63 63 63
63 63 63
63 63 63
63 63 63
63 63 63
63 63 63
63 63 63
63 63 63
63 63 63
63 63 63
63 63 63
63 63 63
63 63 63
63 63 63
63 63 63
63 63 63
63 63 63
63 63 63
63 63 63
63 63 63
63 63 63
63 63 63
63 63 63
63 63 63
63 63 63
63 63 63
63 63 63
63 63 63
63 63 63
63 63 63
63 63 63
63 63 63
63 63 63
63 63 63
63 63 63
63 63 63
63 63 63
63 63 63
63 63 63
63 63 63
63 63 63
63 63 63
63 63 63
63 63 63
63 63 63
63 63 63
63 63 63
63 63 63
63 63 63
63 63 63
63 63 63
63 63 63
63 63 63
63 63 63
63 63 63
63 63 63
63 63 63
63 63 63
63 63 63
63 63 63
63 63 63
63 63 63
63 63 63
63 63 63
63 63 63
63 63 63
63 63 63
63 63 63
63 63 63
63 63 63
63 63 63
63 63 63
63 63 63
63 63 63
63 63 63
63 63 63
63 63 63
63 63 63
63 63 63
63 63 63
63 63 63
63 63 63
63 63 63
63 63 63
63 63 63
63 63 63
63 63 63
63 63 63
63 63 63
63 63 63
63 63 63
63 63 63
63 63 63
63 63 63
63 63 63
63 63 63
63 63 63
63 63 63
63 63 63
63 63 63
63 63 63
63 63 63
63 63 63
63 63 63
63 63 63
63 63 63
63 63 63
63 63 63
63 63 63
63 63 63
63 63 63
63 63 63
63 63 63
63 63 63
63 63 63
63 63 63
63 63 63
63 63 63
63 63 63
63 63 63
63 63 63
63 63 63
63 63 63
63 63 63
63 63 63
63 63 63
63 63 63
63 63 63
63 63 63
63 63 63
63 63 63
63 63 63
63 63 63
63 63 63
63 63 63
63 63 63
63 63 63
63 63 63
63 63 63
63 63 63
63 63 63
63 63 63
63 63 63
63 63 63
63 63 63
63 63 63
63 63 63
63 63 63
63 63 63
63 63 63
63 63 63
63 63 63
63 63 63
63 63 63
63 63 63
63 63 63
63 63 63
63 63 63
63 63 63
63 63 63
63 63 63
63 63 63
63 63 63
63 63 63
63 63 63
63 63 63
63 63 63
63 63 63
63 63 63
63 63 63
63 63 63
63 63 63
63 63 63
63 63 63
63 63 63
63 63 63
63 63 63
63 63 63
63 63 63
63 63 63
63 63 63
63 63 63
63 63 63
63 63 63
63 63 63
63 63 63
63 63 63
63 63 63
63 63 63
63 63 63
63 63 63
63 63 63
63 63 63
63 63 63
63 63 63
63 63 63
63 63 63
63 63 63
63 63 63
63 63 63
38 166 45
30 177 61
27 182 70
26 187 77
25 190 83
24 193 89
24 195 94
24 198 99
24 200 104
25 201 108
25 203 112
26 205 116
27 206 120
27 207 123
28 208 127
29 210 130
30 211 133
31 212 137
33 213 140
34 213 143
35 214 146
36 215 148
38 216 151
39 216 154
40 217 157
42 217 159
43 218 162
45 218 164
47 219 167
48 219 169
50 219 171
52 220 174
53 220 176
55 220 178
57 220 180
59 220 182
61 220 185
62 221 187
64 221 189
66 221 191
68 221 193
70 220 194
73 220 196
75 220 198
77 220 200
79 220 202
81 220 203
84 219 205
86 219 207
88 219 208
91 218 210
93 218 212
96 217 213
98 217 215
101 216 216
104 216 217
107 215 219
109 214 220
112 213 221
115 213 222
118 212 224
122 211 225
125 210 226
128 208 227
132 207 228
135 206 228
139 205 229
143 203 230
147 201 230
151 200 231
156 198 231
161 195 231
166 193 231
172 190 230
178 187 229
185 182 228
194 177 225
210 166 217
63 63 63
63 63 63
63 63 63
63 63 63
63 63 63
63 63 63
63 63 63
63 63 63
63 63 63
63 63 63
63 63 63
63 63 63
63 63 63
63 63 63
63 63 63
63 63 63
63 63 63
63 63 63
63 63 63
63 63 63
63 63 63
63 63 63
63 63 63
63 63 63
63 63 63
63 63 63
63 63 63
63 63 63
63 63 63
63 63 63
63 63 63
63 63 63
63 63 63
63 63 63
63 63 63
63 63 63
63 63 63
63 63 63
63 63 63
63 63 63
63 63 63
63 63 63
63 63 63
63 63 63
63 63 63
63 63 63
63 63 63
63 63 63
63 63 63
63 63 63
63 63 63
63 63 63
63 63 63
63 63 63
63 63 63
63 63 63
63 63 63
63 63 63
63 63 63
63 63 63
63 63 63
63 63 63
63 63 63
63 63 63
63 63 63
63 63 63
63 63 63
63 63 63
63 63 63
63 63 63
63 63 63
63 63 63
63 63 63
63 63 63
63 63 63
63 63 63
63 63 63
63 63 63
63 63 63
63 63 63
63 63 63
63 63 63
63 63 63
63 63 63
63 63 63
63 63 63
63 63 63
63 63 63
63 63 63
63 63 63
63 63 63
63 63 63
63 63 63
63 63 63
63 63 63
63 63 63
63 63 63
63 63 63
63 63 63
63 63 63
63 63 63
63 63 63
63 63 63
63 63 63
63 63 63
63 63 63
63 63 63
63 63 63
63 63 63
63 63 63
63 63 63
63 63 63
63 63 63
63 63 63
63 63 63
63 63 63
63 63 63
63 63 63
63 63 63
63 63 63
63 63 63
63 63 63
63 63 63
63 63 63
63 63 63
63 63 63
63 63 63
63 63 63
63 63 63
63 63 63
63 63 63
63 63 63
63 63 63
63 63 63
63 63 63
63 63 63
63 63 63
63 63 63
63 63 63
63 63 63
63 63 63
63 63 63
63 63 63
63 63 63
63 63 63
63 63 63
63 63 63
63 63 63
63 63 63
63 63 63
63 63 63
63 63 63
63 63 63
63 63 63
63 63 63
63 63 63
63 63 63
63 63 63
63 63 63
63 63 63
63 63 63
63 63 63
63 63 63
63 63 63
63 63 63
63 63 63
63 63 63
63 63 63
63 63 63
63 63 63
63 63 63
63 63 63
63 63 63
63 63 63
63 63 63
63 63 63
63 63 63
63 63 63
63 63 63
63 63 63
63 63 63
63 63 63
63 63 63
63 63 63
63 63 63
63 63 63
63 63 63
63 63 63
63 63 63
63 63 63
63 63 63
63 63 63
63 63 63
63 63 63
63 63 63
63 63 63
63 63 63
63 63 63
63 63 63
63 63 63
63 63 63
63 63 63
63 63 63
63 63 63
63 63 63
63 63 63
63 63 63
63 63 63
63 63 63
63 63 63
63 63 63
63 63 63
63 63 63
63 63 63
63 63 63
63 63 63
63 63 63
63 63 63
63 63 63
63 63 63
63 63 63
63 63 63
63 63 63
63 63 63
63 63 63
63 63 63
63 63 63
63 63 63
63 63 63
63 63 63
63 63 63
63 63 63
63 63 63
63 63 63
63 63 63
63 63 63
63 63 63
63 63 63
63 63 63
63 63 63
63 63 63
63 63 63
63 63 63
63 63 63
63 63 63
63 63 63
63 63 63
63 63 63
63 63 63
63 63 63
63 63 63
63 63 63
63 63 63
63 63 63
63 63 63
63 63 63
63 63 63
63 63 63
63 63 63
63 63 63
63 63 63
63 63 63
63 63 63
63 63 63
63 63 63
63 63 63
63 63 63
63 63 63
63 63 63
63 63 63
63 63 63
63 63 63
63 63 63
63 63 63
63 63 63
63 63 63
63 63 63
63 63 63
63 63 63
63 63 63
63 63 63
63 63 63
63 63 63
63 63 63
63 63 63
63 63 63
63 63 63
63 63 63
63 63 63
63 63 63
63 63 63
63 63 63
63 63 63
63 63 63
63 63 63
63 63 63
63 63 63
63 63 63
63 63 63
63 63 63
63 63 63
63 63 63
63 63 63
63 63 63
63 63 63
63 63 63
63 63 63
63 63 63
63 63 63
63 63 63
63 63 63
63 63 63
63 63 63
63 63 63
63 63 63
63 63 63
63 63 63
63 63 63
63 63 63
63 63 63
63 63 63
63 63 63
33 167 51
28 176 64
25 181 72
24 185 79
23 188 86
23 191 91
22 193 96
22 196 101
23 198 105
23 199 110
24 201 114
24 203 118
25 204 121
26 205 125
27 207 128
28 208 132
29 209 135
30 210 138
31 211 141
32 211 144
34 212 147
35 213 150
36 214 153
38 214 155
39 215 158
40 215 161
42 216 163
43 216 166
45 217 168
47 217 171
48 217 173
50 218 175
52 218 177
54 218 180
55 218 182
57 218 184
59 218 186
61 219 188
63 219 190
65 219 192
67 219 194
69 218 196
71 218 198
73 218 200
75 218 201
78 218 203
80 218 205
82 217 207
84 217 208
87 217 210
89 216 212
92 216 213
94 215 215
97 215 216
100 214 217
102 214 219
105 213 220
108 212 221
111 211 223
114 211 224
117 210 225
120 209 226
123 208 227
127 207 228
130 205 229
134 204 230
137 203 231
141 201 231
145 199 232
150 198 232
154 196 233
159 193 233
164 191 232
169 188 232
176 185 231
183 181 230
191 176 227
204 167 222
63 63 63
63 63 63
63 63 63
63 63 63
63 63 63
63 63 63
63 63 63
63 63 63
63 63 63
63 63 63
63 63 63
63 63 63
63 63 63
63 63 63
63 63 63
63 63 63
63 63 63
63 63 63
63 63 63
63 63 63
63 63 63
63 63 63
63 63 63
63 63 63
63 63 63
63 63 63
63 63 63
63 63 63
63 63 63
63 63 63
63 63 63
63 63 63
63 63 63
63 63 63
63 63 63
63 63 63
63 63 63
63 63 63
63 63 63
63 63 63
63 63 63
63 63 63
63 63 63
63 63 63
63 63 63
63 63 63
63 63 63
63 63 63
63 63 63
63 63 63
63 63 63
63 63 63
63 63 63
63 63 63
63 63 63
63 63 63
63 63 63
63 63 63
63 63 63
63 63 63
63 63 63
63 63 63
63 63 63
63 63 63
63 63 63
63 63 63
63 63 63
63 63 63
63 63 63
63 63 63
63 63 63
63 63 63
63 63 63
63 63 63
63 63 63
63 63 63
63 63 63
63 63 63
63 63 63
63 63 63
63 63 63
63 63 63
63 63 63
63 63 63
63 63 63
63 63 63
63 63 63
63 63 63
63 63 63
63 63 63
63 63 63
63 63 63
63 63 63
63 63 63
63 63 63
63 63 63
63 63 63
63 63 63
63 63 63
63 63 63
63 63 63
63 63 63
63 63 63
63 63 63
63 63 63
63 63 63
63 63 63
63 63 63
63 63 63
63 63 63
63 63 63
63 63 63
63 63 63
63 63 63
63 63 63
63 63 63
63 63 63
63 63 63
63 63 63
63 63 63
63 63 63
63 63 63
63 63 63
63 63 63
63 63 63
63 63 63
63 63 63
63 63 63
63 63 63
63 63 63
63 63 63
63 63 63
63 63 63
63 63 63
63 63 63
63 63 63
63 63 63
63 63 63
63 63 63
63 63 63
63 63 63
63 63 63
63 63 63
63 63 63
63 63 63
63 63 63
63 63 63
63 63 63
63 63 63
63 63 63
63 63 63
63 63 63
63 63 63
63 63 63
63 63 63
63 63 63
63 63 63
63 63 63
63 63 63
63 63 63
63 63 63
63 63 63
63 63 63
63 63 63
63 63 63
63 63 63
63 63 63
63 63 63
63 63 63
63 63 63
63 63 63
63 63 63
63 63 63
63 63 63
63 63 63
63 63 63
63 63 63
63 63 63
63 63 63
63 63 63
63 63 63
63 63 63
63 63 63
63 63 63
63 63 63
63 63 63
63 63 63
63 63 63
63 63 63
63 63 63
63 63 63
63 63 63
63 63 63
63 63 63
63 63 63
63 63 63
63 63 63
63 63 63
63 63 63
63 63 63
63 63 63
63 63 63
63 63 63
63 63 63
63 63 63
63 63 63
63 63 63
63 63 63
63 63 63
63 63 63
63 63 63
63 63 63
63 63 63
63 63 63
63 63 63
63 63 63
63 63 63
63 63 63
63 63 63
63 63 63
63 63 63
63 63 63
63 63 63
63 63 63
63 63 63
63 63 63
63 63 63
63 63 63
63 63 63
63 63 63
63 63 63
63 63 63
63 63 63
63 63 63
63 63 63
63 63 63
63 63 63
63 63 63
63 63 63
63 63 63
63 63 63
63 63 63
63 63 63
63 63 63
63 63 63
63 63 63
63 63 63
63 63 63
63 63 63
63 63 63
63 63 63
63 63 63
63 63 63
63 63 63
63 63 63
63 63 63
63 63 63
63 63 63
63 63 63
63 63 63
63 63 63
63 63 63
63 63 63
63 63 63
63 63 63
63 63 63
63 63 63
63 63 63
63 63 63
63 63 63
63 63 63
63 63 63
63 63 63
63 63 63
63 63 63
63 63 63
63 63 63
63 63 63
63 63 63
63 63 63
63 63 63
63 63 63
63 63 63
63 63 63
63 63 63
63 63 63
63 63 63
63 63 63
63 63 63
63 63 63
63 63 63
63 63 63
63 63 63
63 63 63
63 63 63
63 63 63
63 63 63
63 63 63
63 63 63
63 63 63
63 63 63
63 63 63
63 63 63
63 63 63
63 63 63
63 63 63
63 63 63
63 63 63
63 63 63
63 63 63
63 63 63
63 63 63
63 63 63
63 63 63
63 63 63
63 63 63
63 63 63
63 63 63
63 63 63
63 63 63
63 63 63
63 63 63
30 167 55
25 175 67
23 179 75
22 183 82
21 186 88
21 189 93
21 192 98
21 194 103
21 196 107
22 198 111
22 199 115
23 201 119
24 202 123
24 203 127
25 205 130
26 206 133
27 207 137
28 208 140
30 209 143
31 209 146
32 210 149
33 211 151
35 212 154
36 212 157
38 213 160
39 213 162
41 214 165
42 214 167
44 215 170
45 215 172
47 215 174
49 216 177
50 216 179
52 216 181
54 216 183
56 216 185
58 216 187
60 216 190
61 217 192
63 217 194
65 216 195
68 216 197
70 216 199
72 216 201
74 216 203
76 216 205
78 216 206
81 215 208
83 215 210
85 215 211
88 214 213
90 214 214
93 213 216
95 213 217
98 212 219
101 212 220
104 211 222
106 210 223
109 209 224
112 209 225
115 208 227
118 207 228
122 206 229
125 205 230
128 203 231
132 202 231
136 201 232
140 199 233
144 198 233
148 196 234
152 194 234
157 192 234
162 189 234
167 186 234
173 183 233
180 179 232
188 175 230
200 167 225
63 63 63
63 63 63
63 63 63
63 63 63
63 63 63
63 63 63
63 63 63
63 63 63
63 63 63
63 63 63
63 63 63
63 63 63
63 63 63
63 63 63
63 63 63
63 63 63
63 63 63
63 63 63
63 63 63
63 63 63
63 63 63
63 63 63
63 63 63
63 63 63
63 63 63
63 63 63
63 63 63
63 63 63
63 63 63
63 63 63
63 63 63
63 63 63
63 63 63
63 63 63
63 63 63
63 63 63
63 63 63
63 63 63
63 63 63
63 63 63
63 63 63
63 63 63
63 63 63
63 63 63
63 63 63
63 63 63
63 63 63
63 63 63
63 63 63
63 63 63
63 63 63
63 63 63
63 63 63
63 63 63
63 63 63
63 63 63
63 63 63
63 63 63
63 63 63
63 63 63
63 63 63
63 63 63
63 63 63
63 63 63
63 63 63
63 63 63
63 63 63
63 63 63
63 63 63
63 63 63
63 63 63
63 63 63
63 63 63
63 63 63
63 63 63
63 63 63
63 63 63
63 63 63
63 63 63
63 63 63
63 63 63
63 63 63
63 63 63
63 63 63
63 63 63
63 63 63
63 63 63
63 63 63
63 63 63
63 63 63
63 63 63
63 63 63
63 63 63
63 63 63
63 63 63
63 63 63
63 63 63
63 63 63
63 63 63
63 63 63
63 63 63
63 63 63
63 63 63
63 63 63
63 63 63
63 63 63
63 63 63
63 63 63
63 63 63
63 63 63
63 63 63
63 63 63
63 63 63
63 63 63
63 63 63
63 63 63
63 63 63
63 63 63
63 63 63
63 63 63
63 63 63
63 63 63
63 63 63
63 63 63
63 63 63
63 63 63
63 63 63
63 63 63
63 63 63
63 63 63
63 63 63
63 63 63
63 63 63
63 63 63
63 63 63
63 63 63
63 63 63
63 63 63
63 63 63
63 63 63
63 63 63
63 63 63
63 63 63
63 63 63
63 63 63
63 63 63
63 63 63
63 63 63
63 63 63
63 63 63
63 63 63
63 63 63
63 63 63
63 63 63
63 63 63
63 63 63
63 63 63
63 63 63
63 63 63
63 63 63
63 63 63
63 63 63
63 63 63
63 63 63
63 63 63
63 63 63
63 63 63
63 63 63
63 63 63
63 63 63
63 63 63
63 63 63
63 63 63
63 63 63
63 63 63
63 63 63
63 63 63
63 63 63
63 63 63
63 63 63
63 63 63
63 63 63
63 63 63
63 63 63
63 63 63
63 63 63
63 63 63
63 63 63
63 63 63
63 63 63
63 63 63
63 63 63
63 63 63
63 63 63
63 63 63
63 63 63
63 63 63
63 63 63
63 63 63
63 63 63
63 63 63
63 63 63
63 63 63
63 63 63
63 63 63
63 63 63
63 63 63
63 63 63
63 63 63
63 63 63
63 63 63
63 63 63
63 63 63
63 63 63
63 63 63
63 63 63
63 63 63
63 63 63
63 63 63
63 63 63
63 63 63
63 63 63
63 63 63
63 63 63
63 63 63
63 63 63
63 63 63
63 63 63
63 63 63
63 63 63
63 63 63
63 63 63
63 63 63
63 63 63
63 63 63
63 63 63
63 63 63
63 63 63
63 63 63
63 63 63
63 63 63
63 63 63
63 63 63
63 63 63
63 63 63
63 63 63
63 63 63
63 63 63
63 63 63
63 63 63
63 63 63
63 63 63
63 63 63
63 63 63
63 63 63
63 63 63
63 63 63
63 63 63
63 63 63
63 63 63
63 63 63
63 63 63
63 63 63
63 63 63
63 63 63
63 63 63
63 63 63
63 63 63
63 63 63
63 63 63
63 63 63
63 63 63
63 63 63
63 63 63
63 63 63
63 63 63
63 63 63
63 63 63
63 63 63
63 63 63
63 63 63
63 63 63
63 63 63
63 63 63
63 63 63
63 63 63
63 63 63
63 63 63
63 63 63
63 63 63
63 63 63
63 63 63
63 63 63
63 63 63
63 63 63
63 63 63
63 63 63
63 63 63
63 63 63
63 63 63
63 63 63
63 63 63
63 63 63
63 63 63
63 63 63
63 63 63
63 63 63
63 63 63
63 63 63
63 63 63
63 63 63
63 63 63
63 63 63
63 63 63
63 63 63
63 63 63
63 63 63
63 63 63
63 63 63
63 63 63
63 63 63
63 63 63
27 166 58
23 173 69
21 178 77
20 181 84
19 185 89
19 187 95
19 190 100
19 192 104
20 194 109
20 195 113
21 197 117
21 199 121
22 200 125
23 201 128
24 202 131
25 204 135
26 205 138
27 206 141
28 206 144
29 207 147
31 208 150
32 209 153
33 209 156
35 210 158
36 211 161
38 211 164
39 212 166
41 212 169
42 213 171
44 213 173
46 213 176
47 213 178
49 214 180
51 214 182
53 214 185
54 214 187
56 214 189
58 214 191
60 214 193
62 214 195
64 214 197
66 214 199
68 214 201
70 214 202
73 214 204
75 214 206
77 213 208
79 213 209
82 213 211
84 213 213
86 212 214
89 212 216
91 211 217
94 211 219
97 210 220
99 209 222
102 209 223
105 208 224
108 207 226
111 206 227
114 206 228
117 205 229
120 204 230
124 202 231
127 201 232
130 200 233
134 199 234
138 197 234
142 195 235
146 194 235
151 192 236
155 190 236
160 187 236
166 185 236
171 181 235
178 178 234
186 173 232
197 166 228
63 63 63
63 63 63
63 63 63
63 63 63
63 63 63
63 63 63
63 63 63
63 63 63
63 63 63
63 63 63
63 63 63
63 63 63
63 63 63
63 63 63
63 63 63
63 63 63
63 63 63
63 63 63
63 63 63
63 63 63
63 63 63
63 63 63
63 63 63
63 63 63
63 63 63
63 63 63
63 63 63
63 63 63
63 63 63
63 63 63
63 63 63
63 63 63
63 63 63
63 63 63
63 63 63
63 63 63
63 63 63
63 63 63
63 63 63
63 63 63
63 63 63
63 63 63
63 63 63
63 63 63
63 63 63
63 63 63
63 63 63
63 63 63
63 63 63
63 63 63
63 63 63
63 63 63
63 63 63
63 63 63
63 63 63
63 63 63
63 63 63
63 63 63
63 63 63
63 63 63
63 63 63
63 63 63
63 63 63
63 63 63
63 63 63
63 63 63
63 63 63
63 63 63
63 63 63
63 63 63
63 63 63
63 63 63
63 63 63
63 63 63
63 63 63
63 63 63
63 63 63
63 63 63
63 63 63
63 63 63
63 63 63
63 63 63
63 63 63
63 63 63
63 63 63
63 63 63
63 63 63
63 63 63
63 63 63
63 63 63
63 63 63
63 63 63
63 63 63
63 63 63
63 63 63
63 63 63
63 63 63
63 63 63
63 63 63
63 63 63
63 63 63
63 63 63
63 63 63
63 63 63
63 63 63
63 63 63
63 63 63
63 63 63
63 63 63
63 63 63
63 63 63
63 63 63
63 63 63
63 63 63
63 63 63
63 63 63
63 63 63
63 63 63
63 63 63
63 63 63
63 63 63
63 63 63
63 63 63
63 63 63
63 63 63
63 63 63
63 63 63
63 63 63
63 63 63
63 63 63
63 63 63
63 63 63
63 63 63
63 63 63
63 63 63
63 63 63
63 63 63
63 63 63
63 63 63
63 63 63
63 63 63
63 63 63
63 63 63
63 63 63
63 63 63
63 63 63
63 63 63
63 63 63
63 63 63
63 63 63
63 63 63
63 63 63
63 63 63
63 63 63
63 63 63
63 63 63
63 63 63
63 63 63
63 63 63
63 63 63
63 63 63
63 63 63
63 63 63
63 63 63
63 63 63
63 63 63
63 63 63
63 63 63
63 63 63
63 63 63
63 63 63
63 63 63
63 63 63
63 63 63
63 63 63
63 63 63
63 63 63
63 63 63
63 63 63
63 63 63
63 63 63
63 63 63
63 63 63
63 63 63
63 63 63
63 63 63
63 63 63
63 63 63
63 63 63
63 63 63
63 63 63
63 63 63
63 63 63
63 63 63
63 63 63
63 63 63
63 63 63
63 63 63
63 63 63
63 63 63
63 63 63
63 63 63
63 63 63
63 63 63
63 63 63
63 63 63
63 63 63
63 63 63
63 63 63
63 63 63
63 63 63
63 63 63
63 63 63
63 63 63
63 63 63
63 63 63
63 63 63
63 63 63
63 63 63
63 63 63
63 63 63
63 63 63
63 63 63
63 63 63
63 63 63
63 63 63
63 63 63
63 63 63
63 63 63
63 63 63
63 63 63
63 63 63
63 63 63
63 63 63
63 63 63
63 63 63
63 63 63
63 63 63
63 63 63
63 63 63
63 63 63
63 63 63
63 63 63
63 63 63
63 63 63
63 63 63
63 63 63
63 63 63
63 63 63
63 63 63
63 63 63
63 63 63
63 63 63
63 63 63
63 63 63
63 63 63
63 63 63
63 63 63
63 63 63
63 63 63
63 63 63
63 63 63
63 63 63
63 63 63
63 63 63
63 63 63
63 63 63
63 63 63
63 63 63
63 63 63
63 63 63
63 63 63
63 63 63
63 63 63
63 63 63
63 63 63
63 63 63
63 63 63
63 63 63
63 63 63
63 63 63
63 63 63
63 63 63
63 63 63
63 63 63
63 63 63
63 63 63
63 63 63
63 63 63
63 63 63
63 63 63
63 63 63
63 63 63
63 63 63
63 63 63
63 63 63
63 63 63
63 63 63
63 63 63
63 63 63
63 63 63
63 63 63
63 63 63
63 63 63
63 63 63
63 63 63
63 63 63
63 63 63
63 63 63
63 63 63
63 63 63
63 63 63
63 63 63
63 63 63
63 63 63
63 63 63
63 63 63
63 63 63
63 63 63
63 63 63
63 63 63
63 63 63
25 165 61
21 171 71
19 176 79
18 179 85
18 183 91
18 185 97
18 188 101
18 190 106
18 192 110
19 193 115
19 195 119
20 197 122
21 198 126
21 199 130
22 200 133
23 201 136
24 203 139
26 203 143
27 204 146
28 205 149
29 206 151
31 207 154
32 207 157
33 208 160
35 209 162
36 209 165
38 210 167
39 210 170
41 210 172
43 211 175
44 211 177
46 211 179
48 212 182
49 212 184
51 212 186
53 212 188
55 212 190
57 212 192
59 212 194
61 212 196
63 212 198
65 212 200
67 212 202
69 212 204
71 212 206
73 212 207
76 211 209
78 211 211
80 211 212
83 210 214
85 210 216
88 210 217
90 209 219
93 209 220
95 208 222
98 207 223
101 207 224
104 206 226
106 205 227
109 204 228
112 203 229
116 203 231
119 201 232
122 200 233
125 199 234
129 198 234
133 197 235
136 195 236
140 193 236
145 192 237
149 190 237
154 188 237
158 185 237
164 183 237
170 179 237
176 176 236
184 171 234
194 165 230
63 63 63
63 63 63
63 63 63
63 63 63
63 63 63
63 63 63
63 63 63
63 63 63
63 63 63
63 63 63
63 63 63
63 63 63
63 63 63
63 63 63
63 63 63
63 63 63
63 63 63
63 63 63
63 63 63
63 63 63
63 63 63
63 63 63
63 63 63
63 63 63
63 63 63
63 63 63
63 63 63
63 63 63
63 63 63
63 63 63
63 63 63
63 63 63
63 63 63
63 63 63
63 63 63
63 63 63
63 63 63
63 63 63
63 63 63
63 63 63
63 63 63
63 63 63
63 63 63
63 63 63
63 63 63
63 63 63
63 63 63
63 63 63
63 63 63
63 63 63
63 63 63
63 63 63
63 63 63
63 63 63
63 63 63
63 63 63
63 63 63
63 63 63
63 63 63
63 63 63
63 63 63
63 63 63
63 63 63
63 63 63
63 63 63
63 63 63
63 63 63
63 63 63
63 63 63
63 63 63
63 63 63
63 63 63
63 63 63
63 63 63
63 63 63
63 63 63
63 63 63
63 63 63
63 63 63
63 63 63
63 63 63
63 63 63
63 63 63
63 63 63
63 63 63
63 63 63
63 63 63
63 63 63
63 63 63
63 63 63
63 63 63
63 63 63
63 63 63
63 63 63
63 63 63
63 63 63
63 63 63
63 63 63
63 63 63
63 63 63
63 63 63
63 63 63
63 63 63
63 63 63
63 63 63
63 63 63
63 63 63
63 63 63
63 63 63
63 63 63
63 63 63
63 63 63
63 63 63
63 63 63
63 63 63
63 63 63
63 63 63
63 63 63
63 63 63
63 63 63
63 63 63
63 63 63
63 63 63
63 63 63
63 63 63
63 63 63
63 63 63
63 63 63
63 63 63
63 63 63
63 63 63
63 63 63
63 63 63
63 63 63
63 63 63
63 63 63
63 63 63
63 63 63
63 63 63
63 63 63
63 63 63
63 63 63
63 63 63
63 63 63
63 63 63
63 63 63
63 63 63
63 63 63
63 63 63
63 63 63
63 63 63
63 63 63
63 63 63
63 63 63
63 63 63
63 63 63
63 63 63
63 63 63
63 63 63
63 63 63
63 63 63
63 63 63
63 63 63
63 63 63
63 63 63
63 63 63
63 63 63
63 63 63
63 63 63
63 63 63
63 63 63
63 63 63
63 63 63
63 63 63
63 63 63
63 63 63
63 63 63
63 63 63
63 63 63
63 63 63
63 63 63
63 63 63
63 63 63
63 63 63
63 63 63
63 63 63
63 63 63
63 63 63
63 63 63
63 63 63
63 63 63
63 63 63
63 63 63
63 63 63
63 63 63
63 63 63
63 63 63
63 63 63
63 63 63
63 63 63
63 63 63
63 63 63
63 63 63
63 63 63
63 63 63
63 63 63
63 63 63
63 63 63
63 63 63
63 63 63
63 63 63
63 63 63
63 63 63
63 63 63
63 63 63
63 63 63
63 63 63
63 63 63
63 63 63
63 63 63
63 63 63
63 63 63
63 63 63
63 63 63
63 63 63
63 63 63
63 63 63
63 63 63
63 63 63
63 63 63
63 63 63
63 63 63
63 63 63
63 63 63
63 63 63
63 63 63
63 63 63
63 63 63
63 63 63
63 63 63
63 63 63
63 63 63
63 63 63
63 63 63
63 63 63
63 63 63
63 63 63
63 63 63
63 63 63
63 63 63
63 63 63
63 63 63
63 63 63
63 63 63
63 63 63
63 63 63
63 63 63
63 63 63
63 63 63
63 63 63
63 63 63
63 63 63
63 63 63
63 63 63
63 63 63
63 63 63
63 63 63
63 63 63
63 63 63
63 63 63
63 63 63
63 63 63
63 63 63
63 63 63
63 63 63
63 63 63
63 63 63
63 63 63
63 63 63
63 63 63
63 63 63
63 63 63
63 63 63
63 63 63
63 63 63
63 63 63
63 63 63
63 63 63
63 63 63
63 63 63
63 63 63
63 63 63
63 63 63
63 63 63
63 63 63
63 63 63
63 63 63
63 63 63
63 63 63
63 63 63
63 63 63
63 63 63
63 63 63
63 63 63
63 63 63
63 63 63
63 63 63
63 63 63
63 63 63
63 63 63
63 63 63
63 63 63
63 63 63
63 63 63
63 63 63
63 63 63
63 63 63
63 63 63
63 63 63
63 63 63
63 63 63
63 63 63
23 163 64
19 169 73
18 174 81
17 177 87
16 180 93
16 183 98
16 185 103
16 188 108
17 190 112
17 191 116
18 193 120
18 194 124
19 196 127
20 197 131
21 198 134
22 199 138
23 200 141
24 201 144
25 202 147
27 203 150
28 204 153
29 205 156
31 205 158
32 206 161
33 206 164
35 207 166
36 207 169
38 208 171
40 208 174
41 209 176
43 209 178
45 209 181
46 210 183
48 210 185
50 210 187
52 210 189
54 210 191
56 210 194
57 210 196
59 210 198
61 210 199
64 210 201
66 210 203
68 210 205
70 210 207
72 210 209
74 209 210
77 209 212
79 209 214
81 208 215
84 208 217
86 207 219
89 207 220
91 206 222
94 206 223
97 205 224
99 205 226
102 204 227
105 203 228
108 202 230
111 201 231
114 200 232
117 199 233
121 198 234
124 197 235
128 196 236
131 194 237
135 193 237
139 191 238
143 190 238
147 188 239
152 185 239
157 183 239
162 180 239
168 177 238
174 174 237
182 169 236
191 163 232
63 63 63
63 63 63
63 63 63
63 63 63
63 63 63
63 63 63
63 63 63
63 63 63
63 63 63
63 63 63
63 63 63
63 63 63
63 63 63
63 63 63
63 63 63
63 63 63
63 63 63
63 63 63
63 63 63
63 63 63
63 63 63
63 63 63
63 63 63
63 63 63
63 63 63
63 63 63
63 63 63
63 63 63
63 63 63
63 63 63
63 63 63
63 63 63
63 63 63
63 63 63
63 63 63
63 63 63
63 63 63
63 63 63
63 63 63
63 63 63
63 63 63
63 63 63
63 63 63
63 63 63
63 63 63
63 63 63
63 63 63
63 63 63
63 63 63
63 63 63
63 63 63
63 63 63
63 63 63
63 63 63
63 63 63
63 63 63
63 63 63
63 63 63
63 63 63
63 63 63
63 63 63
63 63 63
63 63 63
63 63 63
63 63 63
63 63 63
63 63 63
63 63 63
63 63 63
63 63 63
63 63 63
63 63 63
63 63 63
63 63 63
63 63 63
63 63 63
63 63 63
63 63 63
63 63 63
63 63 63
63 63 63
63 63 63
63 63 63
63 63 63
63 63 63
63 63 63
63 63 63
63 63 63
63 63 63
63 63 63
63 63 63
63 63 63
63 63 63
63 63 63
63 63 63
63 63 63
63 63 63
63 63 63
63 63 63
63 63 63
63 63 63
63 63 63
63 63 63
63 63 63
63 63 63
63 63 63
63 63 63
63 63 63
63 63 63
63 63 63
63 63 63
63 63 63
63 63 63
63 63 63
63 63 63
63 63 63
63 63 63
63 63 63
63 63 63
63 63 63
63 63 63
63 63 63
63 63 63
63 63 63
63 63 63
63 63 63
63 63 63
63 63 63
63 63 63
63 63 63
63 63 63
63 63 63
63 63 63
63 63 63
63 63 63
63 63 63
63 63 63
63 63 63
63 63 63
63 63 63
63 63 63
63 63 63
63 63 63
63 63 63
63 63 63
63 63 63
63 63 63
63 63 63
63 63 63
63 63 63
63 63 63
63 63 63
63 63 63
63 63 63
63 63 63
63 63 63
63 63 63
63 63 63
63 63 63
63 63 63
63 63 63
63 63 63
63 63 63
63 63 63
63 63 63
63 63 63
63 63 63
63 63 63
63 63 63
63 63 63
63 63 63
63 63 63
63 63 63
63 63 63
63 63 63
63 63 63
63 63 63
63 63 63
63 63 63
63 63 63
63 63 63
63 63 63
63 63 63
63 63 63
63 63 63
63 63 63
63 63 63
63 63 63
63 63 63
63 63 63
63 63 63
63 63 63
63 63 63
63 63 63
63 63 63
63 63 63
63 63 63
63 63 63
63 63 63
63 63 63
63 63 63
63 63 63
63 63 63
63 63 63
63 63 63
63 63 63
63 63 63
63 63 63
63 63 63
63 63 63
63 63 63
63 63 63
63 63 63
63 63 63
63 63 63
63 63 63
63 63 63
63 63 63
63 63 63
63 63 63
63 63 63
63 63 63
63 63 63
63 63 63
63 63 63
63 63 63
63 63 63
63 63 63
63 63 63
63 63 63
63 63 63
63 63 63
63 63 63
63 63 63
63 63 63
63 63 63
63 63 63
63 63 63
63 63 63
63 63 63
63 63 63
63 63 63
63 63 63
63 63 63
63 63 63
63 63 63
63 63 63
63 63 63
63 63 63
63 63 63
63 63 63
63 63 63
63 63 63
63 63 63
63 63 63
63 63 63
63 63 63
63 63 63
63 63 63
63 63 63
63 63 63
63 63 63
63 63 63
63 63 63
63 63 63
63 63 63
63 63 63
63 63 63
63 63 63
63 63 63
63 63 63
63 63 63
63 63 63
63 63 63
63 63 63
63 63 63
63 63 63
63 63 63
63 63 63
63 63 63
63 63 63
63 63 63
63 63 63
63 63 63
63 63 63
63 63 63
63 63 63
63 63 63
63 63 63
63 63 63
63 63 63
63 63 63
63 63 63
63 63 63
63 63 63
63 63 63
63 63 63
63 63 63
63 63 63
63 63 63
63 63 63
63 63 63
63 63 63
63 63 63
63 63 63
63 63 63
63 63 63
63 63 63
63 63 63
63 63 63
63 63 63
63 63 63
63 63 63
63 63 63
63 63 63
63 63 63
63 63 63
63 63 63
63 63 63
63 63 63
63 63 63
31 147 46
21 161 66
18 167 75
16 172 82
15 175 89
15 178 94
15 181 100
15 183 105
15 185 109
15 187 113
16 189 118
16 191 121
17 192 125
18 194 129
19 195 132
20 196 136
21 197 139
22 198 142
23 199 145
24 200 148
25 201 151
27 202 154
28 202 157
29 203 160
31 204 162
32 204 165
34 205 168
35 205 170
37 206 173
38 206 175
40 206 177
42 207 180
43 207 182
45 207 184
47 208 186
49 208 189
50 208 191
52 208 193
54 208 195
56 208 197
58 208 199
60 208 201
62 208 203
64 208 205
66 208 206
69 208 208
71 207 210
73 207 212
75 207 213
78 206 215
80 206 217
82 206 218
85 205 220
87 205 221
90 204 223
93 204 224
95 203 226
98 202 227
101 202 228
104 201 230
107 200 231
110 199 232
113 198 233
116 197 234
119 196 235
123 195 236
126 194 237
130 192 238
134 191 239
137 189 239
142 187 240
146 185 240
150 183 240
155 181 240
161 178 240
166 175 240
173 172 239
180 167 237
189 161 234
209 147 224
63 63 63
63 63 63
63 63 63
63 63 63
63 63 63
63 63 63
63 63 63
63 63 63
63 63 63
63 63 63
63 63 63
63 63 63
63 63 63
63 63 63
63 63 63
63 63 63
63 63 63
63 63 63
63 63 63
63 63 63
63 63 63
63 63 63
63 63 63
63 63 63
63 63 63
63 63 63
63 63 63
63 63 63
63 63 63
63 63 63
63 63 63
63 63 63
63 63 63
63 63 63
63 63 63
63 63 63
63 63 63
63 63 63
63 63 63
63 63 63
63 63 63
63 63 63
63 63 63
63 63 63
63 63 63
63 63 63
63 63 63
63 63 63
63 63 63
63 63 63
63 63 63
63 63 63
63 63 63
63 63 63
63 63 63
63 63 63
63 63 63
63 63 63
63 63 63
63 63 63
63 63 63
63 63 63
63 63 63
63 63 63
63 63 63
63 63 63
63 63 63
63 63 63
63 63 63
63 63 63
63 63 63
63 63 63
63 63 63
63 63 63
63 63 63
63 63 63
63 63 63
63 63 63
63 63 63
63 63 63
63 63 63
63 63 63
63 63 63
63 63 63
63 63 63
63 63 63
63 63 63
63 63 63
63 63 63
63 63 63
63 63 63
63 63 63
63 63 63
63 63 63
63 63 63
63 63 63
63 63 63
63 63 63
63 63 63
63 63 63
63 63 63
63 63 63
63 63 63
63 63 63
63 63 63
63 63 63
63 63 63
63 63 63
63 63 63
63 63 63
63 63 63
63 63 63
63 63 63
63 63 63
63 63 63
63 63 63
63 63 63
63 63 63
63 63 63
63 63 63
63 63 63
63 63 63
63 63 63
63 63 63
63 63 63
63 63 63
63 63 63
63 63 63
63 63 63
63 63 63
63 63 63
63 63 63
63 63 63
63 63 63
63 63 63
63 63 63
63 63 63
63 63 63
63 63 63
63 63 63
63 63 63
63 63 63
63 63 63
63 63 63
63 63 63
63 63 63
63 63 63
63 63 63
63 63 63
63 63 63
63 63 63
63 63 63
63 63 63
63 63 63
63 63 63
63 63 63
63 63 63
63 63 63
63 63 63
63 63 63
63 63 63
63 63 63
63 63 63
63 63 63
63 63 63
63 63 63
63 63 63
63 63 63
63 63 63
63 63 63
63 63 63
63 63 63
63 63 63
63 63 63
63 63 63
63 63 63
63 63 63
63 63 63
63 63 63
63 63 63
63 63 63
63 63 63
63 63 63
63 63 63
63 63 63
63 63 63
63 63 63
63 63 63
63 63 63
63 63 63
63 63 63
63 63 63
63 63 63
63 63 63
63 63 63
63 63 63
63 63 63
63 63 63
63 63 63
63 63 63
63 63 63
63 63 63
63 63 63
63 63 63
63 63 63
63 63 63
63 63 63
63 63 63
63 63 63
63 63 63
63 63 63
63 63 63
63 63 63
63 63 63
63 63 63
63 63 63
63 63 63
63 63 63
63 63 63
63 63 63
63 63 63
63 63 63
63 63 63
63 63 63
63 63 63
63 63 63
63 63 63
63 63 63
63 63 63
63 63 63
63 63 63
63 63 63
63 63 63
63 63 63
63 63 63
63 63 63
63 63 63
63 63 63
63 63 63
63 63 63
63 63 63
63 63 63
63 63 63
63 63 63
63 63 63
63 63 63
63 63 63
63 63 63
63 63 63
63 63 63
63 63 63
63 63 63
63 63 63
63 63 63
63 63 63
63 63 63
63 63 63
63 63 63
63 63 63
63 63 63
63 63 63
63 63 63
63 63 63
63 63 63
63 63 63
63 63 63
63 63 63
63 63 63
63 63 63
63 63 63
63 63 63
63 63 63
63 63 63
63 63 63
63 63 63
63 63 63
63 63 63
63 63 63
63 63 63
63 63 63
63 63 63
63 63 63
63 63 63
63 63 63
63 63 63
63 63 63
63 63 63
63 63 63
63 63 63
63 63 63
63 63 63
63 63 63
63 63 63
63 63 63
63 63 63
63 63 63
63 63 63
63 63 63
63 63 63
63 63 63
63 63 63
63 63 63
63 63 63
63 63 63
63 63 63
63 63 63
63 63 63
63 63 63
63 63 63
63 63 63
63 63 63
63 63 63
63 63 63
63 63 63
63 63 63
63 63 63
63 63 63
63 63 63
63 63 63
63 63 63
27 147 51
19 159 68
16 165 77
15 170 84
14 173 90
13 176 96
13 179 101
13 181 106
14 183 110
14 185 115
14 187 119
15 188 123
16 190 127
17 191 130
17 193 134
18 194 137
19 195 140
21 196 144
22 197 147
23 198 150
24 199 153
25 199 155
27 200 158
28 201 161
29 201 164
31 202 166
32 203 169
34 203 171
36 204 174
37 204 176
39 204 179
40 205 181
42 205 183
44 205 185
46 205 188
47 206 190
49 206 192
51 206 194
53 206 196
55 206 198
57 206 200
59 206 202
61 206 204
63 206 206
65 206 208
67 205 209
70 205 211
72 205 213
74 205 215
76 204 216
79 204 218
81 204 219
84 203 221
86 203 223
89 202 224
91 201 226
94 201 227
97 200 228
100 199 230
102 199 231
105 198 232
108 197 233
111 196 234
115 195 236
118 194 237
121 193 238
125 191 238
128 190 239
132 188 240
136 187 241
140 185 241
145 183 241
149 181 242
154 179 242
159 176 242
165 173 241
171 170 240
178 165 239
187 159 236
204 147 228
63 63 63
63 63 63
63 63 63
63 63 63
63 63 63
63 63 63
63 63 63
63 63 63
63 63 63
63 63 63
63 63 63
63 63 63
63 63 63
63 63 63
63 63 63
63 63 63
63 63 63
63 63 63
63 63 63
63 63 63
63 63 63
63 63 63
63 63 63
63 63 63
63 63 63
63 63 63
63 63 63
63 63 63
63 63 63
63 63 63
63 63 63
63 63 63
63 63 63
63 63 63
63 63 63
63 63 63
63 63 63
63 63 63
63 63 63
63 63 63
63 63 63
63 63 63
63 63 63
63 63 63
63 63 63
63 63 63
63 63 63
63 63 63
63 63 63
63 63 63
63 63 63
63 63 63
63 63 63
63 63 63
63 63 63
63 63 63
63 63 63
63 63 63
63 63 63
63 63 63
63 63 63
63 63 63
63 63 63
63 63 63
63 63 63
63 63 63
63 63 63
63 63 63
63 63 63
63 63 63
63 63 63
63 63 63
63 63 63
63 63 63
63 63 63
63 63 63
63 63 63
63 63 63
63 63 63
63 63 63
63 63 63
63 63 63
63 63 63
63 63 63
63 63 63
63 63 63
63 63 63
63 63 63
63 63 63
63 63 63
63 63 63
63 63 63
63 63 63
63 63 63
63 63 63
63 63 63
63 63 63
63 63 63
63 63 63
63 63 63
63 63 63
63 63 63
63 63 63
63 63 63
63 63 63
63 63 63
63 63 63
63 63 63
63 63 63
63 63 63
63 63 63
63 63 63
63 63 63
63 63 63
63 63 63
63 63 63
63 63 63
63 63 63
63 63 63
63 63 63
63 63 63
63 63 63
63 63 63
63 63 63
63 63 63
63 63 63
63 63 63
63 63 63
63 63 63
63 63 63
63 63 63
63 63 63
63 63 63
63 63 63
63 63 63
63 63 63
63 63 63
63 63 63
63 63 63
63 63 63
63 63 63
63 63 63
63 63 63
63 63 63
63 63 63
63 63 63
63 63 63
63 63 63
63 63 63
63 63 63
63 63 63
63 63 63
63 63 63
63 63 63
63 63 63
63 63 63
63 63 63
63 63 63
63 63 63
63 63 63
63 63 63
63 63 63
63 63 63
63 63 63
63 63 63
63 63 63
63 63 63
63 63 63
63 63 63
63 63 63
63 63 63
63 63 63
63 63 63
63 63 63
63 63 63
63 63 63
63 63 63
63 63 63
63 63 63
63 63 63
63 63 63
63 63 63
63 63 63
63 63 63
63 63 63
63 63 63
63 63 63
63 63 63
63 63 63
63 63 63
63 63 63
63 63 63
63 63 63
63 63 63
63 63 63
63 63 63
63 63 63
63 63 63
63 63 63
63 63 63
63 63 63
63 63 63
63 63 63
63 63 63
63 63 63
63 63 63
63 63 63
63 63 63
63 63 63
63 63 63
63 63 63
63 63 63
63 63 63
63 63 63
63 63 63
63 63 63
63 63 63
63 63 63
63 63 63
63 63 63
63 63 63
63 63 63
63 63 63
63 63 63
63 63 63
63 63 63
63 63 63
63 63 63
63 63 63
63 63 63
63 63 63
63 63 63
63 63 63
63 63 63
63 63 63
63 63 63
63 63 63
63 63 63
63 63 63
63 63 63
63 63 63
63 63 63
63 63 63
63 63 63
63 63 63
63 63 63
63 63 63
63 63 63
63 63 63
63 63 63
63 63 63
63 63 63
63 63 63
63 63 63
63 63 63
63 63 63
63 63 63
63 63 63
63 63 63
63 63 63
63 63 63
63 63 63
63 63 63
63 63 63
63 63 63
63 63 63
63 63 63
63 63 63
63 63 63
63 63 63
63 63 63
63 63 63
63 63 63
63 63 63
63 63 63
63 63 63
63 63 63
63 63 63
63 63 63
63 63 63
63 63 63
63 63 63
63 63 63
63 63 63
63 63 63
63 63 63
63 63 63
63 63 63
63 63 63
63 63 63
63 63 63
63 63 63
63 63 63
63 63 63
63 63 63
63 63 63
63 63 63
63 63 63
63 63 63
63 63 63
63 63 63
63 63 63
63 63 63
63 63 63
63 63 63
63 63 63
63 63 63
63 63 63
63 63 63
63 63 63
63 63 63
63 63 63
63 63 63
63 63 63
63 63 63
63 63 63
63 63 63
63 63 63
63 63 63
63 63 63
25 146 54
18 157 69
15 163 78
13 167 85
12 171 92
12 174 97
12 176 102
12 179 107
12 181 112
13 183 116
13 185 120
14 186 124
15 188 128
15 189 131
16 190 135
17 192 138
18 193 142
19 194 145
20 195 148
22 196 151
23 196 154
24 197 157
26 198 159
27 199 162
28 199 165
30 200 167
31 200 170
33 201 173
34 201 175
36 202 177
38 202 180
39 202 182
41 203 184
43 203 187
44 203 189
46 203 191
48 203 193
50 204 195
52 204 197
54 204 199
56 204 201
58 204 203
60 204 205
62 203 207
64 203 209
66 203 211
68 203 212
71 203 214
73 202 216
75 202 217
78 202 219
80 201 221
82 201 222
85 200 224
88 200 225
90 199 227
93 199 228
96 198 229
98 197 231
101 196 232
104 196 233
107 195 235
110 194 236
113 193 237
117 192 238
120 190 239
124 189 240
127 188 240
131 186 241
135 185 242
139 183 242
143 181 243
148 179 243
153 176 243
158 174 243
163 171 243
170 167 242
177 163 240
186 157 237
201 146 230
63 63 63
63 63 63
63 63 63
63 63 63
63 63 63
63 63 63
63 63 63
63 63 63
63 63 63
63 63 63
63 63 63
63 63 63
63 63 63
63 63 63
63 63 63
63 63 63
63 63 63
63 63 63
63 63 63
63 63 63
63 63 63
63 63 63
63 63 63
63 63 63
63 63 63
63 63 63
63 63 63
63 63 63
63 63 63
63 63 63
63 63 63
63 63 63
63 63 63
63 63 63
63 63 63
63 63 63
63 63 63
63 63 63
63 63 63
63 63 63
63 63 63
63 63 63
63 63 63
63 63 63
63 63 63
63 63 63
63 63 63
63 63 63
63 63 63
63 63 63
63 63 63
63 63 63
63 63 63
63 63 63
63 63 63
63 63 63
63 63 63
63 63 63
63 63 63
63 63 63
63 63 63
63 63 63
63 63 63
63 63 63
63 63 63
63 63 63
63 63 63
63 63 63
63 63 63
63 63 63
63 63 63
63 63 63
63 63 63
63 63 63
63 63 63
63 63 63
63 63 63
63 63 63
63 63 63
63 63 63
63 63 63
63 63 63
63 63 63
63 63 63
63 63 63
63 63 63
63 63 63
63 63 63
63 63 63
63 63 63
63 63 63
63 63 63
63 63 63
63 63 63
63 63 63
63 63 63
63 63 63
63 63 63
63 63 63
63 63 63
63 63 63
63 63 63
63 63 63
63 63 63
63 63 63
63 63 63
63 63 63
63 63 63
63 63 63
63 63 63
63 63 63
63 63 63
63 63 63
63 63 63
63 63 63
63 63 63
63 63 63
63 63 63
63 63 63
63 63 63
63 63 63
63 63 63
63 63 63
63 63 63
63 63 63
63 63 63
63 63 63
63 63 63
63 63 63
63 63 63
63 63 63
63 63 63
63 63 63
63 63 63
63 63 63
63 63 63
63 63 63
63 63 63
63 63 63
63 63 63
63 63 63
63 63 63
63 63 63
63 63 63
63 63 63
63 63 63
63 63 63
63 63 63
63 63 63
63 63 63
63 63 63
63 63 63
63 63 63
63 63 63
63 63 63
63 63 63
63 63 63
63 63 63
63 63 63
63 63 63
63 63 63
63 63 63
63 63 63
63 63 63
63 63 63
63 63 63
63 63 63
63 63 63
63 63 63
63 63 63
63 63 63
63 63 63
63 63 63
63 63 63
63 63 63
63 63 63
63 63 63
63 63 63
63 63 63
63 63 63
63 63 63
63 63 63
63 63 63
63 63 63
63 63 63
63 63 63
63 63 63
63 63 63
63 63 63
63 63 63
63 63 63
63 63 63
63 63 63
63 63 63
63 63 63
63 63 63
63 63 63
63 63 63
63 63 63
63 63 63
63 63 63
63 63 63
63 63 63
63 63 63
63 63 63
63 63 63
63 63 63
63 63 63
63 63 63
63 63 63
63 63 63
63 63 63
63 63 63
63 63 63
63 63 63
63 63 63
63 63 63
63 63 63
63 63 63
63 63 63
63 63 63
63 63 63
63 63 63
63 63 63
63 63 63
63 63 63
63 63 63
63 63 63
63 63 63
63 63 63
63 63 63
63 63 63
63 63 63
63 63 63
63 63 63
63 63 63
63 63 63
63 63 63
63 63 63
63 63 63
63 63 63
63 63 63
63 63 63
63 63 63
63 63 63
63 63 63
63 63 63
63 63 63
63 63 63
63 63 63
63 63 63
63 63 63
63 63 63
63 63 63
63 63 63
63 63 63
63 63 63
63 63 63
63 63 63
63 63 63
63 63 63
63 63 63
63 63 63
63 63 63
63 63 63
63 63 63
63 63 63
63 63 63
63 63 63
63 63 63
63 63 63
63 63 63
63 63 63
63 63 63
63 63 63
63 63 63
63 63 63
63 63 63
63 63 63
63 63 63
63 63 63
63 63 63
63 63 63
63 63 63
63 63 63
63 63 63
63 63 63
63 63 63
63 63 63
63 63 63
63 63 63
63 63 63
63 63 63
63 63 63
63 63 63
63 63 63
63 63 63
63 63 63
63 63 63
63 63 63
63 63 63
63 63 63
63 63 63
63 63 63
63 63 63
63 63 63
63 63 63
63 63 63
63 63 63
63 63 63
63 63 63
63 63 63
63 63 63
63 63 63
63 63 63
63 63 63
63 63 63
63 63 63
63 63 63
63 63 63
23 144 55
16 155 70
14 160 79
12 165 87
11 168 93
11 171 99
11 174 104
11 176 109
11 179 113
11 180 117
12 182 121
13 184 125
13 185 129
14 187 133
15 188 136
16 189 139
17 190 143
18 191 146
19 192 149
20 193 152
22 194 155
23 195 158
24 196 161
26 196 163
27 197 166
29 198 169
30 198 171
32 199 174
33 199 176
35 199 179
36 200 181
38 200 183
40 200 186
41 201 188
43 201 190
45 201 192
47 201 194
49 201 196
51 201 198
53 201 200
55 201 202
57 201 204
59 201 206
61 201 208
63 201 210
65 201 212
67 201 214
69 200 215
72 200 217
74 200 219
76 199 220
79 199 222
81 199 223
84 198 225
86 198 226
89 197 228
92 196 229
94 196 231
97 195 232
100 194 233
103 193 235
106 192 236
109 191 237
112 190 238
116 189 239
119 188 240
122 187 241
126 185 242
130 184 242
134 182 243
138 180 244
142 179 244
146 176 244
151 174 244
156 171 244
162 168 244
168 165 243
176 160 241
185 155 239
200 144 232
63 63 63
63 63 63
63 63 63
63 63 63
63 63 63
63 63 63
63 63 63
63 63 63
63 63 63
63 63 63
63 63 63
63 63 63
63 63 63
63 63 63
63 63 63
63 63 63
63 63 63
63 63 63
63 63 63
63 63 63
63 63 63
63 63 63
63 63 63
63 63 63
63 63 63
63 63 63
63 63 63
63 63 63
63 63 63
63 63 63
63 63 63
63 63 63
63 63 63
63 63 63
63 63 63
63 63 63
63 63 63
63 63 63
63 63 63
63 63 63
63 63 63
63 63 63
63 63 63
63 63 63
63 63 63
63 63 63
63 63 63
63 63 63
63 63 63
63 63 63
63 63 63
63 63 63
63 63 63
63 63 63
63 63 63
63 63 63
63 63 63
63 63 63
63 63 63
63 63 63
63 63 63
63 63 63
63 63 63
63 63 63
63 63 63
63 63 63
63 63 63
63 63 63
63 63 63
63 63 63
63 63 63
63 63 63
63 63 63
63 63 63
63 63 63
63 63 63
63 63 63
63 63 63
63 63 63
63 63 63
63 63 63
63 63 63
63 63 63
63 63 63
63 63 63
63 63 63
63 63 63
63 63 63
63 63 63
63 63 63
63 63 63
63 63 63
63 63 63
63 63 63
63 63 63
63 63 63
63 63 63
63 63 63
63 63 63
63 63 63
63 63 63
63 63 63
63 63 63
63 63 63
63 63 63
63 63 63
63 63 63
63 63 63
63 63 63
63 63 63
63 63 63
63 63 63
63 63 63
63 63 63
63 63 63
63 63 63
63 63 63
63 63 63
63 63 63
63 63 63
63 63 63
63 63 63
63 63 63
63 63 63
63 63 63
63 63 63
63 63 63
63 63 63
63 63 63
63 63 63
63 63 63
63 63 63
63 63 63
63 63 63
63 63 63
63 63 63
63 63 63
63 63 63
63 63 63
63 63 63
63 63 63
63 63 63
63 63 63
63 63 63
63 63 63
63 63 63
63 63 63
63 63 63
63 63 63
63 63 63
63 63 63
63 63 63
63 63 63
63 63 63
63 63 63
63 63 63
63 63 63
63 63 63
63 63 63
63 63 63
63 63 63
63 63 63
63 63 63
63 63 63
63 63 63
63 63 63
63 63 63
63 63 63
63 63 63
63 63 63
63 63 63
63 63 63
63 63 63
63 63 63
63 63 63
63 63 63
63 63 63
63 63 63
63 63 63
63 63 63
63 63 63
63 63 63
63 63 63
63 63 63
63 63 63
63 63 63
63 63 63
63 63 63
63 63 63
63 63 63
63 63 63
63 63 63
63 63 63
63 63 63
63 63 63
63 63 63
63 63 63
63 63 63
63 63 63
63 63 63
63 63 63
63 63 63
63 63 63
63 63 63
63 63 63
63 63 63
63 63 63
63 63 63
63 63 63
63 63 63
63 63 63
63 63 63
63 63 63
63 63 63
63 63 63
63 63 63
63 63 63
63 63 63
63 63 63
63 63 63
63 63 63
63 63 63
63 63 63
63 63 63
63 63 63
63 63 63
63 63 63
63 63 63
63 63 63
63 63 63
63 63 63
63 63 63
63 63 63
63 63 63
63 63 63
63 63 63
63 63 63
63 63 63
63 63 63
63 63 63
63 63 63
63 63 63
63 63 63
63 63 63
63 63 63
63 63 63
63 63 63
63 63 63
63 63 63
63 63 63
63 63 63
63 63 63
63 63 63
63 63 63
63 63 63
63 63 63
63 63 63
63 63 63
63 63 63
63 63 63
63 63 63
63 63 63
63 63 63
63 63 63
63 63 63
63 63 63
63 63 63
63 63 63
63 63 63
63 63 63
63 63 63
63 63 63
63 63 63
63 63 63
63 63 63
63 63 63
63 63 63
63 63 63
63 63 63
63 63 63
63 63 63
63 63 63
63 63 63
63 63 63
63 63 63
63 63 63
63 63 63
63 63 63
63 63 63
63 63 63
63 63 63
63 63 63
63 63 63
63 63 63
63 63 63
63 63 63
63 63 63
63 63 63
63 63 63
63 63 63
63 63 63
63 63 63
63 63 63
63 63 63
63 63 63
63 63 63
63 63 63
63 63 63
63 63 63
63 63 63
63 63 63
63 63 63
63 63 63
63 63 63
63 63 63
63 63 63
63 63 63
63 63 63
63 63 63
63 63 63
22 141 56
15 152 72
12 158 81
11 162 88
10 166 94
10 169 100
9 172 105
10 174 110
10 176 114
10 178 118
11 180 123
11 181 126
12 183 130
13 184 134
14 186 137
15 187 141
16 188 144
17 189 147
18 190 150
19 191 153
21 192 156
22 193 159
23 193 162
25 194 164
26 195 167
27 195 170
29 196 172
30 196 175
32 197 177
34 197 180
35 197 182
37 198 184
39 198 187
40 198 189
42 199 191
44 199 193
46 199 195
48 199 197
50 199 200
51 199 202
53 199 204
55 199 205
58 199 207
60 199 209
62 199 211
64 199 213
66 198 215
68 198 216
71 198 218
73 197 220
75 197 221
78 197 223
80 196 225
83 196 226
85 195 228
88 195 229
91 194 230
93 193 232
96 193 233
99 192 234
102 191 236
105 190 237
108 189 238
111 188 239
114 187 240
118 186 241
121 184 242
125 183 243
129 181 244
132 180 244
137 178 245
141 176 245
145 174 245
150 172 246
155 169 245
161 166 245
167 162 244
174 158 243
183 152 240
199 141 233
63 63 63
63 63 63
63 63 63
63 63 63
63 63 63
63 63 63
63 63 63
63 63 63
63 63 63
63 63 63
63 63 63
63 63 63
63 63 63
63 63 63
63 63 63
63 63 63
63 63 63
63 63 63
63 63 63
63 63 63
63 63 63
63 63 63
63 63 63
63 63 63
63 63 63
63 63 63
63 63 63
63 63 63
63 63 63
63 63 63
63 63 63
63 63 63
63 63 63
63 63 63
63 63 63
63 63 63
63 63 63
63 63 63
63 63 63
63 63 63
63 63 63
63 63 63
63 63 63
63 63 63
63 63 63
63 63 63
63 63 63
63 63 63
63 63 63
63 63 63
63 63 63
63 63 63
63 63 63
63 63 63
63 63 63
63 63 63
63 63 63
63 63 63
63 63 63
63 63 63
63 63 63
63 63 63
63 63 63
63 63 63
63 63 63
63 63 63
63 63 63
63 63 63
63 63 63
63 63 63
63 63 63
63 63 63
63 63 63
63 63 63
63 63 63
63 63 63
63 63 63
63 63 63
63 63 63
63 63 63
63 63 63
63 63 63
63 63 63
63 63 63
63 63 63
63 63 63
63 63 63
63 63 63
63 63 63
63 63 63
63 63 63
63 63 63
63 63 63
63 63 63
63 63 63
63 63 63
63 63 63
63 63 63
63 63 63
63 63 63
63 63 63
63 63 63
63 63 63
63 63 63
63 63 63
63 63 63
63 63 63
63 63 63
63 63 63
63 63 63
63 63 63
63 63 63
63 63 63
63 63 63
63 63 63
63 63 63
63 63 63
63 63 63
63 63 63
63 63 63
63 63 63
63 63 63
63 63 63
63 63 63
63 63 63
63 63 63
63 63 63
63 63 63
63 63 63
63 63 63
63 63 63
63 63 63
63 63 63
63 63 63
63 63 63
63 63 63
63 63 63
63 63 63
63 63 63
63 63 63
63 63 63
63 63 63
63 63 63
63 63 63
63 63 63
63 63 63
63 63 63
63 63 63
63 63 63
63 63 63
63 63 63
63 63 63
63 63 63
63 63 63
63 63 63
63 63 63
63 63 63
63 63 63
63 63 63
63 63 63
63 63 63
63 63 63
63 63 63
63 63 63
63 63 63
63 63 63
63 63 63
63 63 63
63 63 63
63 63 63
63 63 63
63 63 63
63 63 63
63 63 63
63 63 63
63 63 63
63 63 63
63 63 63
63 63 63
63 63 63
63 63 63
63 63 63
63 63 63
63 63 63
63 63 63
63 63 63
63 63 63
63 63 63
63 63 63
63 63 63
63 63 63
63 63 63
63 63 63
63 63 63
63 63 63
63 63 63
63 63 63
63 63 63
63 63 63
63 63 63
63 63 63
63 63 63
63 63 63
63 63 63
63 63 63
63 63 63
63 63 63
63 63 63
63 63 63
63 63 63
63 63 63
63 63 63
63 63 63
63 63 63
63 63 63
63 63 63
63 63 63
63 63 63
63 63 63
63 63 63
63 63 63
63 63 63
63 63 63
63 63 63
63 63 63
63 63 63
63 63 63
63 63 63
63 63 63
63 63 63
63 63 63
63 63 63
63 63 63
63 63 63
63 63 63
63 63 63
63 63 63
63 63 63
63 63 63
63 63 63
63 63 63
63 63 63
63 63 63
63 63 63
63 63 63
63 63 63
63 63 63
63 63 63
63 63 63
63 63 63
63 63 63
63 63 63
63 63 63
63 63 63
63 63 63
63 63 63
63 63 63
63 63 63
63 63 63
63 63 63
63 63 63
63 63 63
63 63 63
63 63 63
63 63 63
63 63 63
63 63 63
63 63 63
63 63 63
63 63 63
63 63 63
63 63 63
63 63 63
63 63 63
63 63 63
63 63 63
63 63 63
63 63 63
63 63 63
63 63 63
63 63 63
63 63 63
63 63 63
63 63 63
63 63 63
63 63 63
63 63 63
63 63 63
63 63 63
63 63 63
63 63 63
63 63 63
63 63 63
63 63 63
63 63 63
63 63 63
63 63 63
63 63 63
63 63 63
63 63 63
63 63 63
63 63 63
63 63 63
63 63 63
63 63 63
63 63 63
63 63 63
63 63 63
63 63 63
63 63 63
63 63 63
63 63 63
63 63 63
63 63 63
63 63 63
63 63 63
63 63 63
63 63 63
63 63 63
63 63 63
22 137 56
14 149 73
11 155 82
10 160 89
9 163 95
8 166 101
8 169 106
8 171 111
9 174 115
9 176 120
10 177 124
10 179 128
11 181 131
12 182 135
13 183 138
14 184 142
15 186 145
16 187 148
17 188 151
18 189 154
19 189 157
21 190 160
22 191 163
23 192 166
25 192 168
26 193 171
28 193 173
29 194 176
31 194 178
33 195 181
34 195 183
36 195 185
38 196 188
39 196 190
41 196 192
43 196 194
45 197 196
47 197 199
48 197 201
50 197 203
52 197 205
54 197 207
56 197 208
59 197 210
61 196 212
63 196 214
65 196 216
67 196 217
70 195 219
72 195 221
74 195 222
77 194 224
79 194 226
82 193 227
84 193 229
87 192 230
89 192 232
92 191 233
95 190 234
98 189 236
101 189 237
104 188 238
107 187 239
110 186 240
113 184 241
117 183 242
120 182 243
124 181 244
127 179 245
131 177 245
135 176 246
140 174 246
144 171 247
149 169 247
154 166 247
160 163 246
166 160 245
173 155 244
182 149 241
199 137 233
63 63 63
63 63 63
63 63 63
63 63 63
63 63 63
63 63 63
63 63 63
63 63 63
63 63 63
63 63 63
63 63 63
63 63 63
63 63 63
63 63 63
63 63 63
63 63 63
63 63 63
63 63 63
63 63 63
63 63 63
63 63 63
63 63 63
63 63 63
63 63 63
63 63 63
63 63 63
63 63 63
63 63 63
63 63 63
63 63 63
63 63 63
63 63 63
63 63 63
63 63 63
63 63 63
63 63 63
63 63 63
63 63 63
63 63 63
63 63 63
63 63 63
63 63 63
63 63 63
63 63 63
63 63 63
63 63 63
63 63 63
63 63 63
63 63 63
63 63 63
63 63 63
63 63 63
63 63 63
63 63 63
63 63 63
63 63 63
63 63 63
63 63 63
63 63 63
63 63 63
63 63 63
63 63 63
63 63 63
63 63 63
63 63 63
63 63 63
63 63 63
63 63 63
63 63 63
63 63 63
63 63 63
63 63 63
63 63 63
63 63 63
63 63 63
63 63 63
63 63 63
63 63 63
63 63 63
63 63 63
63 63 63
63 63 63
63 63 63
63 63 63
63 63 63
63 63 63
63 63 63
63 63 63
63 63 63
63 63 63
63 63 63
63 63 63
63 63 63
63 63 63
63 63 63
63 63 63
63 63 63
63 63 63
63 63 63
63 63 63
63 63 63
63 63 63
63 63 63
63 63 63
63 63 63
63 63 63
63 63 63
63 63 63
63 63 63
63 63 63
63 63 63
63 63 63
63 63 63
63 63 63
63 63 63
63 63 63
63 63 63
63 63 63
63 63 63
63 63 63
63 63 63
63 63 63
63 63 63
63 63 63
63 63 63
63 63 63
63 63 63
63 63 63
63 63 63
63 63 63
63 63 63
63 63 63
63 63 63
63 63 63
63 63 63
63 63 63
63 63 63
63 63 63
63 63 63
63 63 63
63 63 63
63 63 63
63 63 63
63 63 63
63 63 63
63 63 63
63 63 63
63 63 63
63 63 63
63 63 63
63 63 63
63 63 63
63 63 63
63 63 63
63 63 63
63 63 63
63 63 63
63 63 63
63 63 63
63 63 63
63 63 63
63 63 63
63 63 63
63 63 63
63 63 63
63 63 63
63 63 63
63 63 63
63 63 63
63 63 63
63 63 63
63 63 63
63 63 63
63 63 63
63 63 63
63 63 63
63 63 63
63 63 63
63 63 63
63 63 63
63 63 63
63 63 63
63 63 63
63 63 63
63 63 63
63 63 63
63 63 63
63 63 63
63 63 63
63 63 63
63 63 63
63 63 63
63 63 63
63 63 63
63 63 63
63 63 63
63 63 63
63 63 63
63 63 63
63 63 63
63 63 63
63 63 63
63 63 63
63 63 63
63 63 63
63 63 63
63 63 63
63 63 63
63 63 63
63 63 63
63 63 63
63 63 63
63 63 63
63 63 63
63 63 63
63 63 63
63 63 63
63 63 63
63 63 63
63 63 63
63 63 63
63 63 63
63 63 63
63 63 63
63 63 63
63 63 63
63 63 63
63 63 63
63 63 63
63 63 63
63 63 63
63 63 63
63 63 63
63 63 63
63 63 63
63 63 63
63 63 63
63 63 63
63 63 63
63 63 63
63 63 63
63 63 63
63 63 63
63 63 63
63 63 63
63 63 63
63 63 63
63 63 63
63 63 63
63 63 63
63 63 63
63 63 63
63 63 63
63 63 63
63 63 63
63 63 63
63 63 63
63 63 63
63 63 63
63 63 63
63 63 63
63 63 63
63 63 63
63 63 63
63 63 63
63 63 63
63 63 63
63 63 63
63 63 63
63 63 63
63 63 63
63 63 63
63 63 63
63 63 63
63 63 63
63 63 63
63 63 63
63 63 63
63 63 63
63 63 63
63 63 63
63 63 63
63 63 63
63 63 63
63 63 63
63 63 63
63 63 63
63 63 63
63 63 63
63 63 63
63 63 63
63 63 63
63 63 63
63 63 63
63 63 63
63 63 63
63 63 63
63 63 63
63 63 63
63 63 63
63 63 63
63 63 63
63 63 63
63 63 63
63 63 63
63 63 63
63 63 63
63 63 63
63 63 63
63 63 63
63 63 63
63 63 63
63 63 63
63 63 63
63 63 63
63 63 63
63 63 63
63 63 63
63 63 63
63 63 63
23 131 54
13 146 73
10 152 83
9 157 90
8 161 96
7 164 102
7 166 107
7 169 112
8 171 116
8 173 121
9 175 125
9 176 129
10 178 132
11 179 136
12 181 139
13 182 143
14 183 146
15 184 149
16 185 152
17 186 155
18 187 158
20 188 161
21 189 164
22 189 167
24 190 169
25 190 172
27 191 174
28 191 177
30 192 179
31 192 182
33 193 184
35 193 187
36 193 189
38 194 191
40 194 193
42 194 195
44 194 198
46 194 200
47 194 202
49 194 204
51 194 206
53 194 208
55 194 209
57 194 211
60 194 213
62 194 215
64 194 217
66 193 219
68 193 220
71 193 222
73 192 224
76 192 225
78 191 227
81 191 228
83 190 230
86 190 231
88 189 233
91 189 234
94 188 235
97 187 237
100 186 238
103 185 239
106 184 240
109 183 241
112 182 242
116 181 243
119 179 244
123 178 245
126 176 246
130 175 246
134 173 247
139 171 247
143 169 248
148 166 248
153 164 248
159 161 247
165 157 246
172 152 245
182 146 242
201 131 232
63 63 63
63 63 63
63 63 63
63 63 63
63 63 63
63 63 63
63 63 63
63 63 63
63 63 63
63 63 63
63 63 63
63 63 63
63 63 63
63 63 63
63 63 63
63 63 63
63 63 63
63 63 63
63 63 63
63 63 63
63 63 63
63 63 63
63 63 63
63 63 63
63 63 63
63 63 63
63 63 63
63 63 63
63 63 63
63 63 63
63 63 63
63 63 63
63 63 63
63 63 63
63 63 63
63 63 63
63 63 63
63 63 63
63 63 63
63 63 63
63 63 63
63 63 63
63 63 63
63 63 63
63 63 63
63 63 63
63 63 63
63 63 63
63 63 63
63 63 63
63 63 63
63 63 63
63 63 63
63 63 63
63 63 63
63 63 63
63 63 63
63 63 63
63 63 63
63 63 63
63 63 63
63 63 63
63 63 63
63 63 63
63 63 63
63 63 63
63 63 63
63 63 63
63 63 63
63 63 63
63 63 63
63 63 63
63 63 63
63 63 63
63 63 63
63 63 63
63 63 63
63 63 63
63 63 63
63 63 63
63 63 63
63 63 63
63 63 63
63 63 63
63 63 63
63 63 63
63 63 63
63 63 63
63 63 63
63 63 63
63 63 63
63 63 63
63 63 63
63 63 63
63 63 63
63 63 63
63 63 63
63 63 63
63 63 63
63 63 63
63 63 63
63 63 63
63 63 63
63 63 63
63 63 63
63 63 63
63 63 63
63 63 63
63 63 63
63 63 63
63 63 63
63 63 63
63 63 63
63 63 63
63 63 63
63 63 63
63 63 63
63 63 63
63 63 63
63 63 63
63 63 63
63 63 63
63 63 63
63 63 63
63 63 63
63 63 63
63 63 63
63 63 63
63 63 63
63 63 63
63 63 63
63 63 63
63 63 63
63 63 63
63 63 63
63 63 63
63 63 63
63 63 63
63 63 63
63 63 63
63 63 63
63 63 63
63 63 63
63 63 63
63 63 63
63 63 63
63 63 63
63 63 63
63 63 63
63 63 63
63 63 63
63 63 63
63 63 63
63 63 63
63 63 63
63 63 63
63 63 63
63 63 63
63 63 63
63 63 63
63 63 63
63 63 63
63 63 63
63 63 63
63 63 63
63 63 63
63 63 63
63 63 63
63 63 63
63 63 63
63 63 63
63 63 63
63 63 63
63 63 63
63 63 63
63 63 63
63 63 63
63 63 63
63 63 63
63 63 63
63 63 63
63 63 63
63 63 63
63 63 63
63 63 63
63 63 63
63 63 63
63 63 63
63 63 63
63 63 63
63 63 63
63 63 63
63 63 63
63 63 63
63 63 63
63 63 63
63 63 63
63 63 63
63 63 63
63 63 63
63 63 63
63 63 63
63 63 63
63 63 63
63 63 63
63 63 63
63 63 63
63 63 63
63 63 63
63 63 63
63 63 63
63 63 63
63 63 63
63 63 63
63 63 63
63 63 63
63 63 63
63 63 63
63 63 63
63 63 63
63 63 63
63 63 63
63 63 63
63 63 63
63 63 63
63 63 63
63 63 63
63 63 63
63 63 63
63 63 63
63 63 63
63 63 63
63 63 63
63 63 63
63 63 63
63 63 63
63 63 63
63 63 63
63 63 63
63 63 63
63 63 63
63 63 63
63 63 63
63 63 63
63 63 63
63 63 63
63 63 63
63 63 63
63 63 63
63 63 63
63 63 63
63 63 63
63 63 63
63 63 63
63 63 63
63 63 63
63 63 63
63 63 63
63 63 63
63 63 63
63 63 63
63 63 63
63 63 63
63 63 63
63 63 63
63 63 63
63 63 63
63 63 63
63 63 63
63 63 63
63 63 63
63 63 63
63 63 63
63 63 63
63 63 63
63 63 63
63 63 63
63 63 63
63 63 63
63 63 63
63 63 63
63 63 63
63 63 63
63 63 63
63 63 63
63 63 63
63 63 63
63 63 63
63 63 63
63 63 63
63 63 63
63 63 63
63 63 63
63 63 63
63 63 63
63 63 63
63 63 63
63 63 63
63 63 63
63 63 63
63 63 63
63 63 63
63 63 63
63 63 63
63 63 63
63 63 63
63 63 63
63 63 63
63 63 63
63 63 63
63 63 63
63 63 63
63 63 63
63 63 63
63 63 63
63 63 63
63 63 63
63 63 63
63 63 63
63 63 63
63 63 63
12 143 74
9 149 83
8 154 91
7 158 97
6 161 103
6 164 108
6 166 113
7 168 117
7 170 122
8 172 126
8 174 130
9 175 133
10 177 137
11 178 140
12 179 144
13 181 147
14 182 150
15 183 153
16 184 156
17 185 159
19 185 162
20 186 165
21 187 168
23 187 170
24 188 173
26 189 175
27 189 178
29 190 180
30 190 183
32 190 185
34 191 188
35 191 190
37 191 192
39 191 194
41 192 196
43 192 199
44 192 201
46 192 203
48 192 205
50 192 207
52 192 209
54 192 211
56 192 212
59 192 214
61 191 216
63 191 218
65 191 220
67 191 221
70 190 223
72 190 225
75 190 226
77 189 228
80 189 229
82 188 231
85 187 232
87 187 234
90 186 235
93 185 236
96 185 238
99 184 239
102 183 240
105 182 241
108 181 242
111 179 243
115 178 244
118 177 245
122 175 246
125 174 247
129 172 247
133 170 248
138 168 248
142 166 249
147 164 249
152 161 249
158 158 248
164 154 247
172 149 246
181 143 243
63 63 63
63 63 63
63 63 63
63 63 63
63 63 63
63 63 63
63 63 63
63 63 63
63 63 63
63 63 63
63 63 63
63 63 63
63 63 63
63 63 63
63 63 63
63 63 63
63 63 63
63 63 63
63 63 63
63 63 63
63 63 63
63 63 63
63 63 63
63 63 63
63 63 63
63 63 63
63 63 63
63 63 63
63 63 63
63 63 63
63 63 63
63 63 63
63 63 63
63 63 63
63 63 63
63 63 63
63 63 63
63 63 63
63 63 63
63 63 63
63 63 63
63 63 63
63 63 63
63 63 63
63 63 63
63 63 63
63 63 63
63 63 63
63 63 63
63 63 63
63 63 63
63 63 63
63 63 63
63 63 63
63 63 63
63 63 63
63 63 63
63 63 63
63 63 63
63 63 63
63 63 63
63 63 63
63 63 63
63 63 63
63 63 63
63 63 63
63 63 63
63 63 63
63 63 63
63 63 63
63 63 63
63 63 63
63 63 63
63 63 63
63 63 63
63 63 63
63 63 63
63 63 63
63 63 63
63 63 63
63 63 63
63 63 63
63 63 63
63 63 63
63 63 63
63 63 63
63 63 63
63 63 63
63 63 63
63 63 63
63 63 63
63 63 63
63 63 63
63 63 63
63 63 63
63 63 63
63 63 63
63 63 63
63 63 63
63 63 63
63 63 63
63 63 63
63 63 63
63 63 63
63 63 63
63 63 63
63 63 63
63 63 63
63 63 63
63 63 63
63 63 63
63 63 63
63 63 63
63 63 63
63 63 63
63 63 63
63 63 63
63 63 63
63 63 63
63 63 63
63 63 63
63 63 63
63 63 63
63 63 63
63 63 63
63 63 63
63 63 63
63 63 63
63 63 63
63 63 63
63 63 63
63 63 63
63 63 63
63 63 63
63 63 63
63 63 63
63 63 63
63 63 63
63 63 63
63 63 63
63 63 63
63 63 63
63 63 63
63 63 63
63 63 63
63 63 63
63 63 63
63 63 63
63 63 63
63 63 63
63 63 63
63 63 63
63 63 63
63 63 63
63 63 63
63 63 63
63 63 63
63 63 63
63 63 63
63 63 63
63 63 63
63 63 63
63 63 63
63 63 63
63 63 63
63 63 63
63 63 63
63 63 63
63 63 63
63 63 63
63 63 63
63 63 63
63 63 63
63 63 63
63 63 63
63 63 63
63 63 63
63 63 63
63 63 63
63 63 63
63 63 63
63 63 63
63 63 63
63 63 63
63 63 63
63 63 63
63 63 63
63 63 63
63 63 63
63 63 63
63 63 63
63 63 63
63 63 63
63 63 63
63 63 63
63 63 63
63 63 63
63 63 63
63 63 63
63 63 63
63 63 63
63 63 63
63 63 63
63 63 63
63 63 63
63 63 63
63 63 63
63 63 63
63 63 63
63 63 63
63 63 63
63 63 63
63 63 63
63 63 63
63 63 63
63 63 63
63 63 63
63 63 63
63 63 63
63 63 63
63 63 63
63 63 63
63 63 63
63 63 63
63 63 63
63 63 63
63 63 63
63 63 63
63 63 63
63 63 63
63 63 63
63 63 63
63 63 63
63 63 63
63 63 63
63 63 63
63 63 63
63 63 63
63 63 63
63 63 63
63 63 63
63 63 63
63 63 63
63 63 63
63 63 63
63 63 63
63 63 63
63 63 63
63 63 63
63 63 63
63 63 63
63 63 63
63 63 63
63 63 63
63 63 63
63 63 63
63 63 63
63 63 63
63 63 63
63 63 63
63 63 63
63 63 63
63 63 63
63 63 63
63 63 63
63 63 63
63 63 63
63 63 63
63 63 63
63 63 63
63 63 63
63 63 63
63 63 63
63 63 63
63 63 63
63 63 63
63 63 63
63 63 63
63 63 63
63 63 63
63 63 63
63 63 63
63 63 63
63 63 63
63 63 63
63 63 63
63 63 63
63 63 63
63 63 63
63 63 63
63 63 63
63 63 63
63 63 63
63 63 63
63 63 63
63 63 63
63 63 63
63 63 63
63 63 63
63 63 63
63 63 63
63 63 63
63 63 63
63 63 63
63 63 63
63 63 63
63 63 63
63 63 63
63 63 63
63 63 63
63 63 63
63 63 63
63 63 63
63 63 63
63 63 63
63 63 63
63 63 63
63 63 63
63 63 63
63 63 63
63 63 63
63 63 63
12 139 74
9 146 84
7 151 91
6 155 98
6 158 103
5 161 109
5 163 114
6 166 118
6 168 122
7 170 127
7 171 130
8 173 134
9 174 138
10 176 141
11 177 145
12 178 148
13 179 151
14 180 154
15 181 157
16 182 160
18 183 163
19 184 166
20 184 169
22 185 171
23 186 174
25 186 176
26 187 179
28 187 181
29 187 184
31 188 186
33 188 189
34 189 191
36 189 193
38 189 195
40 189 197
42 189 200
43 189 202
45 189 204
47 190 206
49 190 208
51 189 210
53 189 212
55 189 213
58 189 215
60 189 217
62 189 219
64 189 221
66 188 222
69 188 224
71 187 226
74 187 227
76 187 229
79 186 230
81 186 232
84 185 233
86 184 235
89 184 236
92 183 237
95 182 239
98 181 240
101 180 241
104 179 242
107 178 243
110 177 244
114 176 245
117 174 246
121 173 247
125 171 248
128 170 248
133 168 249
137 166 249
141 163 250
146 161 250
152 158 249
157 155 249
164 151 248
171 146 246
181 139 243
63 63 63
63 63 63
63 63 63
63 63 63
63 63 63
63 63 63
63 63 63
63 63 63
63 63 63
63 63 63
63 63 63
63 63 63
63 63 63
63 63 63
63 63 63
63 63 63
63 63 63
63 63 63
63 63 63
63 63 63
63 63 63
63 63 63
63 63 63
63 63 63
63 63 63
63 63 63
63 63 63
63 63 63
63 63 63
63 63 63
63 63 63
63 63 63
63 63 63
63 63 63
63 63 63
63 63 63
63 63 63
63 63 63
63 63 63
63 63 63
63 63 63
63 63 63
63 63 63
63 63 63
63 63 63
63 63 63
63 63 63
63 63 63
63 63 63
63 63 63
63 63 63
63 63 63
63 63 63
63 63 63
63 63 63
63 63 63
63 63 63
63 63 63
63 63 63
63 63 63
63 63 63
63 63 63
63 63 63
63 63 63
63 63 63
63 63 63
63 63 63
63 63 63
63 63 63
63 63 63
63 63 63
63 63 63
63 63 63
63 63 63
63 63 63
63 63 63
63 63 63
63 63 63
63 63 63
63 63 63
63 63 63
63 63 63
63 63 63
63 63 63
63 63 63
63 63 63
63 63 63
63 63 63
63 63 63
63 63 63
63 63 63
63 63 63
63 63 63
63 63 63
63 63 63
63 63 63
63 63 63
63 63 63
63 63 63
63 63 63
63 63 63
63 63 63
63 63 63
63 63 63
63 63 63
63 63 63
63 63 63
63 63 63
63 63 63
63 63 63
63 63 63
63 63 63
63 63 63
63 63 63
63 63 63
63 63 63
63 63 63
63 63 63
63 63 63
63 63 63
63 63 63
63 63 63
63 63 63
63 63 63
63 63 63
63 63 63
63 63 63
63 63 63
63 63 63
63 63 63
63 63 63
63 63 63
63 63 63
63 63 63
63 63 63
63 63 63
63 63 63
63 63 63
63 63 63
63 63 63
63 63 63
63 63 63
63 63 63
63 63 63
63 63 63
63 63 63
63 63 63
63 63 63
63 63 63
63 63 63
63 63 63
63 63 63
63 63 63
63 63 63
63 63 63
63 63 63
63 63 63
63 63 63
63 63 63
63 63 63
63 63 63
63 63 63
63 63 63
63 63 63
63 63 63
63 63 63
63 63 63
63 63 63
63 63 63
63 63 63
63 63 63
63 63 63
63 63 63
63 63 63
63 63 63
63 63 63
63 63 63
63 63 63
63 63 63
63 63 63
63 63 63
63 63 63
63 63 63
63 63 63
63 63 63
63 63 63
63 63 63
63 63 63
63 63 63
63 63 63
63 63 63
63 63 63
63 63 63
63 63 63
63 63 63
63 63 63
63 63 63
63 63 63
63 63 63
63 63 63
63 63 63
63 63 63
63 63 63
63 63 63
63 63 63
63 63 63
63 63 63
63 63 63
63 63 63
63 63 63
63 63 63
63 63 63
63 63 63
63 63 63
63 63 63
63 63 63
63 63 63
63 63 63
63 63 63
63 63 63
63 63 63
63 63 63
63 63 63
63 63 63
63 63 63
63 63 63
63 63 63
63 63 63
63 63 63
63 63 63
63 63 63
63 63 63
63 63 63
63 63 63
63 63 63
63 63 63
63 63 63
63 63 63
63 63 63
63 63 63
63 63 63
63 63 63
63 63 63
63 63 63
63 63 63
63 63 63
63 63 63
63 63 63
63 63 63
63 63 63
63 63 63
63 63 63
63 63 63
63 63 63
63 63 63
63 63 63
63 63 63
63 63 63
63 63 63
63 63 63
63 63 63
63 63 63
63 63 63
63 63 63
63 63 63
63 63 63
63 63 63
63 63 63
63 63 63
63 63 63
63 63 63
63 63 63
63 63 63
63 63 63
63 63 63
63 63 63
63 63 63
63 63 63
63 63 63
63 63 63
63 63 63
63 63 63
63 63 63
63 63 63
63 63 63
63 63 63
63 63 63
63 63 63
63 63 63
63 63 63
63 63 63
63 63 63
63 63 63
63 63 63
63 63 63
63 63 63
63 63 63
63 63 63
63 63 63
63 63 63
63 63 63
63 63 63
63 63 63
63 63 63
63 63 63
63 63 63
63 63 63
63 63 63
63 63 63
63 63 63
63 63 63
63 63 63
63 63 63
63 63 63
63 63 63
63 63 63
63 63 63
63 63 63
63 63 63
63 63 63
63 63 63
63 63 63
12 136 74
8 143 84
6 148 92
5 152 98
5 155 104
5 158 109
5 161 114
5 163 119
5 165 123
6 167 127
6 169 131
7 170 135
8 172 139
9 173 142
10 174 146
11 175 149
12 177 152
13 178 155
14 179 158
15 179 161
17 180 164
18 181 167
19 182 170
21 182 172
22 183 175
24 184 177
25 184 180
27 185 182
28 185 185
30 185 187
32 186 189
34 186 192
35 186 194
37 186 196
39 187 198
41 187 200
43 187 203
44 187 205
46 187 207
48 187 209
50 187 211
52 187 212
55 187 214
57 187 216
59 186 218
61 186 220
63 186 221
66 186 223
68 185 225
70 185 227
73 185 228
75 184 230
78 184 231
80 183 233
83 182 234
85 182 236
88 181 237
91 180 238
94 179 240
97 179 241
100 178 242
103 177 243
106 175 244
109 174 245
113 173 246
116 172 247
120 170 248
124 169 249
128 167 249
132 165 250
136 163 250
141 161 250
146 158 250
151 155 250
157 152 250
163 148 249
171 143 247
181 136 243
63 63 63
63 63 63
63 63 63
63 63 63
63 63 63
63 63 63
63 63 63
63 63 63
63 63 63
63 63 63
63 63 63
63 63 63
63 63 63
63 63 63
63 63 63
63 63 63
63 63 63
63 63 63
63 63 63
63 63 63
63 63 63
63 63 63
63 63 63
63 63 63
63 63 63
63 63 63
63 63 63
63 63 63
63 63 63
63 63 63
63 63 63
63 63 63
63 63 63
63 63 63
63 63 63
63 63 63
63 63 63
63 63 63
63 63 63
63 63 63
63 63 63
63 63 63
63 63 63
63 63 63
63 63 63
63 63 63
63 63 63
63 63 63
63 63 63
63 63 63
63 63 63
63 63 63
63 63 63
63 63 63
63 63 63
63 63 63
63 63 63
63 63 63
63 63 63
63 63 63
63 63 63
63 63 63
63 63 63
63 63 63
63 63 63
63 63 63
63 63 63
63 63 63
63 63 63
63 63 63
63 63 63
63 63 63
63 63 63
63 63 63
63 63 63
63 63 63
63 63 63
63 63 63
63 63 63
63 63 63
63 63 63
63 63 63
63 63 63
63 63 63
63 63 63
63 63 63
63 63 63
63 63 63
63 63 63
63 63 63
63 63 63
63 63 63
63 63 63
63 63 63
63 63 63
63 63 63
63 63 63
63 63 63
63 63 63
63 63 63
63 63 63
63 63 63
63 63 63
63 63 63
63 63 63
63 63 63
63 63 63
63 63 63
63 63 63
63 63 63
63 63 63
63 63 63
63 63 63
63 63 63
63 63 63
63 63 63
63 63 63
63 63 63
63 63 63
63 63 63
63 63 63
63 63 63
63 63 63
63 63 63
63 63 63
63 63 63
63 63 63
63 63 63
63 63 63
63 63 63
63 63 63
63 63 63
63 63 63
63 63 63
63 63 63
63 63 63
63 63 63
63 63 63
63 63 63
63 63 63
63 63 63
63 63 63
63 63 63
63 63 63
63 63 63
63 63 63
63 63 63
63 63 63
63 63 63
63 63 63
63 63 63
63 63 63
63 63 63
63 63 63
63 63 63
63 63 63
63 63 63
63 63 63
63 63 63
63 63 63
63 63 63
63 63 63
63 63 63
63 63 63
63 63 63
63 63 63
63 63 63
63 63 63
63 63 63
63 63 63
63 63 63
63 63 63
63 63 63
63 63 63
63 63 63
63 63 63
63 63 63
63 63 63
63 63 63
63 63 63
63 63 63
63 63 63
63 63 63
63 63 63
63 63 63
63 63 63
63 63 63
63 63 63
63 63 63
63 63 63
63 63 63
63 63 63
63 63 63
63 63 63
63 63 63
63 63 63
63 63 63
63 63 63
63 63 63
63 63 63
63 63 63
63 63 63
63 63 63
63 63 63
63 63 63
63 63 63
63 63 63
63 63 63
63 63 63
63 63 63
63 63 63
63 63 63
63 63 63
63 63 63
63 63 63
63 63 63
63 63 63
63 63 63
63 63 63
63 63 63
63 63 63
63 63 63
63 63 63
63 63 63
63 63 63
63 63 63
63 63 63
63 63 63
63 63 63
63 63 63
63 63 63
63 63 63
63 63 63
63 63 63
63 63 63
63 63 63
63 63 63
63 63 63
63 63 63
63 63 63
63 63 63
63 63 63
63 63 63
63 63 63
63 63 63
63 63 63
63 63 63
63 63 63
63 63 63
63 63 63
63 63 63
63 63 63
63 63 63
63 63 63
63 63 63
63 63 63
63 63 63
63 63 63
63 63 63
63 63 63
63 63 63
63 63 63
63 63 63
63 63 63
63 63 63
63 63 63
63 63 63
63 63 63
63 63 63
63 63 63
63 63 63
63 63 63
63 63 63
63 63 63
63 63 63
63 63 63
63 63 63
63 63 63
63 63 63
63 63 63
63 63 63
63 63 63
63 63 63
63 63 63
63 63 63
63 63 63
63 63 63
63 63 63
63 63 63
63 63 63
63 63 63
63 63 63
63 63 63
63 63 63
63 63 63
63 63 63
63 63 63
63 63 63
63 63 63
63 63 63
63 63 63
63 63 63
63 63 63
63 63 63
63 63 63
63 63 63
63 63 63
63 63 63
63 63 63
63 63 63
63 63 63
63 63 63
63 63 63
63 63 63
63 63 63
63 63 63
63 63 63
63 63 63
63 63 63
63 63 63
63 63 63
63 63 63
12 131 73
8 139 84
6 145 92
5 149 99
4 152 105
4 155 110
4 158 115
4 160 120
4 162 124
5 164 128
5 166 132
6 167 136
7 169 140
8 170 143
9 172 146
10 173 150
11 174 153
12 175 156
13 176 159
15 177 162
16 178 165
17 178 168
19 179 170
20 180 173
21 180 176
23 181 178
24 182 181
26 182 183
28 182 186
29 183 188
31 183 190
33 183 193
34 184 195
36 184 197
38 184 199
40 184 201
42 184 203
44 184 206
45 185 208
47 185 210
49 184 211
52 184 213
54 184 215
56 184 217
58 184 219
60 184 221
62 183 222
65 183 224
67 183 226
69 182 227
72 182 229
74 182 231
77 181 232
79 180 234
82 180 235
85 179 236
87 178 238
90 178 239
93 177 240
96 176 242
99 175 243
102 174 244
105 173 245
109 172 246
112 170 247
115 169 248
119 167 249
123 166 250
127 164 250
131 162 251
135 160 251
140 158 251
145 155 251
150 152 251
156 149 250
163 145 249
171 139 247
182 131 243
63 63 63
63 63 63
63 63 63
63 63 63
63 63 63
63 63 63
63 63 63
63 63 63
63 63 63
63 63 63
63 63 63
63 63 63
63 63 63
63 63 63
63 63 63
63 63 63
63 63 63
63 63 63
63 63 63
63 63 63
63 63 63
63 63 63
63 63 63
63 63 63
63 63 63
63 63 63
63 63 63
63 63 63
63 63 63
63 63 63
63 63 63
63 63 63
63 63 63
63 63 63
63 63 63
63 63 63
63 63 63
63 63 63
63 63 63
63 63 63
63 63 63
63 63 63
63 63 63
63 63 63
63 63 63
63 63 63
63 63 63
63 63 63
63 63 63
63 63 63
63 63 63
63 63 63
63 63 63
63 63 63
63 63 63
63 63 63
63 63 63
63 63 63
63 63 63
63 63 63
63 63 63
63 63 63
63 63 63
63 63 63
63 63 63
63 63 63
63 63 63
63 63 63
63 63 63
63 63 63
63 63 63
63 63 63
63 63 63
63 63 63
63 63 63
63 63 63
63 63 63
63 63 63
63 63 63
63 63 63
63 63 63
63 63 63
63 63 63
63 63 63
63 63 63
63 63 63
63 63 63
63 63 63
63 63 63
63 63 63
63 63 63
63 63 63
63 63 63
63 63 63
63 63 63
63 63 63
63 63 63
63 63 63
63 63 63
63 63 63
63 63 63
63 63 63
63 63 63
63 63 63
63 63 63
63 63 63
63 63 63
63 63 63
63 63 63
63 63 63
63 63 63
63 63 63
63 63 63
63 63 63
63 63 63
63 63 63
63 63 63
63 63 63
63 63 63
63 63 63
63 63 63
63 63 63
63 63 63
63 63 63
63 63 63
63 63 63
63 63 63
63 63 63
63 63 63
63 63 63
63 63 63
63 63 63
63 63 63
63 63 63
63 63 63
63 63 63
63 63 63
63 63 63
63 63 63
63 63 63
63 63 63
63 63 63
63 63 63
63 63 63
63 63 63
63 63 63
63 63 63
63 63 63
63 63 63
63 63 63
63 63 63
63 63 63
63 63 63
63 63 63
63 63 63
63 63 63
63 63 63
63 63 63
63 63 63
63 63 63
63 63 63
63 63 63
63 63 63
63 63 63
63 63 63
63 63 63
63 63 63
63 63 63
63 63 63
63 63 63
63 63 63
63 63 63
63 63 63
63 63 63
63 63 63
63 63 63
63 63 63
63 63 63
63 63 63
63 63 63
63 63 63
63 63 63
63 63 63
63 63 63
63 63 63
63 63 63
63 63 63
63 63 63
63 63 63
63 63 63
63 63 63
63 63 63
63 63 63
63 63 63
63 63 63
63 63 63
63 63 63
63 63 63
63 63 63
63 63 63
63 63 63
63 63 63
63 63 63
63 63 63
63 63 63
63 63 63
63 63 63
63 63 63
63 63 63
63 63 63
63 63 63
63 63 63
63 63 63
63 63 63
63 63 63
63 63 63
63 63 63
63 63 63
63 63 63
63 63 63
63 63 63
63 63 63
63 63 63
63 63 63
63 63 63
63 63 63
63 63 63
63 63 63
63 63 63
63 63 63
63 63 63
63 63 63
63 63 63
63 63 63
63 63 63
63 63 63
63 63 63
63 63 63
63 63 63
63 63 63
63 63 63
63 63 63
63 63 63
63 63 63
63 63 63
63 63 63
63 63 63
63 63 63
63 63 63
63 63 63
63 63 63
63 63 63
63 63 63
63 63 63
63 63 63
63 63 63
63 63 63
63 63 63
63 63 63
63 63 63
63 63 63
63 63 63
63 63 63
63 63 63
63 63 63
63 63 63
63 63 63
63 63 63
63 63 63
63 63 63
63 63 63
63 63 63
63 63 63
63 63 63
63 63 63
63 63 63
63 63 63
63 63 63
63 63 63
63 63 63
63 63 63
63 63 63
63 63 63
63 63 63
63 63 63
63 63 63
63 63 63
63 63 63
63 63 63
63 63 63
63 63 63
63 63 63
63 63 63
63 63 63
63 63 63
63 63 63
63 63 63
63 63 63
63 63 63
63 63 63
63 63 63
63 63 63
63 63 63
63 63 63
63 63 63
63 63 63
63 63 63
63 63 63
63 63 63
63 63 63
63 63 63
63 63 63
63 63 63
63 63 63
63 63 63
63 63 63
63 63 63
63 63 63
63 63 63
63 63 63
63 63 63
63 63 63
12 126 72
7 136 84
5 141 92
4 145 99
3 149 105
3 152 111
3 155 116
3 157 120
4 159 125
4 161 129
5 163 133
5 165 137
6 166 140
7 168 144
8 169 147
9 170 150
10 171 154
11 172 157
12 173 160
14 174 163
15 175 166
16 176 168
18 177 171
19 177 174
21 178 177
22 178 179
24 179 182
25 179 184
27 180 187
28 180 189
30 181 191
32 181 194
33 181 196
35 181 198
37 182 200
39 182 202
41 182 204
43 182 206
45 182 208
47 182 210
49 182 212
51 182 214
53 182 216
55 182 218
57 181 220
59 181 222
61 181 223
64 181 225
66 180 227
68 180 228
71 179 230
73 179 231
76 178 233
78 178 234
81 177 236
84 177 237
87 176 239
89 175 240
92 174 241
95 173 243
98 172 244
101 171 245
105 170 246
108 169 247
111 168 248
115 166 249
118 165 250
122 163 250
126 161 251
130 159 251
135 157 252
139 155 252
144 152 252
150 149 252
156 145 251
163 141 250
171 136 248
183 126 243
63 63 63
63 63 63
63 63 63
63 63 63
63 63 63
63 63 63
63 63 63
63 63 63
63 63 63
63 63 63
63 63 63
63 63 63
63 63 63
63 63 63
63 63 63
63 63 63
63 63 63
63 63 63
63 63 63
63 63 63
63 63 63
63 63 63
63 63 63
63 63 63
63 63 63
63 63 63
63 63 63
63 63 63
63 63 63
63 63 63
63 63 63
63 63 63
63 63 63
63 63 63
63 63 63
63 63 63
63 63 63
63 63 63
63 63 63
63 63 63
63 63 63
63 63 63
63 63 63
63 63 63
63 63 63
63 63 63
63 63 63
63 63 63
63 63 63
63 63 63
63 63 63
63 63 63
63 63 63
63 63 63
63 63 63
63 63 63
63 63 63
63 63 63
63 63 63
63 63 63
63 63 63
63 63 63
63 63 63
63 63 63
63 63 63
63 63 63
63 63 63
63 63 63
63 63 63
63 63 63
63 63 63
63 63 63
63 63 63
63 63 63
63 63 63
63 63 63
63 63 63
63 63 63
63 63 63
63 63 63
63 63 63
63 63 63
63 63 63
63 63 63
63 63 63
63 63 63
63 63 63
63 63 63
63 63 63
63 63 63
63 63 63
63 63 63
63 63 63
63 63 63
63 63 63
63 63 63
63 63 63
63 63 63
63 63 63
63 63 63
63 63 63
63 63 63
63 63 63
63 63 63
63 63 63
63 63 63
63 63 63
63 63 63
63 63 63
63 63 63
63 63 63
63 63 63
63 63 63
63 63 63
63 63 63
63 63 63
63 63 63
63 63 63
63 63 63
63 63 63
63 63 63
63 63 63
63 63 63
63 63 63
63 63 63
63 63 63
63 63 63
63 63 63
63 63 63
63 63 63
63 63 63
63 63 63
63 63 63
63 63 63
63 63 63
63 63 63
63 63 63
63 63 63
63 63 63
63 63 63
63 63 63
63 63 63
63 63 63
63 63 63
63 63 63
63 63 63
63 63 63
63 63 63
63 63 63
63 63 63
63 63 63
63 63 63
63 63 63
63 63 63
63 63 63
63 63 63
63 63 63
63 63 63
63 63 63
63 63 63
63 63 63
63 63 63
63 63 63
63 63 63
63 63 63
63 63 63
63 63 63
63 63 63
63 63 63
63 63 63
63 63 63
63 63 63
63 63 63
63 63 63
63 63 63
63 63 63
63 63 63
63 63 63
63 63 63
63 63 63
63 63 63
63 63 63
63 63 63
63 63 63
63 63 63
63 63 63
63 63 63
63 63 63
63 63 63
63 63 63
63 63 63
63 63 63
63 63 63
63 63 63
63 63 63
63 63 63
63 63 63
63 63 63
63 63 63
63 63 63
63 63 63
63 63 63
63 63 63
63 63 63
63 63 63
63 63 63
63 63 63
63 63 63
63 63 63
63 63 63
63 63 63
63 63 63
63 63 63
63 63 63
63 63 63
63 63 63
63 63 63
63 63 63
63 63 63
63 63 63
63 63 63
63 63 63
63 63 63
63 63 63
63 63 63
63 63 63
63 63 63
63 63 63
63 63 63
63 63 63
63 63 63
63 63 63
63 63 63
63 63 63
63 63 63
63 63 63
63 63 63
63 63 63
63 63 63
63 63 63
63 63 63
63 63 63
63 63 63
63 63 63
63 63 63
63 63 63
63 63 63
63 63 63
63 63 63
63 63 63
63 63 63
63 63 63
63 63 63
63 63 63
63 63 63
63 63 63
63 63 63
63 63 63
63 63 63
63 63 63
63 63 63
63 63 63
63 63 63
63 63 63
63 63 63
63 63 63
63 63 63
63 63 63
63 63 63
63 63 63
63 63 63
63 63 63
63 63 63
63 63 63
63 63 63
63 63 63
63 63 63
63 63 63
63 63 63
63 63 63
63 63 63
63 63 63
63 63 63
63 63 63
63 63 63
63 63 63
63 63 63
63 63 63
63 63 63
63 63 63
63 63 63
63 63 63
63 63 63
63 63 63
63 63 63
63 63 63
63 63 63
63 63 63
63 63 63
63 63 63
63 63 63
63 63 63
63 63 63
63 63 63
63 63 63
63 63 63
63 63 63
63 63 63
63 63 63
63 63 63
63 63 63
63 63 63
63 63 63
63 63 63
63 63 63
63 63 63
63 63 63
63 63 63
63 63 63
63 63 63
63 63 63
63 63 63
14 119 68
7 131 84
5 138 92
3 142 99
3 146 106
2 149 111
2 152 116
2 154 121
3 156 125
3 158 129
4 160 133
5 162 137
5 163 141
6 165 144
7 166 148
8 167 151
9 168 154
10 170 158
12 171 161
13 171 164
14 172 166
15 173 169
17 174 172
18 175 175
20 175 177
21 176 180
23 176 182
24 177 185
26 177 187
27 178 190
29 178 192
31 178 194
33 179 197
34 179 199
36 179 201
38 179 203
40 179 205
42 179 207
44 179 209
46 179 211
48 179 213
50 179 215
52 179 217
54 179 219
56 179 221
58 179 222
61 178 224
63 178 226
65 178 228
68 177 229
70 177 231
73 176 232
75 176 234
78 175 235
80 175 237
83 174 238
86 173 240
89 172 241
91 171 242
94 171 243
97 170 245
101 168 246
104 167 247
107 166 248
111 165 249
114 163 250
118 162 250
122 160 251
126 158 252
130 156 252
134 154 253
139 152 253
144 149 253
149 146 252
156 142 252
163 138 250
171 131 248
187 119 241
63 63 63
63 63 63
63 63 63
63 63 63
63 63 63
63 63 63
63 63 63
63 63 63
63 63 63
63 63 63
63 63 63
63 63 63
63 63 63
63 63 63
63 63 63
63 63 63
63 63 63
63 63 63
63 63 63
63 63 63
63 63 63
63 63 63
63 63 63
63 63 63
63 63 63
63 63 63
63 63 63
63 63 63
63 63 63
63 63 63
63 63 63
63 63 63
63 63 63
63 63 63
63 63 63
63 63 63
63 63 63
63 63 63
63 63 63
63 63 63
63 63 63
63 63 63
63 63 63
63 63 63
63 63 63
63 63 63
63 63 63
63 63 63
63 63 63
63 63 63
63 63 63
63 63 63
63 63 63
63 63 63
63 63 63
63 63 63
63 63 63
63 63 63
63 63 63
63 63 63
63 63 63
63 63 63
63 63 63
63 63 63
63 63 63
63 63 63
63 63 63
63 63 63
63 63 63
63 63 63
63 63 63
63 63 63
63 63 63
63 63 63
63 63 63
63 63 63
63 63 63
63 63 63
63 63 63
63 63 63
63 63 63
63 63 63
63 63 63
63 63 63
63 63 63
63 63 63
63 63 63
63 63 63
63 63 63
63 63 63
63 63 63
63 63 63
63 63 63
63 63 63
63 63 63
63 63 63
63 63 63
63 63 63
63 63 63
63 63 63
63 63 63
63 63 63
63 63 63
63 63 63
63 63 63
63 63 63
63 63 63
63 63 63
63 63 63
63 63 63
63 63 63
63 63 63
63 63 63
63 63 63
63 63 63
63 63 63
63 63 63
63 63 63
63 63 63
63 63 63
63 63 63
63 63 63
63 63 63
63 63 63
63 63 63
63 63 63
63 63 63
63 63 63
63 63 63
63 63 63
63 63 63
63 63 63
63 63 63
63 63 63
63 63 63
63 63 63
63 63 63
63 63 63
63 63 63
63 63 63
63 63 63
63 63 63
63 63 63
63 63 63
63 63 63
63 63 63
63 63 63
63 63 63
63 63 63
63 63 63
63 63 63
63 63 63
63 63 63
63 63 63
63 63 63
63 63 63
63 63 63
63 63 63
63 63 63
63 63 63
63 63 63
63 63 63
63 63 63
63 63 63
63 63 63
63 63 63
63 63 63
63 63 63
63 63 63
63 63 63
63 63 63
63 63 63
63 63 63
63 63 63
63 63 63
63 63 63
63 63 63
63 63 63
63 63 63
63 63 63
63 63 63
63 63 63
63 63 63
63 63 63
63 63 63
63 63 63
63 63 63
63 63 63
63 63 63
63 63 63
63 63 63
63 63 63
63 63 63
63 63 63
63 63 63
63 63 63
63 63 63
63 63 63
63 63 63
63 63 63
63 63 63
63 63 63
63 63 63
63 63 63
63 63 63
63 63 63
63 63 63
63 63 63
63 63 63
63 63 63
63 63 63
63 63 63
63 63 63
63 63 63
63 63 63
63 63 63
63 63 63
63 63 63
63 63 63
63 63 63
63 63 63
63 63 63
63 63 63
63 63 63
63 63 63
63 63 63
63 63 63
63 63 63
63 63 63
63 63 63
63 63 63
63 63 63
63 63 63
63 63 63
63 63 63
63 63 63
63 63 63
63 63 63
63 63 63
63 63 63
63 63 63
63 63 63
63 63 63
63 63 63
63 63 63
63 63 63
63 63 63
63 63 63
63 63 63
63 63 63
63 63 63
63 63 63
63 63 63
63 63 63
63 63 63
63 63 63
63 63 63
63 63 63
63 63 63
63 63 63
63 63 63
63 63 63
63 63 63
63 63 63
63 63 63
63 63 63
63 63 63
63 63 63
63 63 63
63 63 63
63 63 63
63 63 63
63 63 63
63 63 63
63 63 63
63 63 63
63 63 63
63 63 63
63 63 63
63 63 63
63 63 63
63 63 63
63 63 63
63 63 63
63 63 63
63 63 63
63 63 63
63 63 63
63 63 63
63 63 63
63 63 63
63 63 63
63 63 63
63 63 63
63 63 63
63 63 63
63 63 63
63 63 63
63 63 63
63 63 63
63 63 63
63 63 63
63 63 63
63 63 63
63 63 63
63 63 63
63 63 63
63 63 63
63 63 63
63 63 63
63 63 63
63 63 63
63 63 63
63 63 63
63 63 63
63 63 63
63 63 63
63 63 63
63 63 63
63 63 63
63 63 63
63 63 63
63 63 63
8 127 83
5 134 92
3 138 99
2 142 106
2 146 111
2 148 116
2 151 121
2 153 126
3 155 130
3 157 134
4 159 138
5 160 142
5 162 145
6 163 149
7 164 152
8 166 155
10 167 158
11 168 161
12 169 164
13 170 167
15 170 170
16 171 173
17 172 175
19 172 178
20 173 181
22 174 183
23 174 186
25 175 188
27 175 190
28 175 193
30 176 195
32 176 197
34 176 200
35 176 202
37 176 204
39 177 206
41 177 208
43 177 210
45 177 212
47 177 214
49 177 216
51 176 218
53 176 220
55 176 221
58 176 223
60 176 225
62 175 227
65 175 228
67 175 230
69 174 232
72 174 233
74 173 235
77 172 236
80 172 238
82 171 239
85 170 240
88 170 242
91 169 243
94 168 244
97 167 245
100 166 247
103 164 248
106 163 249
110 162 250
113 160 250
117 159 251
121 157 252
125 155 252
129 153 253
134 151 253
139 148 253
144 146 253
149 142 253
156 138 252
163 134 250
172 127 247
63 63 63
63 63 63
63 63 63
63 63 63
63 63 63
63 63 63
63 63 63
63 63 63
63 63 63
63 63 63
63 63 63
63 63 63
63 63 63
63 63 63
63 63 63
63 63 63
63 63 63
63 63 63
63 63 63
63 63 63
63 63 63
63 63 63
63 63 63
63 63 63
63 63 63
63 63 63
63 63 63
63 63 63
63 63 63
63 63 63
63 63 63
63 63 63
63 63 63
63 63 63
63 63 63
63 63 63
63 63 63
63 63 63
63 63 63
63 63 63
63 63 63
63 63 63
63 63 63
63 63 63
63 63 63
63 63 63
63 63 63
63 63 63
63 63 63
63 63 63
63 63 63
63 63 63
63 63 63
63 63 63
63 63 63
63 63 63
63 63 63
63 63 63
63 63 63
63 63 63
63 63 63
63 63 63
63 63 63
63 63 63
63 63 63
63 63 63
63 63 63
63 63 63
63 63 63
63 63 63
63 63 63
63 63 63
63 63 63
63 63 63
63 63 63
63 63 63
63 63 63
63 63 63
63 63 63
63 63 63
63 63 63
63 63 63
63 63 63
63 63 63
63 63 63
63 63 63
63 63 63
63 63 63
63 63 63
63 63 63
63 63 63
63 63 63
63 63 63
63 63 63
63 63 63
63 63 63
63 63 63
63 63 63
63 63 63
63 63 63
63 63 63
63 63 63
63 63 63
63 63 63
63 63 63
63 63 63
63 63 63
63 63 63
63 63 63
63 63 63
63 63 63
63 63 63
63 63 63
63 63 63
63 63 63
63 63 63
63 63 63
63 63 63
63 63 63
63 63 63
63 63 63
63 63 63
63 63 63
63 63 63
63 63 63
63 63 63
63 63 63
63 63 63
63 63 63
63 63 63
63 63 63
63 63 63
63 63 63
63 63 63
63 63 63
63 63 63
63 63 63
63 63 63
63 63 63
63 63 63
63 63 63
63 63 63
63 63 63
63 63 63
63 63 63
63 63 63
63 63 63
63 63 63
63 63 63
63 63 63
63 63 63
63 63 63
63 63 63
63 63 63
63 63 63
63 63 63
63 63 63
63 63 63
63 63 63
63 63 63
63 63 63
63 63 63
63 63 63
63 63 63
63 63 63
63 63 63
63 63 63
63 63 63
63 63 63
63 63 63
63 63 63
63 63 63
63 63 63
63 63 63
63 63 63
63 63 63
63 63 63
63 63 63
63 63 63
63 63 63
63 63 63
63 63 63
63 63 63
63 63 63
63 63 63
63 63 63
63 63 63
63 63 63
63 63 63
63 63 63
63 63 63
63 63 63
63 63 63
63 63 63
63 63 63
63 63 63
63 63 63
63 63 63
63 63 63
63 63 63
63 63 63
63 63 63
63 63 63
63 63 63
63 63 63
63 63 63
63 63 63
63 63 63
63 63 63
63 63 63
63 63 63
63 63 63
63 63 63
63 63 63
63 63 63
63 63 63
63 63 63
63 63 63
63 63 63
63 63 63
63 63 63
63 63 63
63 63 63
63 63 63
63 63 63
63 63 63
63 63 63
63 63 63
63 63 63
63 63 63
63 63 63
63 63 63
63 63 63
63 63 63
63 63 63
63 63 63
63 63 63
63 63 63
63 63 63
63 63 63
63 63 63
63 63 63
63 63 63
63 63 63
63 63 63
63 63 63
63 63 63
63 63 63
63 63 63
63 63 63
63 63 63
63 63 63
63 63 63
63 63 63
63 63 63
63 63 63
63 63 63
63 63 63
63 63 63
63 63 63
63 63 63
63 63 63
63 63 63
63 63 63
63 63 63
63 63 63
63 63 63
63 63 63
63 63 63
63 63 63
63 63 63
63 63 63
63 63 63
63 63 63
63 63 63
63 63 63
63 63 63
63 63 63
63 63 63
63 63 63
63 63 63
63 63 63
63 63 63
63 63 63
63 63 63
63 63 63
63 63 63
63 63 63
63 63 63
63 63 63
63 63 63
63 63 63
63 63 63
63 63 63
63 63 63
63 63 63
63 63 63
63 63 63
63 63 63
63 63 63
63 63 63
63 63 63
63 63 63
63 63 63
63 63 63
63 63 63
63 63 63
63 63 63
63 63 63
63 63 63
63 63 63
63 63 63
63 63 63
63 63 63
63 63 63
63 63 63
63 63 63
63 63 63
63 63 63
63 63 63
63 63 63
63 63 63
63 63 63
63 63 63
8 122 81
5 129 92
3 135 99
2 139 106
1 142 112
1 145 117
1 148 122
2 150 126
2 152 130
2 154 135
3 156 138
4 157 142
5 159 146
6 160 149
7 162 153
8 163 156
9 164 159
10 165 162
11 166 165
13 167 168
14 168 171
15 168 173
17 169 176
18 170 179
20 170 181
21 171 184
23 171 186
24 172 189
26 172 191
28 173 194
29 173 196
31 173 198
33 173 200
35 174 203
36 174 205
38 174 207
40 174 209
42 174 211
44 174 213
46 174 215
48 174 217
50 174 219
52 174 220
55 173 222
57 173 224
59 173 226
61 173 227
64 172 229
66 172 231
69 171 232
71 171 234
74 170 235
76 170 237
79 169 238
82 168 240
84 168 241
87 167 242
90 166 244
93 165 245
96 164 246
99 163 247
102 162 248
106 160 249
109 159 250
113 157 251
117 156 252
120 154 253
125 152 253
129 150 253
133 148 254
138 145 254
143 142 254
149 139 253
156 135 252
163 129 250
174 122 247
63 63 63
63 63 63
63 63 63
63 63 63
63 63 63
63 63 63
63 63 63
63 63 63
63 63 63
63 63 63
63 63 63
63 63 63
63 63 63
63 63 63
63 63 63
63 63 63
63 63 63
63 63 63
63 63 63
63 63 63
63 63 63
63 63 63
63 63 63
63 63 63
63 63 63
63 63 63
63 63 63
63 63 63
63 63 63
63 63 63
63 63 63
63 63 63
63 63 63
63 63 63
63 63 63
63 63 63
63 63 63
63 63 63
63 63 63
63 63 63
63 63 63
63 63 63
63 63 63
63 63 63
63 63 63
63 63 63
63 63 63
63 63 63
63 63 63
63 63 63
63 63 63
63 63 63
63 63 63
63 63 63
63 63 63
63 63 63
63 63 63
63 63 63
63 63 63
63 63 63
63 63 63
63 63 63
63 63 63
63 63 63
63 63 63
63 63 63
63 63 63
63 63 63
63 63 63
63 63 63
63 63 63
63 63 63
63 63 63
63 63 63
63 63 63
63 63 63
63 63 63
63 63 63
63 63 63
63 63 63
63 63 63
63 63 63
63 63 63
63 63 63
63 63 63
63 63 63
63 63 63
63 63 63
63 63 63
63 63 63
63 63 63
63 63 63
63 63 63
63 63 63
63 63 63
63 63 63
63 63 63
63 63 63
63 63 63
63 63 63
63 63 63
63 63 63
63 63 63
63 63 63
63 63 63
63 63 63
63 63 63
63 63 63
63 63 63
63 63 63
63 63 63
63 63 63
63 63 63
63 63 63
63 63 63
63 63 63
63 63 63
63 63 63
63 63 63
63 63 63
63 63 63
63 63 63
63 63 63
63 63 63
63 63 63
63 63 63
63 63 63
63 63 63
63 63 63
63 63 63
63 63 63
63 63 63
63 63 63
63 63 63
63 63 63
63 63 63
63 63 63
63 63 63
63 63 63
63 63 63
63 63 63
63 63 63
63 63 63
63 63 63
63 63 63
63 63 63
63 63 63
63 63 63
63 63 63
63 63 63
63 63 63
63 63 63
63 63 63
63 63 63
63 63 63
63 63 63
63 63 63
63 63 63
63 63 63
63 63 63
63 63 63
63 63 63
63 63 63
63 63 63
63 63 63
63 63 63
63 63 63
63 63 63
63 63 63
63 63 63
63 63 63
63 63 63
63 63 63
63 63 63
63 63 63
63 63 63
63 63 63
63 63 63
63 63 63
63 63 63
63 63 63
63 63 63
63 63 63
63 63 63
63 63 63
63 63 63
63 63 63
63 63 63
63 63 63
63 63 63
63 63 63
63 63 63
63 63 63
63 63 63
63 63 63
63 63 63
63 63 63
63 63 63
63 63 63
63 63 63
63 63 63
63 63 63
63 63 63
63 63 63
63 63 63
63 63 63
63 63 63
63 63 63
63 63 63
63 63 63
63 63 63
63 63 63
63 63 63
63 63 63
63 63 63
63 63 63
63 63 63
63 63 63
63 63 63
63 63 63
63 63 63
63 63 63
63 63 63
63 63 63
63 63 63
63 63 63
63 63 63
63 63 63
63 63 63
63 63 63
63 63 63
63 63 63
63 63 63
63 63 63
63 63 63
63 63 63
63 63 63
63 63 63
63 63 63
63 63 63
63 63 63
63 63 63
63 63 63
63 63 63
63 63 63
63 63 63
63 63 63
63 63 63
63 63 63
63 63 63
63 63 63
63 63 63
63 63 63
63 63 63
63 63 63
63 63 63
63 63 63
63 63 63
63 63 63
63 63 63
63 63 63
63 63 63
63 63 63
63 63 63
63 63 63
63 63 63
63 63 63
63 63 63
63 63 63
63 63 63
63 63 63
63 63 63
63 63 63
63 63 63
63 63 63
63 63 63
63 63 63
63 63 63
63 63 63
63 63 63
63 63 63
63 63 63
63 63 63
63 63 63
63 63 63
63 63 63
63 63 63
63 63 63
63 63 63
63 63 63
63 63 63
63 63 63
63 63 63
63 63 63
63 63 63
63 63 63
63 63 63
63 63 63
63 63 63
63 63 63
63 63 63
63 63 63
63 63 63
63 63 63
63 63 63
63 63 63
63 63 63
63 63 63
63 63 63
63 63 63
63 63 63
63 63 63
63 63 63
63 63 63
63 63 63
63 63 63
63 63 63
63 63 63
63 63 63
63 63 63
63 63 63
63 63 63
63 63 63
63 63 63
10 115 78
5 125 91
3 131 99
2 135 106
1 139 112
1 142 117
1 144 122
1 147 126
1 149 131
2 151 135
3 153 139
3 154 143
4 156 146
5 157 150
6 159 153
7 160 156
8 161 159
9 162 163
11 163 166
12 164 168
13 165 171
15 165 174
16 166 177
17 167 179
19 167 182
20 168 185
22 169 187
24 169 190
25 169 192
27 170 194
29 170 197
30 170 199
32 171 201
34 171 203
36 171 205
38 171 207
40 171 210
41 171 212
43 171 214
45 171 215
48 171 217
50 171 219
52 171 221
54 171 223
56 170 225
58 170 226
61 170 228
63 169 230
65 169 231
68 169 233
70 168 235
73 167 236
76 167 238
78 166 239
81 165 240
84 165 242
87 164 243
89 163 244
92 162 246
95 161 247
99 160 248
102 159 249
105 157 250
109 156 251
112 154 252
116 153 252
120 151 253
124 149 254
129 147 254
133 144 254
138 142 254
143 139 254
149 135 253
156 131 252
164 125 250
177 115 245
63 63 63
63 63 63
63 63 63
63 63 63
63 63 63
63 63 63
63 63 63
63 63 63
63 63 63
63 63 63
63 63 63
63 63 63
63 63 63
63 63 63
63 63 63
63 63 63
63 63 63
63 63 63
63 63 63
63 63 63
63 63 63
63 63 63
63 63 63
63 63 63
63 63 63
63 63 63
63 63 63
63 63 63
63 63 63
63 63 63
63 63 63
63 63 63
63 63 63
63 63 63
63 63 63
63 63 63
63 63 63
63 63 63
63 63 63
63 63 63
63 63 63
63 63 63
63 63 63
63 63 63
63 63 63
63 63 63
63 63 63
63 63 63
63 63 63
63 63 63
63 63 63
63 63 63
63 63 63
63 63 63
63 63 63
63 63 63
63 63 63
63 63 63
63 63 63
63 63 63
63 63 63
63 63 63
63 63 63
63 63 63
63 63 63
63 63 63
63 63 63
63 63 63
63 63 63
63 63 63
63 63 63
63 63 63
63 63 63
63 63 63
63 63 63
63 63 63
63 63 63
63 63 63
63 63 63
63 63 63
63 63 63
63 63 63
63 63 63
63 63 63
63 63 63
63 63 63
63 63 63
63 63 63
63 63 63
63 63 63
63 63 63
63 63 63
63 63 63
63 63 63
63 63 63
63 63 63
63 63 63
63 63 63
63 63 63
63 63 63
63 63 63
63 63 63
63 63 63
63 63 63
63 63 63
63 63 63
63 63 63
63 63 63
63 63 63
63 63 63
63 63 63
63 63 63
63 63 63
63 63 63
63 63 63
63 63 63
63 63 63
63 63 63
63 63 63
63 63 63
63 63 63
63 63 63
63 63 63
63 63 63
63 63 63
63 63 63
63 63 63
63 63 63
63 63 63
63 63 63
63 63 63
63 63 63
63 63 63
63 63 63
63 63 63
63 63 63
63 63 63
63 63 63
63 63 63
63 63 63
63 63 63
63 63 63
63 63 63
63 63 63
63 63 63
63 63 63
63 63 63
63 63 63
63 63 63
63 63 63
63 63 63
63 63 63
63 63 63
63 63 63
63 63 63
63 63 63
63 63 63
63 63 63
63 63 63
63 63 63
63 63 63
63 63 63
63 63 63
63 63 63
63 63 63
63 63 63
63 63 63
63 63 63
63 63 63
63 63 63
63 63 63
63 63 63
63 63 63
63 63 63
63 63 63
63 63 63
63 63 63
63 63 63
63 63 63
63 63 63
63 63 63
63 63 63
63 63 63
63 63 63
63 63 63
63 63 63
63 63 63
63 63 63
63 63 63
63 63 63
63 63 63
63 63 63
63 63 63
63 63 63
63 63 63
63 63 63
63 63 63
63 63 63
63 63 63
63 63 63
63 63 63
63 63 63
63 63 63
63 63 63
63 63 63
63 63 63
63 63 63
63 63 63
63 63 63
63 63 63
63 63 63
63 63 63
63 63 63
63 63 63
63 63 63
63 63 63
63 63 63
63 63 63
63 63 63
63 63 63
63 63 63
63 63 63
63 63 63
63 63 63
63 63 63
63 63 63
63 63 63
63 63 63
63 63 63
63 63 63
63 63 63
63 63 63
63 63 63
63 63 63
63 63 63
63 63 63
63 63 63
63 63 63
63 63 63
63 63 63
63 63 63
63 63 63
63 63 63
63 63 63
63 63 63
63 63 63
63 63 63
63 63 63
63 63 63
63 63 63
63 63 63
63 63 63
63 63 63
63 63 63
63 63 63
63 63 63
63 63 63
63 63 63
63 63 63
63 63 63
63 63 63
63 63 63
63 63 63
63 63 63
63 63 63
63 63 63
63 63 63
63 63 63
63 63 63
63 63 63
63 63 63
63 63 63
63 63 63
63 63 63
63 63 63
63 63 63
63 63 63
63 63 63
63 63 63
63 63 63
63 63 63
63 63 63
63 63 63
63 63 63
63 63 63
63 63 63
63 63 63
63 63 63
63 63 63
63 63 63
63 63 63
63 63 63
63 63 63
63 63 63
63 63 63
63 63 63
63 63 63
63 63 63
63 63 63
63 63 63
63 63 63
63 63 63
63 63 63
63 63 63
63 63 63
63 63 63
63 63 63
63 63 63
63 63 63
63 63 63
63 63 63
63 63 63
63 63 63
63 63 63
63 63 63
63 63 63
63 63 63
63 63 63
63 63 63
63 63 63
63 63 63
63 63 63
63 63 63
63 63 63
63 63 63
6 120 89
3 126 98
1 131 105
1 135 111
0 138 117
0 141 122
0 143 127
1 146 131
1 148 135
2 150 139
3 151 143
3 153 147
4 154 150
5 156 154
6 157 157
8 158 160
9 159 163
10 160 166
11 161 169
12 162 172
14 163 175
15 163 177
17 164 180
18 165 183
20 165 185
21 166 188
23 166 190
24 167 193
26 167 195
28 167 197
30 168 200
31 168 202
33 168 204
35 168 206
37 168 208
39 168 210
41 168 212
43 168 214
45 168 216
47 168 218
49 168 220
51 168 222
53 168 224
55 168 225
58 167 227
60 167 229
62 167 231
65 166 232
67 166 234
70 165 235
72 165 237
75 164 238
78 163 240
80 163 241
83 162 243
86 161 244
89 160 245
92 159 246
95 158 247
98 157 249
101 156 250
105 154 251
108 153 252
112 151 252
116 150 253
120 148 254
124 146 254
128 143 255
133 141 255
138 138 255
144 135 254
150 131 254
157 126 252
166 120 249
63 63 63
63 63 63
63 63 63
63 63 63
63 63 63
63 63 63
63 63 63
63 63 63
63 63 63
63 63 63
63 63 63
63 63 63
63 63 63
63 63 63
63 63 63
63 63 63
63 63 63
63 63 63
63 63 63
63 63 63
63 63 63
63 63 63
63 63 63
63 63 63
63 63 63
63 63 63
63 63 63
63 63 63
63 63 63
63 63 63
63 63 63
63 63 63
63 63 63
63 63 63
63 63 63
63 63 63
63 63 63
63 63 63
63 63 63
63 63 63
63 63 63
63 63 63
63 63 63
63 63 63
63 63 63
63 63 63
63 63 63
63 63 63
63 63 63
63 63 63
63 63 63
63 63 63
63 63 63
63 63 63
63 63 63
63 63 63
63 63 63
63 63 63
63 63 63
63 63 63
63 63 63
63 63 63
63 63 63
63 63 63
63 63 63
63 63 63
63 63 63
63 63 63
63 63 63
63 63 63
63 63 63
63 63 63
63 63 63
63 63 63
63 63 63
63 63 63
63 63 63
63 63 63
63 63 63
63 63 63
63 63 63
63 63 63
63 63 63
63 63 63
63 63 63
63 63 63
63 63 63
63 63 63
63 63 63
63 63 63
63 63 63
63 63 63
63 63 63
63 63 63
63 63 63
63 63 63
63 63 63
63 63 63
63 63 63
63 63 63
63 63 63
63 63 63
63 63 63
63 63 63
63 63 63
63 63 63
63 63 63
63 63 63
63 63 63
63 63 63
63 63 63
63 63 63
63 63 63
63 63 63
63 63 63
63 63 63
63 63 63
63 63 63
63 63 63
63 63 63
63 63 63
63 63 63
63 63 63
63 63 63
63 63 63
63 63 63
63 63 63
63 63 63
63 63 63
63 63 63
63 63 63
63 63 63
63 63 63
63 63 63
63 63 63
63 63 63
63 63 63
63 63 63
63 63 63
63 63 63
63 63 63
63 63 63
63 63 63
63 63 63
63 63 63
63 63 63
63 63 63
63 63 63
63 63 63
63 63 63
63 63 63
63 63 63
63 63 63
63 63 63
63 63 63
63 63 63
63 63 63
63 63 63
63 63 63
63 63 63
63 63 63
63 63 63
63 63 63
63 63 63
63 63 63
63 63 63
63 63 63
63 63 63
63 63 63
63 63 63
63 63 63
63 63 63
63 63 63
63 63 63
63 63 63
63 63 63
63 63 63
63 63 63
63 63 63
63 63 63
63 63 63
63 63 63
63 63 63
63 63 63
63 63 63
63 63 63
63 63 63
63 63 63
63 63 63
63 63 63
63 63 63
63 63 63
63 63 63
63 63 63
63 63 63
63 63 63
63 63 63
63 63 63
63 63 63
63 63 63
63 63 63
63 63 63
63 63 63
63 63 63
63 63 63
63 63 63
63 63 63
63 63 63
63 63 63
63 63 63
63 63 63
63 63 63
63 63 63
63 63 63
63 63 63
63 63 63
63 63 63
63 63 63
63 63 63
63 63 63
63 63 63
63 63 63
63 63 63
63 63 63
63 63 63
63 63 63
63 63 63
63 63 63
63 63 63
63 63 63
63 63 63
63 63 63
63 63 63
63 63 63
63 63 63
63 63 63
63 63 63
63 63 63
63 63 63
63 63 63
63 63 63
63 63 63
63 63 63
63 63 63
63 63 63
63 63 63
63 63 63
63 63 63
63 63 63
63 63 63
63 63 63
63 63 63
63 63 63
63 63 63
63 63 63
63 63 63
63 63 63
63 63 63
63 63 63
63 63 63
63 63 63
63 63 63
63 63 63
63 63 63
63 63 63
63 63 63
63 63 63
63 63 63
63 63 63
63 63 63
63 63 63
63 63 63
63 63 63
63 63 63
63 63 63
63 63 63
63 63 63
63 63 63
63 63 63
63 63 63
63 63 63
63 63 63
63 63 63
63 63 63
63 63 63
63 63 63
63 63 63
63 63 63
63 63 63
63 63 63
63 63 63
63 63 63
63 63 63
63 63 63
63 63 63
63 63 63
63 63 63
63 63 63
63 63 63
63 63 63
63 63 63
63 63 63
63 63 63
63 63 63
63 63 63
63 63 63
63 63 63
63 63 63
63 63 63
63 63 63
63 63 63
63 63 63
63 63 63
63 63 63
63 63 63
63 63 63
63 63 63
63 63 63
63 63 63
63 63 63
63 63 63
63 63 63
63 63 63
63 63 63
63 63 63
63 63 63
7 114 87
3 122 97
2 127 105
1 131 111
0 134 117
0 137 122
0 140 127
0 142 131
1 144 136
1 146 140
2 148 143
3 150 147
4 151 151
5 152 154
6 154 157
7 155 161
8 156 164
9 157 167
11 158 170
12 159 172
13 160 175
15 160 178
16 161 181
17 162 183
19 162 186
21 163 188
22 163 191
24 164 193
25 164 196
27 164 198
29 165 200
31 165 202
32 165 205
34 165 207
36 165 209
38 166 211
40 166 213
42 166 215
44 166 217
46 165 219
48 165 221
50 165 223
53 165 224
55 165 226
57 164 228
59 164 230
62 164 231
64 163 233
67 163 234
69 162 236
72 162 238
74 161 239
77 160 240
80 160 242
83 159 243
85 158 244
88 157 246
91 156 247
94 155 248
98 154 249
101 152 250
104 151 251
108 150 252
112 148 253
115 146 254
119 144 254
124 142 255
128 140 255
133 137 255
138 134 255
144 131 254
150 127 253
158 122 252
168 114 248
63 63 63
63 63 63
63 63 63
63 63 63
63 63 63
63 63 63
63 63 63
63 63 63
63 63 63
63 63 63
63 63 63
63 63 63
63 63 63
63 63 63
63 63 63
63 63 63
63 63 63
63 63 63
63 63 63
63 63 63
63 63 63
63 63 63
63 63 63
63 63 63
63 63 63
63 63 63
63 63 63
63 63 63
63 63 63
63 63 63
63 63 63
63 63 63
63 63 63
63 63 63
63 63 63
63 63 63
63 63 63
63 63 63
63 63 63
63 63 63
63 63 63
63 63 63
63 63 63
63 63 63
63 63 63
63 63 63
63 63 63
63 63 63
63 63 63
63 63 63
63 63 63
63 63 63
63 63 63
63 63 63
63 63 63
63 63 63
63 63 63
63 63 63
63 63 63
63 63 63
63 63 63
63 63 63
63 63 63
63 63 63
63 63 63
63 63 63
63 63 63
63 63 63
63 63 63
63 63 63
63 63 63
63 63 63
63 63 63
63 63 63
63 63 63
63 63 63
63 63 63
63 63 63
63 63 63
63 63 63
63 63 63
63 63 63
63 63 63
63 63 63
63 63 63
63 63 63
63 63 63
63 63 63
63 63 63
63 63 63
63 63 63
63 63 63
63 63 63
63 63 63
63 63 63
63 63 63
63 63 63
63 63 63
63 63 63
63 63 63
63 63 63
63 63 63
63 63 63
63 63 63
63 63 63
63 63 63
63 63 63
63 63 63
63 63 63
63 63 63
63 63 63
63 63 63
63 63 63
63 63 63
63 63 63
63 63 63
63 63 63
63 63 63
63 63 63
63 63 63
63 63 63
63 63 63
63 63 63
63 63 63
63 63 63
63 63 63
63 63 63
63 63 63
63 63 63
63 63 63
63 63 63
63 63 63
63 63 63
63 63 63
63 63 63
63 63 63
63 63 63
63 63 63
63 63 63
63 63 63
63 63 63
63 63 63
63 63 63
63 63 63
63 63 63
63 63 63
63 63 63
63 63 63
63 63 63
63 63 63
63 63 63
63 63 63
63 63 63
63 63 63
63 63 63
63 63 63
63 63 63
63 63 63
63 63 63
63 63 63
63 63 63
63 63 63
63 63 63
63 63 63
63 63 63
63 63 63
63 63 63
63 63 63
63 63 63
63 63 63
63 63 63
63 63 63
63 63 63
63 63 63
63 63 63
63 63 63
63 63 63
63 63 63
63 63 63
63 63 63
63 63 63
63 63 63
63 63 63
63 63 63
63 63 63
63 63 63
63 63 63
63 63 63
63 63 63
63 63 63
63 63 63
63 63 63
63 63 63
63 63 63
63 63 63
63 63 63
63 63 63
63 63 63
63 63 63
63 63 63
63 63 63
63 63 63
63 63 63
63 63 63
63 63 63
63 63 63
63 63 63
63 63 63
63 63 63
63 63 63
63 63 63
63 63 63
63 63 63
63 63 63
63 63 63
63 63 63
63 63 63
63 63 63
63 63 63
63 63 63
63 63 63
63 63 63
63 63 63
63 63 63
63 63 63
63 63 63
63 63 63
63 63 63
63 63 63
63 63 63
63 63 63
63 63 63
63 63 63
63 63 63
63 63 63
63 63 63
63 63 63
63 63 63
63 63 63
63 63 63
63 63 63
63 63 63
63 63 63
63 63 63
63 63 63
63 63 63
63 63 63
63 63 63
63 63 63
63 63 63
63 63 63
63 63 63
63 63 63
63 63 63
63 63 63
63 63 63
63 63 63
63 63 63
63 63 63
63 63 63
63 63 63
63 63 63
63 63 63
63 63 63
63 63 63
63 63 63
63 63 63
63 63 63
63 63 63
63 63 63
63 63 63
63 63 63
63 63 63
63 63 63
63 63 63
63 63 63
63 63 63
63 63 63
63 63 63
63 63 63
63 63 63
63 63 63
63 63 63
63 63 63
63 63 63
63 63 63
63 63 63
63 63 63
63 63 63
63 63 63
63 63 63
63 63 63
63 63 63
63 63 63
63 63 63
63 63 63
63 63 63
63 63 63
63 63 63
63 63 63
63 63 63
63 63 63
63 63 63
63 63 63
63 63 63
63 63 63
63 63 63
63 63 63
63 63 63
63 63 63
63 63 63
63 63 63
63 63 63
63 63 63
63 63 63
63 63 63
63 63 63
63 63 63
63 63 63
63 63 63
63 63 63
63 63 63
63 63 63
63 63 63
63 63 63
63 63 63
10 106 82
4 116 96
2 122 104
1 127 111
0 130 117
0 134 122
0 136 127
0 139 131
0 141 136
1 143 140
2 145 144
2 146 147
3 148 151
4 149 154
5 151 158
6 152 161
7 153 164
9 154 167
10 155 170
11 156 173
13 157 176
14 157 179
15 158 181
17 159 184
18 159 186
20 160 189
22 160 191
23 161 194
25 161 196
27 162 198
28 162 201
30 162 203
32 162 205
34 162 207
36 163 209
38 163 211
39 163 214
41 163 216
44 163 217
46 163 219
48 162 221
50 162 223
52 162 225
54 162 227
57 162 228
59 161 230
61 161 232
64 160 233
66 160 235
69 159 237
71 159 238
74 158 240
76 157 241
79 157 242
82 156 244
85 155 245
88 154 246
91 153 248
94 152 249
97 151 250
101 149 251
104 148 252
108 146 253
111 145 253
115 143 254
119 141 255
124 139 255
128 136 255
133 134 255
138 130 255
144 127 254
151 122 253
159 116 251
173 106 245
63 63 63
63 63 63
63 63 63
63 63 63
63 63 63
63 63 63
63 63 63
63 63 63
63 63 63
63 63 63
63 63 63
63 63 63
63 63 63
63 63 63
63 63 63
63 63 63
63 63 63
63 63 63
63 63 63
63 63 63
63 63 63
63 63 63
63 63 63
63 63 63
63 63 63
63 63 63
63 63 63
63 63 63
63 63 63
63 63 63
63 63 63
63 63 63
63 63 63
63 63 63
63 63 63
63 63 63
63 63 63
63 63 63
63 63 63
63 63 63
63 63 63
63 63 63
63 63 63
63 63 63
63 63 63
63 63 63
63 63 63
63 63 63
63 63 63
63 63 63
63 63 63
63 63 63
63 63 63
63 63 63
63 63 63
63 63 63
63 63 63
63 63 63
63 63 63
63 63 63
63 63 63
63 63 63
63 63 63
63 63 63
63 63 63
63 63 63
63 63 63
63 63 63
63 63 63
63 63 63
63 63 63
63 63 63
63 63 63
63 63 63
63 63 63
63 63 63
63 63 63
63 63 63
63 63 63
63 63 63
63 63 63
63 63 63
63 63 63
63 63 63
63 63 63
63 63 63
63 63 63
63 63 63
63 63 63
63 63 63
63 63 63
63 63 63
63 63 63
63 63 63
63 63 63
63 63 63
63 63 63
63 63 63
63 63 63
63 63 63
63 63 63
63 63 63
63 63 63
63 63 63
63 63 63
63 63 63
63 63 63
63 63 63
63 63 63
63 63 63
63 63 63
63 63 63
63 63 63
63 63 63
63 63 63
63 63 63
63 63 63
63 63 63
63 63 63
63 63 63
63 63 63
63 63 63
63 63 63
63 63 63
63 63 63
63 63 63
63 63 63
63 63 63
63 63 63
63 63 63
63 63 63
63 63 63
63 63 63
63 63 63
63 63 63
63 63 63
63 63 63
63 63 63
63 63 63
63 63 63
63 63 63
63 63 63
63 63 63
63 63 63
63 63 63
63 63 63
63 63 63
63 63 63
63 63 63
63 63 63
63 63 63
63 63 63
63 63 63
63 63 63
63 63 63
63 63 63
63 63 63
63 63 63
63 63 63
63 63 63
63 63 63
63 63 63
63 63 63
63 63 63
63 63 63
63 63 63
63 63 63
63 63 63
63 63 63
63 63 63
63 63 63
63 63 63
63 63 63
63 63 63
63 63 63
63 63 63
63 63 63
63 63 63
63 63 63
63 63 63
63 63 63
63 63 63
63 63 63
63 63 63
63 63 63
63 63 63
63 63 63
63 63 63
63 63 63
63 63 63
63 63 63
63 63 63
63 63 63
63 63 63
63 63 63
63 63 63
63 63 63
63 63 63
63 63 63
63 63 63
63 63 63
63 63 63
63 63 63
63 63 63
63 63 63
63 63 63
63 63 63
63 63 63
63 63 63
63 63 63
63 63 63
63 63 63
63 63 63
63 63 63
63 63 63
63 63 63
63 63 63
63 63 63
63 63 63
63 63 63
63 63 63
63 63 63
63 63 63
63 63 63
63 63 63
63 63 63
63 63 63
63 63 63
63 63 63
63 63 63
63 63 63
63 63 63
63 63 63
63 63 63
63 63 63
63 63 63
63 63 63
63 63 63
63 63 63
63 63 63
63 63 63
63 63 63
63 63 63
63 63 63
63 63 63
63 63 63
63 63 63
63 63 63
63 63 63
63 63 63
63 63 63
63 63 63
63 63 63
63 63 63
63 63 63
63 63 63
63 63 63
63 63 63
63 63 63
63 63 63
63 63 63
63 63 63
63 63 63
63 63 63
63 63 63
63 63 63
63 63 63
63 63 63
63 63 63
63 63 63
63 63 63
63 63 63
63 63 63
63 63 63
63 63 63
63 63 63
63 63 63
63 63 63
63 63 63
63 63 63
63 63 63
63 63 63
63 63 63
63 63 63
63 63 63
63 63 63
63 63 63
63 63 63
63 63 63
63 63 63
63 63 63
63 63 63
63 63 63
63 63 63
63 63 63
63 63 63
63 63 63
63 63 63
63 63 63
63 63 63
63 63 63
63 63 63
63 63 63
63 63 63
63 63 63
63 63 63
63 63 63
63 63 63
63 63 63
63 63 63
63 63 63
63 63 63
63 63 63
63 63 63
63 63 63
63 63 63
63 63 63
63 63 63
63 63 63
63 63 63
63 63 63
63 63 63
63 63 63
63 63 63
63 63 63
63 63 63
63 63 63
5 110 93
2 118 103
1 122 110
0 126 116
0 130 122
0 133 127
0 135 131
0 137 136
1 139 140
1 141 144
2 143 148
3 145 151
4 146 155
5 147 158
6 149 161
7 150 164
8 151 167
9 152 170
11 153 173
12 154 176
13 154 179
15 155 182
16 156 184
18 156 187
19 157 189
21 157 192
23 158 194
24 158 197
26 159 199
28 159 201
29 159 204
31 159 206
33 159 208
35 160 210
37 160 212
39 160 214
41 160 216
43 160 218
45 160 220
47 159 222
49 159 224
51 159 226
54 159 227
56 159 229
58 158 231
61 158 232
63 157 234
66 157 236
68 156 237
71 156 239
73 155 240
76 154 242
79 154 243
82 153 244
85 152 246
87 151 247
91 150 248
94 149 249
97 147 250
100 146 251
104 145 252
107 143 253
111 141 254
115 139 254
119 137 255
124 135 255
128 133 255
133 130 255
139 126 255
145 122 254
152 118 253
162 110 250
63 63 63
63 63 63
63 63 63
63 63 63
63 63 63
63 63 63
63 63 63
63 63 63
63 63 63
63 63 63
63 63 63
63 63 63
63 63 63
63 63 63
63 63 63
63 63 63
63 63 63
63 63 63
63 63 63
63 63 63
63 63 63
63 63 63
63 63 63
63 63 63
63 63 63
63 63 63
63 63 63
63 63 63
63 63 63
63 63 63
63 63 63
63 63 63
63 63 63
63 63 63
63 63 63
63 63 63
63 63 63
63 63 63
63 63 63
63 63 63
63 63 63
63 63 63
63 63 63
63 63 63
63 63 63
63 63 63
63 63 63
63 63 63
63 63 63
63 63 63
63 63 63
63 63 63
63 63 63
63 63 63
63 63 63
63 63 63
63 63 63
63 63 63
63 63 63
63 63 63
63 63 63
63 63 63
63 63 63
63 63 63
63 63 63
63 63 63
63 63 63
63 63 63
63 63 63
63 63 63
63 63 63
63 63 63
63 63 63
63 63 63
63 63 63
63 63 63
63 63 63
63 63 63
63 63 63
63 63 63
63 63 63
63 63 63
63 63 63
63 63 63
63 63 63
63 63 63
63 63 63
63 63 63
63 63 63
63 63 63
63 63 63
63 63 63
63 63 63
63 63 63
63 63 63
63 63 63
63 63 63
63 63 63
63 63 63
63 63 63
63 63 63
63 63 63
63 63 63
63 63 63
63 63 63
63 63 63
63 63 63
63 63 63
63 63 63
63 63 63
63 63 63
63 63 63
63 63 63
63 63 63
63 63 63
63 63 63
63 63 63
63 63 63
63 63 63
63 63 63
63 63 63
63 63 63
63 63 63
63 63 63
63 63 63
63 63 63
63 63 63
63 63 63
63 63 63
63 63 63
63 63 63
63 63 63
63 63 63
63 63 63
63 63 63
63 63 63
63 63 63
63 63 63
63 63 63
63 63 63
63 63 63
63 63 63
63 63 63
63 63 63
63 63 63
63 63 63
63 63 63
63 63 63
63 63 63
63 63 63
63 63 63
63 63 63
63 63 63
63 63 63
63 63 63
63 63 63
63 63 63
63 63 63
63 63 63
63 63 63
63 63 63
63 63 63
63 63 63
63 63 63
63 63 63
63 63 63
63 63 63
63 63 63
63 63 63
63 63 63
63 63 63
63 63 63
63 63 63
63 63 63
63 63 63
63 63 63
63 63 63
63 63 63
63 63 63
63 63 63
63 63 63
63 63 63
63 63 63
63 63 63
63 63 63
63 63 63
63 63 63
63 63 63
63 63 63
63 63 63
63 63 63
63 63 63
63 63 63
63 63 63
63 63 63
63 63 63
63 63 63
63 63 63
63 63 63
63 63 63
63 63 63
63 63 63
63 63 63
63 63 63
63 63 63
63 63 63
63 63 63
63 63 63
63 63 63
63 63 63
63 63 63
63 63 63
63 63 63
63 63 63
63 63 63
63 63 63
63 63 63
63 63 63
63 63 63
63 63 63
63 63 63
63 63 63
63 63 63
63 63 63
63 63 63
63 63 63
63 63 63
63 63 63
63 63 63
63 63 63
63 63 63
63 63 63
63 63 63
63 63 63
63 63 63
63 63 63
63 63 63
63 63 63
63 63 63
63 63 63
63 63 63
63 63 63
63 63 63
63 63 63
63 63 63
63 63 63
63 63 63
63 63 63
63 63 63
63 63 63
63 63 63
63 63 63
63 63 63
63 63 63
63 63 63
63 63 63
63 63 63
63 63 63
63 63 63
63 63 63
63 63 63
63 63 63
63 63 63
63 63 63
63 63 63
63 63 63
63 63 63
63 63 63
63 63 63
63 63 63
63 63 63
63 63 63
63 63 63
63 63 63
63 63 63
63 63 63
63 63 63
63 63 63
63 63 63
63 63 63
63 63 63
63 63 63
63 63 63
63 63 63
63 63 63
63 63 63
63 63 63
63 63 63
63 63 63
63 63 63
63 63 63
63 63 63
63 63 63
63 63 63
63 63 63
63 63 63
63 63 63
63 63 63
63 63 63
63 63 63
63 63 63
63 63 63
63 63 63
63 63 63
63 63 63
63 63 63
63 63 63
63 63 63
63 63 63
63 63 63
63 63 63
63 63 63
63 63 63
63 63 63
63 63 63
63 63 63
63 63 63
63 63 63
63 63 63
63 63 63
63 63 63
63 63 63
63 63 63
63 63 63
63 63 63
63 63 63
63 63 63
63 63 63
8 103 89
3 112 101
1 118 109
0 122 115
0 126 121
0 129 126
0 131 131
0 134 136
0 136 140
1 138 144
2 140 148
2 141 151
3 143 155
4 144 158
5 145 162
7 146 165
8 148 168
9 149 171
10 150 174
12 150 177
13 151 179
14 152 182
16 153 185
17 153 187
19 154 190
20 154 192
22 155 195
24 155 197
25 155 199
27 156 202
29 156 204
31 156 206
33 156 208
34 157 210
36 157 213
38 157 215
40 157 217
42 157 219
45 157 220
47 156 222
49 156 224
51 156 226
53 156 228
56 155 230
58 155 231
60 155 233
63 154 235
65 154 236
68 153 238
70 153 239
73 152 241
76 151 242
78 150 243
81 150 245
84 149 246
87 148 247
90 146 248
93 145 250
97 144 251
100 143 252
104 141 253
107 140 253
111 138 254
115 136 255
119 134 255
124 131 255
129 129 255
134 126 255
140 122 255
146 118 254
154 112 252
166 103 247
63 63 63
63 63 63
63 63 63
63 63 63
63 63 63
63 63 63
63 63 63
63 63 63
63 63 63
63 63 63
63 63 63
63 63 63
63 63 63
63 63 63
63 63 63
63 63 63
63 63 63
63 63 63
63 63 63
63 63 63
63 63 63
63 63 63
63 63 63
63 63 63
63 63 63
63 63 63
63 63 63
63 63 63
63 63 63
63 63 63
63 63 63
63 63 63
63 63 63
63 63 63
63 63 63
63 63 63
63 63 63
63 63 63
63 63 63
63 63 63
63 63 63
63 63 63
63 63 63
63 63 63
63 63 63
63 63 63
63 63 63
63 63 63
63 63 63
63 63 63
63 63 63
63 63 63
63 63 63
63 63 63
63 63 63
63 63 63
63 63 63
63 63 63
63 63 63
63 63 63
63 63 63
63 63 63
63 63 63
63 63 63
63 63 63
63 63 63
63 63 63
63 63 63
63 63 63
63 63 63
63 63 63
63 63 63
63 63 63
63 63 63
63 63 63
63 63 63
63 63 63
63 63 63
63 63 63
63 63 63
63 63 63
63 63 63
63 63 63
63 63 63
63 63 63
63 63 63
63 63 63
63 63 63
63 63 63
63 63 63
63 63 63
63 63 63
63 63 63
63 63 63
63 63 63
63 63 63
63 63 63
63 63 63
63 63 63
63 63 63
63 63 63
63 63 63
63 63 63
63 63 63
63 63 63
63 63 63
63 63 63
63 63 63
63 63 63
63 63 63
63 63 63
63 63 63
63 63 63
63 63 63
63 63 63
63 63 63
63 63 63
63 63 63
63 63 63
63 63 63
63 63 63
63 63 63
63 63 63
63 63 63
63 63 63
63 63 63
63 63 63
63 63 63
63 63 63
63 63 63
63 63 63
63 63 63
63 63 63
63 63 63
63 63 63
63 63 63
63 63 63
63 63 63
63 63 63
63 63 63
63 63 63
63 63 63
63 63 63
63 63 63
63 63 63
63 63 63
63 63 63
63 63 63
63 63 63
63 63 63
63 63 63
63 63 63
63 63 63
63 63 63
63 63 63
63 63 63
63 63 63
63 63 63
63 63 63
63 63 63
63 63 63
63 63 63
63 63 63
63 63 63
63 63 63
63 63 63
63 63 63
63 63 63
63 63 63
63 63 63
63 63 63
63 63 63
63 63 63
63 63 63
63 63 63
63 63 63
63 63 63
63 63 63
63 63 63
63 63 63
63 63 63
63 63 63
63 63 63
63 63 63
63 63 63
63 63 63
63 63 63
63 63 63
63 63 63
63 63 63
63 63 63
63 63 63
63 63 63
63 63 63
63 63 63
63 63 63
63 63 63
63 63 63
63 63 63
63 63 63
63 63 63
63 63 63
63 63 63
63 63 63
63 63 63
63 63 63
63 63 63
63 63 63
63 63 63
63 63 63
63 63 63
63 63 63
63 63 63
63 63 63
63 63 63
63 63 63
63 63 63
63 63 63
63 63 63
63 63 63
63 63 63
63 63 63
63 63 63
63 63 63
63 63 63
63 63 63
63 63 63
63 63 63
63 63 63
63 63 63
63 63 63
63 63 63
63 63 63
63 63 63
63 63 63
63 63 63
63 63 63
63 63 63
63 63 63
63 63 63
63 63 63
63 63 63
63 63 63
63 63 63
63 63 63
63 63 63
63 63 63
63 63 63
63 63 63
63 63 63
63 63 63
63 63 63
63 63 63
63 63 63
63 63 63
63 63 63
63 63 63
63 63 63
63 63 63
63 63 63
63 63 63
63 63 63
63 63 63
63 63 63
63 63 63
63 63 63
63 63 63
63 63 63
63 63 63
63 63 63
63 63 63
63 63 63
63 63 63
63 63 63
63 63 63
63 63 63
63 63 63
63 63 63
63 63 63
63 63 63
63 63 63
63 63 63
63 63 63
63 63 63
63 63 63
63 63 63
63 63 63
63 63 63
63 63 63
63 63 63
63 63 63
63 63 63
63 63 63
63 63 63
63 63 63
63 63 63
63 63 63
63 63 63
63 63 63
63 63 63
63 63 63
63 63 63
63 63 63
63 63 63
63 63 63
63 63 63
63 63 63
63 63 63
63 63 63
63 63 63
63 63 63
63 63 63
63 63 63
63 63 63
63 63 63
63 63 63
63 63 63
63 63 63
63 63 63
63 63 63
63 63 63
63 63 63
63 63 63
63 63 63
63 63 63
63 63 63
63 63 63
63 63 63
63 63 63
5 106 98
2 112 107
1 117 114
0 121 121
0 124 126
0 127 131
0 130 135
0 132 140
1 134 144
1 136 148
2 138 151
3 139 155
4 141 158
5 142 162
6 143 165
7 144 168
8 145 171
10 146 174
11 147 177
12 148 180
14 149 182
15 149 185
17 150 188
18 151 190
20 151 193
22 152 195
23 152 198
25 152 200
27 153 202
28 153 204
30 153 207
32 153 209
34 154 211
36 154 213
38 154 215
40 154 217
42 154 219
44 154 221
46 153 223
48 153 225
51 153 227
53 153 228
55 152 230
57 152 232
60 152 233
62 151 235
65 151 237
67 150 238
70 149 240
73 149 241
75 148 243
78 147 244
81 146 245
84 145 247
87 144 248
90 143 249
93 142 250
97 141 251
100 139 252
104 138 253
107 136 254
111 134 254
115 132 255
120 130 255
124 127 255
129 124 255
134 121 255
140 117 254
148 112 253
157 106 250
63 63 63
63 63 63
63 63 63
63 63 63
63 63 63
63 63 63
63 63 63
63 63 63
63 63 63
63 63 63
63 63 63
63 63 63
63 63 63
63 63 63
63 63 63
63 63 63
63 63 63
63 63 63
63 63 63
63 63 63
63 63 63
63 63 63
63 63 63
63 63 63
63 63 63
63 63 63
63 63 63
63 63 63
63 63 63
63 63 63
63 63 63
63 63 63
63 63 63
63 63 63
63 63 63
63 63 63
63 63 63
63 63 63
63 63 63
63 63 63
63 63 63
63 63 63
63 63 63
63 63 63
63 63 63
63 63 63
63 63 63
63 63 63
63 63 63
63 63 63
63 63 63
63 63 63
63 63 63
63 63 63
63 63 63
63 63 63
63 63 63
63 63 63
63 63 63
63 63 63
63 63 63
63 63 63
63 63 63
63 63 63
63 63 63
63 63 63
63 63 63
63 63 63
63 63 63
63 63 63
63 63 63
63 63 63
63 63 63
63 63 63
63 63 63
63 63 63
63 63 63
63 63 63
63 63 63
63 63 63
63 63 63
63 63 63
63 63 63
63 63 63
63 63 63
63 63 63
63 63 63
63 63 63
63 63 63
63 63 63
63 63 63
63 63 63
63 63 63
63 63 63
63 63 63
63 63 63
63 63 63
63 63 63
63 63 63
63 63 63
63 63 63
63 63 63
63 63 63
63 63 63
63 63 63
63 63 63
63 63 63
63 63 63
63 63 63
63 63 63
63 63 63
63 63 63
63 63 63
63 63 63
63 63 63
63 63 63
63 63 63
63 63 63
63 63 63
63 63 63
63 63 63
63 63 63
63 63 63
63 63 63
63 63 63
63 63 63
63 63 63
63 63 63
63 63 63
63 63 63
63 63 63
63 63 63
63 63 63
63 63 63
63 63 63
63 63 63
63 63 63
63 63 63
63 63 63
63 63 63
63 63 63
63 63 63
63 63 63
63 63 63
63 63 63
63 63 63
63 63 63
63 63 63
63 63 63
63 63 63
63 63 63
63 63 63
63 63 63
63 63 63
63 63 63
63 63 63
63 63 63
63 63 63
63 63 63
63 63 63
63 63 63
63 63 63
63 63 63
63 63 63
63 63 63
63 63 63
63 63 63
63 63 63
63 63 63
63 63 63
63 63 63
63 63 63
63 63 63
63 63 63
63 63 63
63 63 63
63 63 63
63 63 63
63 63 63
63 63 63
63 63 63
63 63 63
63 63 63
63 63 63
63 63 63
63 63 63
63 63 63
63 63 63
63 63 63
63 63 63
63 63 63
63 63 63
63 63 63
63 63 63
63 63 63
63 63 63
63 63 63
63 63 63
63 63 63
63 63 63
63 63 63
63 63 63
63 63 63
63 63 63
63 63 63
63 63 63
63 63 63
63 63 63
63 63 63
63 63 63
63 63 63
63 63 63
63 63 63
63 63 63
63 63 63
63 63 63
63 63 63
63 63 63
63 63 63
63 63 63
63 63 63
63 63 63
63 63 63
63 63 63
63 63 63
63 63 63
63 63 63
63 63 63
63 63 63
63 63 63
63 63 63
63 63 63
63 63 63
63 63 63
63 63 63
63 63 63
63 63 63
63 63 63
63 63 63
63 63 63
63 63 63
63 63 63
63 63 63
63 63 63
63 63 63
63 63 63
63 63 63
63 63 63
63 63 63
63 63 63
63 63 63
63 63 63
63 63 63
63 63 63
63 63 63
63 63 63
63 63 63
63 63 63
63 63 63
63 63 63
63 63 63
63 63 63
63 63 63
63 63 63
63 63 63
63 63 63
63 63 63
63 63 63
63 63 63
63 63 63
63 63 63
63 63 63
63 63 63
63 63 63
63 63 63
63 63 63
63 63 63
63 63 63
63 63 63
63 63 63
63 63 63
63 63 63
63 63 63
63 63 63
63 63 63
63 63 63
63 63 63
63 63 63
63 63 63
63 63 63
63 63 63
63 63 63
63 63 63
63 63 63
63 63 63
63 63 63
63 63 63
63 63 63
63 63 63
63 63 63
63 63 63
63 63 63
63 63 63
63 63 63
63 63 63
63 63 63
63 63 63
63 63 63
63 63 63
63 63 63
63 63 63
63 63 63
63 63 63
63 63 63
63 63 63
63 63 63
63 63 63
63 63 63
63 63 63
63 63 63
63 63 63
63 63 63
63 63 63
63 63 63
63 63 63
63 63 63
63 63 63
63 63 63
63 63 63
63 63 63
8 97 93
3 107 105
1 112 113
0 117 120
0 120 125
0 123 130
0 126 135
0 128 140
1 130 144
1 132 148
2 134 151
3 136 155
4 137 159
5 138 162
6 140 165
7 141 168
8 142 171
9 143 174
11 144 177
12 145 180
13 145 183
15 146 185
16 147 188
18 147 191
20 148 193
21 148 196
23 149 198
24 149 200
26 150 203
28 150 205
30 150 207
32 150 209
34 150 211
35 150 213
37 150 216
39 150 218
42 150 220
44 150 221
46 150 223
48 150 225
50 150 227
52 150 229
55 149 231
57 149 232
59 148 234
62 148 235
64 147 237
67 147 239
70 146 240
72 145 242
75 145 243
78 144 244
81 143 246
84 142 247
87 141 248
90 140 249
93 138 250
96 137 251
100 136 252
104 134 253
107 132 254
111 130 254
115 128 255
120 126 255
125 123 255
130 120 255
135 117 255
142 112 254
150 107 252
162 97 247
63 63 63
63 63 63
63 63 63
63 63 63
63 63 63
63 63 63
63 63 63
63 63 63
63 63 63
63 63 63
63 63 63
63 63 63
63 63 63
63 63 63
63 63 63
63 63 63
63 63 63
63 63 63
63 63 63
63 63 63
63 63 63
63 63 63
63 63 63
63 63 63
63 63 63
63 63 63
63 63 63
63 63 63
63 63 63
63 63 63
63 63 63
63 63 63
63 63 63
63 63 63
63 63 63
63 63 63
63 63 63
63 63 63
63 63 63
63 63 63
63 63 63
63 63 63
63 63 63
63 63 63
63 63 63
63 63 63
63 63 63
63 63 63
63 63 63
63 63 63
63 63 63
63 63 63
63 63 63
63 63 63
63 63 63
63 63 63
63 63 63
63 63 63
63 63 63
63 63 63
63 63 63
63 63 63
63 63 63
63 63 63
63 63 63
63 63 63
63 63 63
63 63 63
63 63 63
63 63 63
63 63 63
63 63 63
63 63 63
63 63 63
63 63 63
63 63 63
63 63 63
63 63 63
63 63 63
63 63 63
63 63 63
63 63 63
63 63 63
63 63 63
63 63 63
63 63 63
63 63 63
63 63 63
63 63 63
63 63 63
63 63 63
63 63 63
63 63 63
63 63 63
63 63 63
63 63 63
63 63 63
63 63 63
63 63 63
63 63 63
63 63 63
63 63 63
63 63 63
63 63 63
63 63 63
63 63 63
63 63 63
63 63 63
63 63 63
63 63 63
63 63 63
63 63 63
63 63 63
63 63 63
63 63 63
63 63 63
63 63 63
63 63 63
63 63 63
63 63 63
63 63 63
63 63 63
63 63 63
63 63 63
63 63 63
63 63 63
63 63 63
63 63 63
63 63 63
63 63 63
63 63 63
63 63 63
63 63 63
63 63 63
63 63 63
63 63 63
63 63 63
63 63 63
63 63 63
63 63 63
63 63 63
63 63 63
63 63 63
63 63 63
63 63 63
63 63 63
63 63 63
63 63 63
63 63 63
63 63 63
63 63 63
63 63 63
63 63 63
63 63 63
63 63 63
63 63 63
63 63 63
63 63 63
63 63 63
63 63 63
63 63 63
63 63 63
63 63 63
63 63 63
63 63 63
63 63 63
63 63 63
63 63 63
63 63 63
63 63 63
63 63 63
63 63 63
63 63 63
63 63 63
63 63 63
63 63 63
63 63 63
63 63 63
63 63 63
63 63 63
63 63 63
63 63 63
63 63 63
63 63 63
63 63 63
63 63 63
63 63 63
63 63 63
63 63 63
63 63 63
63 63 63
63 63 63
63 63 63
63 63 63
63 63 63
63 63 63
63 63 63
63 63 63
63 63 63
63 63 63
63 63 63
63 63 63
63 63 63
63 63 63
63 63 63
63 63 63
63 63 63
63 63 63
63 63 63
63 63 63
63 63 63
63 63 63
63 63 63
63 63 63
63 63 63
63 63 63
63 63 63
63 63 63
63 63 63
63 63 63
63 63 63
63 63 63
63 63 63
63 63 63
63 63 63
63 63 63
63 63 63
63 63 63
63 63 63
63 63 63
63 63 63
63 63 63
63 63 63
63 63 63
63 63 63
63 63 63
63 63 63
63 63 63
63 63 63
63 63 63
63 63 63
63 63 63
63 63 63
63 63 63
63 63 63
63 63 63
63 63 63
63 63 63
63 63 63
63 63 63
63 63 63
63 63 63
63 63 63
63 63 63
63 63 63
63 63 63
63 63 63
63 63 63
63 63 63
63 63 63
63 63 63
63 63 63
63 63 63
63 63 63
63 63 63
63 63 63
63 63 63
63 63 63
63 63 63
63 63 63
63 63 63
63 63 63
63 63 63
63 63 63
63 63 63
63 63 63
63 63 63
63 63 63
63 63 63
63 63 63
63 63 63
63 63 63
63 63 63
63 63 63
63 63 63
63 63 63
63 63 63
63 63 63
63 63 63
63 63 63
63 63 63
63 63 63
63 63 63
63 63 63
63 63 63
63 63 63
63 63 63
63 63 63
63 63 63
63 63 63
63 63 63
63 63 63
63 63 63
63 63 63
63 63 63
63 63 63
63 63 63
63 63 63
63 63 63
63 63 63
63 63 63
63 63 63
63 63 63
63 63 63
63 63 63
63 63 63
63 63 63
63 63 63
63 63 63
63 63 63
63 63 63
63 63 63
63 63 63
63 63 63
63 63 63
63 63 63
63 63 63
63 63 63
63 63 63
63 63 63
63 63 63
5 99 102
2 107 111
1 112 118
0 115 124
0 119 130
0 122 135
0 124 139
1 126 143
1 128 147
2 130 151
3 132 155
3 133 159
4 135 162
5 136 165
7 137 168
8 138 171
9 139 174
10 140 177
12 141 180
13 142 183
15 143 186
16 143 188
18 144 191
19 145 193
21 145 196
22 146 198
24 146 201
26 146 203
28 147 205
29 147 207
31 147 210
33 147 212
35 147 214
37 147 216
39 147 218
41 147 220
43 147 222
45 147 224
48 147 226
50 147 227
52 146 229
54 146 231
57 146 233
59 145 234
62 145 236
64 144 237
67 143 239
69 143 240
72 142 242
75 141 243
78 140 245
81 139 246
84 138 247
87 137 248
90 136 250
93 135 251
96 133 252
100 132 252
104 130 253
108 128 254
112 126 254
116 124 255
120 122 255
125 119 255
131 115 255
137 112 254
144 107 253
153 99 250
63 63 63
63 63 63
63 63 63
63 63 63
63 63 63
63 63 63
63 63 63
63 63 63
63 63 63
63 63 63
63 63 63
63 63 63
63 63 63
63 63 63
63 63 63
63 63 63
63 63 63
63 63 63
63 63 63
63 63 63
63 63 63
63 63 63
63 63 63
63 63 63
63 63 63
63 63 63
63 63 63
63 63 63
63 63 63
63 63 63
63 63 63
63 63 63
63 63 63
63 63 63
63 63 63
63 63 63
63 63 63
63 63 63
63 63 63
63 63 63
63 63 63
63 63 63
63 63 63
63 63 63
63 63 63
63 63 63
63 63 63
63 63 63
63 63 63
63 63 63
63 63 63
63 63 63
63 63 63
63 63 63
63 63 63
63 63 63
63 63 63
63 63 63
63 63 63
63 63 63
63 63 63
63 63 63
63 63 63
63 63 63
63 63 63
63 63 63
63 63 63
63 63 63
63 63 63
63 63 63
63 63 63
63 63 63
63 63 63
63 63 63
63 63 63
63 63 63
63 63 63
63 63 63
63 63 63
63 63 63
63 63 63
63 63 63
63 63 63
63 63 63
63 63 63
63 63 63
63 63 63
63 63 63
63 63 63
63 63 63
63 63 63
63 63 63
63 63 63
63 63 63
63 63 63
63 63 63
63 63 63
63 63 63
63 63 63
63 63 63
63 63 63
63 63 63
63 63 63
63 63 63
63 63 63
63 63 63
63 63 63
63 63 63
63 63 63
63 63 63
63 63 63
63 63 63
63 63 63
63 63 63
63 63 63
63 63 63
63 63 63
63 63 63
63 63 63
63 63 63
63 63 63
63 63 63
63 63 63
63 63 63
63 63 63
63 63 63
63 63 63
63 63 63
63 63 63
63 63 63
63 63 63
63 63 63
63 63 63
63 63 63
63 63 63
63 63 63
63 63 63
63 63 63
63 63 63
63 63 63
63 63 63
63 63 63
63 63 63
63 63 63
63 63 63
63 63 63
63 63 63
63 63 63
63 63 63
63 63 63
63 63 63
63 63 63
63 63 63
63 63 63
63 63 63
63 63 63
63 63 63
63 63 63
63 63 63
63 63 63
63 63 63
63 63 63
63 63 63
63 63 63
63 63 63
63 63 63
63 63 63
63 63 63
63 63 63
63 63 63
63 63 63
63 63 63
63 63 63
63 63 63
63 63 63
63 63 63
63 63 63
63 63 63
63 63 63
63 63 63
63 63 63
63 63 63
63 63 63
63 63 63
63 63 63
63 63 63
63 63 63
63 63 63
63 63 63
63 63 63
63 63 63
63 63 63
63 63 63
63 63 63
63 63 63
63 63 63
63 63 63
63 63 63
63 63 63
63 63 63
63 63 63
63 63 63
63 63 63
63 63 63
63 63 63
63 63 63
63 63 63
63 63 63
63 63 63
63 63 63
63 63 63
63 63 63
63 63 63
63 63 63
63 63 63
63 63 63
63 63 63
63 63 63
63 63 63
63 63 63
63 63 63
63 63 63
63 63 63
63 63 63
63 63 63
63 63 63
63 63 63
63 63 63
63 63 63
63 63 63
63 63 63
63 63 63
63 63 63
63 63 63
63 63 63
63 63 63
63 63 63
63 63 63
63 63 63
63 63 63
63 63 63
63 63 63
63 63 63
63 63 63
63 63 63
63 63 63
63 63 63
63 63 63
63 63 63
63 63 63
63 63 63
63 63 63
63 63 63
63 63 63
63 63 63
63 63 63
63 63 63
63 63 63
63 63 63
63 63 63
63 63 63
63 63 63
63 63 63
63 63 63
63 63 63
63 63 63
63 63 63
63 63 63
63 63 63
63 63 63
63 63 63
63 63 63
63 63 63
63 63 63
63 63 63
63 63 63
63 63 63
63 63 63
63 63 63
63 63 63
63 63 63
63 63 63
63 63 63
63 63 63
63 63 63
63 63 63
63 63 63
63 63 63
63 63 63
63 63 63
63 63 63
63 63 63
63 63 63
63 63 63
63 63 63
63 63 63
63 63 63
63 63 63
63 63 63
63 63 63
63 63 63
63 63 63
63 63 63
63 63 63
63 63 63
63 63 63
63 63 63
63 63 63
63 63 63
63 63 63
63 63 63
63 63 63
63 63 63
63 63 63
63 63 63
63 63 63
63 63 63
63 63 63
63 63 63
63 63 63
63 63 63
63 63 63
63 63 63
63 63 63
63 63 63
63 63 63
63 63 63
63 63 63
63 63 63
63 63 63
63 63 63
63 63 63
10 88 95
4 100 109
2 106 117
1 110 123
0 114 129
0 117 134
0 120 139
1 122 143
1 124 147
2 126 151
2 128 155
3 130 158
4 131 162
5 133 165
6 134 168
8 135 172
9 136 175
10 137 178
11 138 180
13 139 183
14 139 186
16 140 189
17 141 191
19 141 194
20 142 196
22 142 199
24 143 201
25 143 203
27 143 206
29 144 208
31 144 210
33 144 212
35 144 214
37 144 216
39 144 218
41 144 220
43 144 222
45 144 224
47 144 226
49 143 228
52 143 230
54 143 231
56 142 233
59 142 235
61 141 236
64 141 238
66 140 239
69 139 241
72 139 242
75 138 244
77 137 245
80 136 246
83 135 247
87 134 249
90 133 250
93 131 251
97 130 252
100 128 253
104 126 253
108 124 254
112 122 254
116 120 255
121 117 255
126 114 255
132 110 254
138 106 253
146 100 251
160 88 245
63 63 63
63 63 63
63 63 63
63 63 63
63 63 63
63 63 63
63 63 63
63 63 63
63 63 63
63 63 63
63 63 63
63 63 63
63 63 63
63 63 63
63 63 63
63 63 63
63 63 63
63 63 63
63 63 63
63 63 63
63 63 63
63 63 63
63 63 63
63 63 63
63 63 63
63 63 63
63 63 63
63 63 63
63 63 63
63 63 63
63 63 63
63 63 63
63 63 63
63 63 63
63 63 63
63 63 63
63 63 63
63 63 63
63 63 63
63 63 63
63 63 63
63 63 63
63 63 63
63 63 63
63 63 63
63 63 63
63 63 63
63 63 63
63 63 63
63 63 63
63 63 63
63 63 63
63 63 63
63 63 63
63 63 63
63 63 63
63 63 63
63 63 63
63 63 63
63 63 63
63 63 63
63 63 63
63 63 63
63 63 63
63 63 63
63 63 63
63 63 63
63 63 63
63 63 63
63 63 63
63 63 63
63 63 63
63 63 63
63 63 63
63 63 63
63 63 63
63 63 63
63 63 63
63 63 63
63 63 63
63 63 63
63 63 63
63 63 63
63 63 63
63 63 63
63 63 63
63 63 63
63 63 63
63 63 63
63 63 63
63 63 63
63 63 63
63 63 63
63 63 63
63 63 63
63 63 63
63 63 63
63 63 63
63 63 63
63 63 63
63 63 63
63 63 63
63 63 63
63 63 63
63 63 63
63 63 63
63 63 63
63 63 63
63 63 63
63 63 63
63 63 63
63 63 63
63 63 63
63 63 63
63 63 63
63 63 63
63 63 63
63 63 63
63 63 63
63 63 63
63 63 63
63 63 63
63 63 63
63 63 63
63 63 63
63 63 63
63 63 63
63 63 63
63 63 63
63 63 63
63 63 63
63 63 63
63 63 63
63 63 63
63 63 63
63 63 63
63 63 63
63 63 63
63 63 63
63 63 63
63 63 63
63 63 63
63 63 63
63 63 63
63 63 63
63 63 63
63 63 63
63 63 63
63 63 63
63 63 63
63 63 63
63 63 63
63 63 63
63 63 63
63 63 63
63 63 63
63 63 63
63 63 63
63 63 63
63 63 63
63 63 63
63 63 63
63 63 63
63 63 63
63 63 63
63 63 63
63 63 63
63 63 63
63 63 63
63 63 63
63 63 63
63 63 63
63 63 63
63 63 63
63 63 63
63 63 63
63 63 63
63 63 63
63 63 63
63 63 63
63 63 63
63 63 63
63 63 63
63 63 63
63 63 63
63 63 63
63 63 63
63 63 63
63 63 63
63 63 63
63 63 63
63 63 63
63 63 63
63 63 63
63 63 63
63 63 63
63 63 63
63 63 63
63 63 63
63 63 63
63 63 63
63 63 63
63 63 63
63 63 63
63 63 63
63 63 63
63 63 63
63 63 63
63 63 63
63 63 63
63 63 63
63 63 63
63 63 63
63 63 63
63 63 63
63 63 63
63 63 63
63 63 63
63 63 63
63 63 63
63 63 63
63 63 63
63 63 63
63 63 63
63 63 63
63 63 63
63 63 63
63 63 63
63 63 63
63 63 63
63 63 63
63 63 63
63 63 63
63 63 63
63 63 63
63 63 63
63 63 63
63 63 63
63 63 63
63 63 63
63 63 63
63 63 63
63 63 63
63 63 63
63 63 63
63 63 63
63 63 63
63 63 63
63 63 63
63 63 63
63 63 63
63 63 63
63 63 63
63 63 63
63 63 63
63 63 63
63 63 63
63 63 63
63 63 63
63 63 63
63 63 63
63 63 63
63 63 63
63 63 63
63 63 63
63 63 63
63 63 63
63 63 63
63 63 63
63 63 63
63 63 63
63 63 63
63 63 63
63 63 63
63 63 63
63 63 63
63 63 63
63 63 63
63 63 63
63 63 63
63 63 63
63 63 63
63 63 63
63 63 63
63 63 63
63 63 63
63 63 63
63 63 63
63 63 63
63 63 63
63 63 63
63 63 63
63 63 63
63 63 63
63 63 63
63 63 63
63 63 63
63 63 63
63 63 63
63 63 63
63 63 63
63 63 63
63 63 63
63 63 63
63 63 63
63 63 63
63 63 63
63 63 63
63 63 63
63 63 63
63 63 63
63 63 63
63 63 63
63 63 63
63 63 63
63 63 63
63 63 63
63 63 63
63 63 63
63 63 63
63 63 63
63 63 63
63 63 63
63 63 63
63 63 63
63 63 63
63 63 63
63 63 63
63 63 63
63 63 63
63 63 63
63 63 63
63 63 63
7 92 104
3 100 114
2 105 121
1 109 128
1 112 133
0 115 138
1 118 142
1 120 147
2 122 151
2 124 155
3 126 158
4 127 162
5 129 165
6 130 168
7 131 172
9 132 175
10 133 178
11 134 180
13 135 183
14 136 186
15 137 189
17 137 191
19 138 194
20 138 196
22 139 199
23 139 201
25 140 203
27 140 206
29 140 208
31 140 210
33 140 212
34 141 214
36 141 217
38 141 219
41 141 221
43 140 222
45 140 224
47 140 226
49 140 228
52 140 230
54 139 232
56 139 233
59 138 235
61 138 236
64 137 238
66 137 240
69 136 241
72 135 242
75 134 244
77 133 245
80 132 246
83 131 248
87 130 249
90 129 250
93 127 251
97 126 252
100 124 253
104 122 253
108 120 254
113 118 254
117 115 255
122 112 254
127 109 254
134 105 253
141 100 252
151 92 248
63 63 63
63 63 63
63 63 63
63 63 63
63 63 63
63 63 63
63 63 63
63 63 63
63 63 63
63 63 63
63 63 63
63 63 63
63 63 63
63 63 63
63 63 63
63 63 63
63 63 63
63 63 63
63 63 63
63 63 63
63 63 63
63 63 63
63 63 63
63 63 63
63 63 63
63 63 63
63 63 63
63 63 63
63 63 63
63 63 63
63 63 63
63 63 63
63 63 63
63 63 63
63 63 63
63 63 63
63 63 63
63 63 63
63 63 63
63 63 63
63 63 63
63 63 63
63 63 63
63 63 63
63 63 63
63 63 63
63 63 63
63 63 63
63 63 63
63 63 63
63 63 63
63 63 63
63 63 63
63 63 63
63 63 63
63 63 63
63 63 63
63 63 63
63 63 63
63 63 63
63 63 63
63 63 63
63 63 63
63 63 63
63 63 63
63 63 63
63 63 63
63 63 63
63 63 63
63 63 63
63 63 63
63 63 63
63 63 63
63 63 63
63 63 63
63 63 63
63 63 63
63 63 63
63 63 63
63 63 63
63 63 63
63 63 63
63 63 63
63 63 63
63 63 63
63 63 63
63 63 63
63 63 63
63 63 63
63 63 63
63 63 63
63 63 63
63 63 63
63 63 63
63 63 63
63 63 63
63 63 63
63 63 63
63 63 63
63 63 63
63 63 63
63 63 63
63 63 63
63 63 63
63 63 63
63 63 63
63 63 63
63 63 63
63 63 63
63 63 63
63 63 63
63 63 63
63 63 63
63 63 63
63 63 63
63 63 63
63 63 63
63 63 63
63 63 63
63 63 63
63 63 63
63 63 63
63 63 63
63 63 63
63 63 63
63 63 63
63 63 63
63 63 63
63 63 63
63 63 63
63 63 63
63 63 63
63 63 63
63 63 63
63 63 63
63 63 63
63 63 63
63 63 63
63 63 63
63 63 63
63 63 63
63 63 63
63 63 63
63 63 63
63 63 63
63 63 63
63 63 63
63 63 63
63 63 63
63 63 63
63 63 63
63 63 63
63 63 63
63 63 63
63 63 63
63 63 63
63 63 63
63 63 63
63 63 63
63 63 63
63 63 63
63 63 63
63 63 63
63 63 63
63 63 63
63 63 63
63 63 63
63 63 63
63 63 63
63 63 63
63 63 63
63 63 63
63 63 63
63 63 63
63 63 63
63 63 63
63 63 63
63 63 63
63 63 63
63 63 63
63 63 63
63 63 63
63 63 63
63 63 63
63 63 63
63 63 63
63 63 63
63 63 63
63 63 63
63 63 63
63 63 63
63 63 63
63 63 63
63 63 63
63 63 63
63 63 63
63 63 63
63 63 63
63 63 63
63 63 63
63 63 63
63 63 63
63 63 63
63 63 63
63 63 63
63 63 63
63 63 63
63 63 63
63 63 63
63 63 63
63 63 63
63 63 63
63 63 63
63 63 63
63 63 63
63 63 63
63 63 63
63 63 63
63 63 63
63 63 63
63 63 63
63 63 63
63 63 63
63 63 63
63 63 63
63 63 63
63 63 63
63 63 63
63 63 63
63 63 63
63 63 63
63 63 63
63 63 63
63 63 63
63 63 63
63 63 63
63 63 63
63 63 63
63 63 63
63 63 63
63 63 63
63 63 63
63 63 63
63 63 63
63 63 63
63 63 63
63 63 63
63 63 63
63 63 63
63 63 63
63 63 63
63 63 63
63 63 63
63 63 63
63 63 63
63 63 63
63 63 63
63 63 63
63 63 63
63 63 63
63 63 63
63 63 63
63 63 63
63 63 63
63 63 63
63 63 63
63 63 63
63 63 63
63 63 63
63 63 63
63 63 63
63 63 63
63 63 63
63 63 63
63 63 63
63 63 63
63 63 63
63 63 63
63 63 63
63 63 63
63 63 63
63 63 63
63 63 63
63 63 63
63 63 63
63 63 63
63 63 63
63 63 63
63 63 63
63 63 63
63 63 63
63 63 63
63 63 63
63 63 63
63 63 63
63 63 63
63 63 63
63 63 63
63 63 63
63 63 63
63 63 63
63 63 63
63 63 63
63 63 63
63 63 63
63 63 63
63 63 63
63 63 63
63 63 63
63 63 63
63 63 63
63 63 63
63 63 63
63 63 63
63 63 63
63 63 63
63 63 63
63 63 63
63 63 63
63 63 63
63 63 63
63 63 63
63 63 63
63 63 63
63 63 63
63 63 63
63 63 63
63 63 63
63 63 63
63 63 63
63 63 63
63 63 63
63 63 63
63 63 63
63 63 63
6 92 110
3 99 119
2 104 126
1 107 132
1 111 137
1 113 142
1 116 146
2 118 150
3 120 154
3 122 158
4 123 161
5 125 165
6 126 168
7 127 171
8 129 175
10 130 178
11 131 180
12 131 183
14 132 186
15 133 189
17 134 191
18 134 194
20 135 196
22 135 199
23 136 201
25 136 204
27 136 206
29 137 208
30 137 210
32 137 213
34 137 215
36 137 217
38 137 219
40 137 221
42 137 223
45 137 225
47 137 226
49 136 228
51 136 230
54 136 232
56 135 233
59 135 235
61 134 237
64 134 238
66 133 240
69 132 241
72 131 243
75 131 244
77 130 245
80 129 247
84 127 248
87 126 249
90 125 250
94 123 251
97 122 252
101 120 252
105 118 253
109 116 254
113 113 254
118 111 254
123 107 254
129 104 253
136 99 252
145 92 249
63 63 63
63 63 63
63 63 63
63 63 63
63 63 63
63 63 63
63 63 63
63 63 63
63 63 63
63 63 63
63 63 63
63 63 63
63 63 63
63 63 63
63 63 63
63 63 63
63 63 63
63 63 63
63 63 63
63 63 63
63 63 63
63 63 63
63 63 63
63 63 63
63 63 63
63 63 63
63 63 63
63 63 63
63 63 63
63 63 63
63 63 63
63 63 63
63 63 63
63 63 63
63 63 63
63 63 63
63 63 63
63 63 63
63 63 63
63 63 63
63 63 63
63 63 63
63 63 63
63 63 63
63 63 63
63 63 63
63 63 63
63 63 63
63 63 63
63 63 63
63 63 63
63 63 63
63 63 63
63 63 63
63 63 63
63 63 63
63 63 63
63 63 63
63 63 63
63 63 63
63 63 63
63 63 63
63 63 63
63 63 63
63 63 63
63 63 63
63 63 63
63 63 63
63 63 63
63 63 63
63 63 63
63 63 63
63 63 63
63 63 63
63 63 63
63 63 63
63 63 63
63 63 63
63 63 63
63 63 63
63 63 63
63 63 63
63 63 63
63 63 63
63 63 63
63 63 63
63 63 63
63 63 63
63 63 63
63 63 63
63 63 63
63 63 63
63 63 63
63 63 63
63 63 63
63 63 63
63 63 63
63 63 63
63 63 63
63 63 63
63 63 63
63 63 63
63 63 63
63 63 63
63 63 63
63 63 63
63 63 63
63 63 63
63 63 63
63 63 63
63 63 63
63 63 63
63 63 63
63 63 63
63 63 63
63 63 63
63 63 63
63 63 63
63 63 63
63 63 63
63 63 63
63 63 63
63 63 63
63 63 63
63 63 63
63 63 63
63 63 63
63 63 63
63 63 63
63 63 63
63 63 63
63 63 63
63 63 63
63 63 63
63 63 63
63 63 63
63 63 63
63 63 63
63 63 63
63 63 63
63 63 63
63 63 63
63 63 63
63 63 63
63 63 63
63 63 63
63 63 63
63 63 63
63 63 63
63 63 63
63 63 63
63 63 63
63 63 63
63 63 63
63 63 63
63 63 63
63 63 63
63 63 63
63 63 63
63 63 63
63 63 63
63 63 63
63 63 63
63 63 63
63 63 63
63 63 63
63 63 63
63 63 63
63 63 63
63 63 63
63 63 63
63 63 63
63 63 63
63 63 63
63 63 63
63 63 63
63 63 63
63 63 63
63 63 63
63 63 63
63 63 63
63 63 63
63 63 63
63 63 63
63 63 63
63 63 63
63 63 63
63 63 63
63 63 63
63 63 63
63 63 63
63 63 63
63 63 63
63 63 63
63 63 63
63 63 63
63 63 63
63 63 63
63 63 63
63 63 63
63 63 63
63 63 63
63 63 63
63 63 63
63 63 63
63 63 63
63 63 63
63 63 63
63 63 63
63 63 63
63 63 63
63 63 63
63 63 63
63 63 63
63 63 63
63 63 63
63 63 63
63 63 63
63 63 63
63 63 63
63 63 63
63 63 63
63 63 63
63 63 63
63 63 63
63 63 63
63 63 63
63 63 63
63 63 63
63 63 63
63 63 63
63 63 63
63 63 63
63 63 63
63 63 63
63 63 63
63 63 63
63 63 63
63 63 63
63 63 63
63 63 63
63 63 63
63 63 63
63 63 63
63 63 63
63 63 63
63 63 63
63 63 63
63 63 63
63 63 63
63 63 63
63 63 63
63 63 63
63 63 63
63 63 63
63 63 63
63 63 63
63 63 63
63 63 63
63 63 63
63 63 63
63 63 63
63 63 63
63 63 63
63 63 63
63 63 63
63 63 63
63 63 63
63 63 63
63 63 63
63 63 63
63 63 63
63 63 63
63 63 63
63 63 63
63 63 63
63 63 63
63 63 63
63 63 63
63 63 63
63 63 63
63 63 63
63 63 63
63 63 63
63 63 63
63 63 63
63 63 63
63 63 63
63 63 63
63 63 63
63 63 63
63 63 63
63 63 63
63 63 63
63 63 63
63 63 63
63 63 63
63 63 63
63 63 63
63 63 63
63 63 63
63 63 63
63 63 63
63 63 63
63 63 63
63 63 63
63 63 63
63 63 63
63 63 63
63 63 63
63 63 63
63 63 63
63 63 63
63 63 63
63 63 63
63 63 63
63 63 63
63 63 63
63 63 63
63 63 63
63 63 63
63 63 63
63 63 63
63 63 63
63 63 63
63 63 63
63 63 63
63 63 63
63 63 63
63 63 63
63 63 63
63 63 63
63 63 63
63 63 63
63 63 63
63 63 63
13 78 100
5 91 116
3 97 124
2 102 130
2 105 136
2 109 141
2 111 145
2 114 150
3 116 154
3 117 157
4 119 161
5 121 165
6 122 168
7 123 171
8 125 174
10 126 177
11 127 180
12 128 183
14 129 186
15 129 189
17 130 191
18 131 194
20 131 197
21 132 199
23 132 201
25 132 204
27 133 206
28 133 208
30 133 211
32 133 213
34 134 215
36 134 217
38 134 219
40 134 221
42 133 223
44 133 225
47 133 227
49 133 228
51 132 230
54 132 232
56 132 234
58 131 235
61 131 237
64 130 238
66 129 240
69 129 241
72 128 243
75 127 244
78 126 245
81 125 247
84 123 248
87 122 249
90 121 250
94 119 251
98 117 252
101 116 252
105 114 253
110 111 253
114 109 253
119 105 253
125 102 253
131 97 252
139 91 250
155 78 242
63 63 63
63 63 63
63 63 63
63 63 63
63 63 63
63 63 63
63 63 63
63 63 63
63 63 63
63 63 63
63 63 63
63 63 63
63 63 63
63 63 63
63 63 63
63 63 63
63 63 63
63 63 63
63 63 63
63 63 63
63 63 63
63 63 63
63 63 63
63 63 63
63 63 63
63 63 63
63 63 63
63 63 63
63 63 63
63 63 63
63 63 63
63 63 63
63 63 63
63 63 63
63 63 63
63 63 63
63 63 63
63 63 63
63 63 63
63 63 63
63 63 63
63 63 63
63 63 63
63 63 63
63 63 63
63 63 63
63 63 63
63 63 63
63 63 63
63 63 63
63 63 63
63 63 63
63 63 63
63 63 63
63 63 63
63 63 63
63 63 63
63 63 63
63 63 63
63 63 63
63 63 63
63 63 63
63 63 63
63 63 63
63 63 63
63 63 63
63 63 63
63 63 63
63 63 63
63 63 63
63 63 63
63 63 63
63 63 63
63 63 63
63 63 63
63 63 63
63 63 63
63 63 63
63 63 63
63 63 63
63 63 63
63 63 63
63 63 63
63 63 63
63 63 63
63 63 63
63 63 63
63 63 63
63 63 63
63 63 63
63 63 63
63 63 63
63 63 63
63 63 63
63 63 63
63 63 63
63 63 63
63 63 63
63 63 63
63 63 63
63 63 63
63 63 63
63 63 63
63 63 63
63 63 63
63 63 63
63 63 63
63 63 63
63 63 63
63 63 63
63 63 63
63 63 63
63 63 63
63 63 63
63 63 63
63 63 63
63 63 63
63 63 63
63 63 63
63 63 63
63 63 63
63 63 63
63 63 63
63 63 63
63 63 63
63 63 63
63 63 63
63 63 63
63 63 63
63 63 63
63 63 63
63 63 63
63 63 63
63 63 63
63 63 63
63 63 63
63 63 63
63 63 63
63 63 63
63 63 63
63 63 63
63 63 63
63 63 63
63 63 63
63 63 63
63 63 63
63 63 63
63 63 63
63 63 63
63 63 63
63 63 63
63 63 63
63 63 63
63 63 63
63 63 63
63 63 63
63 63 63
63 63 63
63 63 63
63 63 63
63 63 63
63 63 63
63 63 63
63 63 63
63 63 63
63 63 63
63 63 63
63 63 63
63 63 63
63 63 63
63 63 63
63 63 63
63 63 63
63 63 63
63 63 63
63 63 63
63 63 63
63 63 63
63 63 63
63 63 63
63 63 63
63 63 63
63 63 63
63 63 63
63 63 63
63 63 63
63 63 63
63 63 63
63 63 63
63 63 63
63 63 63
63 63 63
63 63 63
63 63 63
63 63 63
63 63 63
63 63 63
63 63 63
63 63 63
63 63 63
63 63 63
63 63 63
63 63 63
63 63 63
63 63 63
63 63 63
63 63 63
63 63 63
63 63 63
63 63 63
63 63 63
63 63 63
63 63 63
63 63 63
63 63 63
63 63 63
63 63 63
63 63 63
63 63 63
63 63 63
63 63 63
63 63 63
63 63 63
63 63 63
63 63 63
63 63 63
63 63 63
63 63 63
63 63 63
63 63 63
63 63 63
63 63 63
63 63 63
63 63 63
63 63 63
63 63 63
63 63 63
63 63 63
63 63 63
63 63 63
63 63 63
63 63 63
63 63 63
63 63 63
63 63 63
63 63 63
63 63 63
63 63 63
63 63 63
63 63 63
63 63 63
63 63 63
63 63 63
63 63 63
63 63 63
63 63 63
63 63 63
63 63 63
63 63 63
63 63 63
63 63 63
63 63 63
63 63 63
63 63 63
63 63 63
63 63 63
63 63 63
63 63 63
63 63 63
63 63 63
63 63 63
63 63 63
63 63 63
63 63 63
63 63 63
63 63 63
63 63 63
63 63 63
63 63 63
63 63 63
63 63 63
63 63 63
63 63 63
63 63 63
63 63 63
63 63 63
63 63 63
63 63 63
63 63 63
63 63 63
63 63 63
63 63 63
63 63 63
63 63 63
63 63 63
63 63 63
63 63 63
63 63 63
63 63 63
63 63 63
63 63 63
63 63 63
63 63 63
63 63 63
63 63 63
63 63 63
63 63 63
63 63 63
63 63 63
63 63 63
63 63 63
63 63 63
63 63 63
63 63 63
63 63 63
63 63 63
63 63 63
63 63 63
63 63 63
63 63 63
63 63 63
63 63 63
63 63 63
63 63 63
63 63 63
63 63 63
63 63 63
63 63 63
63 63 63
63 63 63
63 63 63
63 63 63
63 63 63
63 63 63
63 63 63
63 63 63
63 63 63
10 81 109
5 90 120
4 96 128
3 100 134
2 103 139
2 106 144
3 109 149
3 111 153
4 113 157
4 115 161
5 117 164
6 118 168
7 119 171
8 121 174
10 122 177
11 123 180
12 124 183
14 125 186
15 125 189
17 126 191
18 127 194
20 127 196
21 128 199
23 128 201
25 129 204
26 129 206
28 129 208
30 130 211
32 130 213
34 130 215
36 130 217
38 130 219
40 130 221
42 130 223
44 130 225
47 129 227
49 129 229
51 129 230
54 128 232
56 128 234
59 127 235
61 127 237
64 126 238
66 125 240
69 125 241
72 124 243
75 123 244
78 122 245
81 121 247
84 119 248
87 118 249
91 117 250
94 115 251
98 113 251
102 111 252
106 109 252
111 106 253
116 103 253
121 100 252
127 96 251
135 90 250
146 81 245
63 63 63
63 63 63
63 63 63
63 63 63
63 63 63
63 63 63
63 63 63
63 63 63
63 63 63
63 63 63
63 63 63
63 63 63
63 63 63
63 63 63
63 63 63
63 63 63
63 63 63
63 63 63
63 63 63
63 63 63
63 63 63
63 63 63
63 63 63
63 63 63
63 63 63
63 63 63
63 63 63
63 63 63
63 63 63
63 63 63
63 63 63
63 63 63
63 63 63
63 63 63
63 63 63
63 63 63
63 63 63
63 63 63
63 63 63
63 63 63
63 63 63
63 63 63
63 63 63
63 63 63
63 63 63
63 63 63
63 63 63
63 63 63
63 63 63
63 63 63
63 63 63
63 63 63
63 63 63
63 63 63
63 63 63
63 63 63
63 63 63
63 63 63
63 63 63
63 63 63
63 63 63
63 63 63
63 63 63
63 63 63
63 63 63
63 63 63
63 63 63
63 63 63
63 63 63
63 63 63
63 63 63
63 63 63
63 63 63
63 63 63
63 63 63
63 63 63
63 63 63
63 63 63
63 63 63
63 63 63
63 63 63
63 63 63
63 63 63
63 63 63
63 63 63
63 63 63
63 63 63
63 63 63
63 63 63
63 63 63
63 63 63
63 63 63
63 63 63
63 63 63
63 63 63
63 63 63
63 63 63
63 63 63
63 63 63
63 63 63
63 63 63
63 63 63
63 63 63
63 63 63
63 63 63
63 63 63
63 63 63
63 63 63
63 63 63
63 63 63
63 63 63
63 63 63
63 63 63
63 63 63
63 63 63
63 63 63
63 63 63
63 63 63
63 63 63
63 63 63
63 63 63
63 63 63
63 63 63
63 63 63
63 63 63
63 63 63
63 63 63
63 63 63
63 63 63
63 63 63
63 63 63
63 63 63
63 63 63
63 63 63
63 63 63
63 63 63
63 63 63
63 63 63
63 63 63
63 63 63
63 63 63
63 63 63
63 63 63
63 63 63
63 63 63
63 63 63
63 63 63
63 63 63
63 63 63
63 63 63
63 63 63
63 63 63
63 63 63
63 63 63
63 63 63
63 63 63
63 63 63
63 63 63
63 63 63
63 63 63
63 63 63
63 63 63
63 63 63
63 63 63
63 63 63
63 63 63
63 63 63
63 63 63
63 63 63
63 63 63
63 63 63
63 63 63
63 63 63
63 63 63
63 63 63
63 63 63
63 63 63
63 63 63
63 63 63
63 63 63
63 63 63
63 63 63
63 63 63
63 63 63
63 63 63
63 63 63
63 63 63
63 63 63
63 63 63
63 63 63
63 63 63
63 63 63
63 63 63
63 63 63
63 63 63
63 63 63
63 63 63
63 63 63
63 63 63
63 63 63
63 63 63
63 63 63
63 63 63
63 63 63
63 63 63
63 63 63
63 63 63
63 63 63
63 63 63
63 63 63
63 63 63
63 63 63
63 63 63
63 63 63
63 63 63
63 63 63
63 63 63
63 63 63
63 63 63
63 63 63
63 63 63
63 63 63
63 63 63
63 63 63
63 63 63
63 63 63
63 63 63
63 63 63
63 63 63
63 63 63
63 63 63
63 63 63
63 63 63
63 63 63
63 63 63
63 63 63
63 63 63
63 63 63
63 63 63
63 63 63
63 63 63
63 63 63
63 63 63
63 63 63
63 63 63
63 63 63
63 63 63
63 63 63
63 63 63
63 63 63
63 63 63
63 63 63
63 63 63
63 63 63
63 63 63
63 63 63
63 63 63
63 63 63
63 63 63
63 63 63
63 63 63
63 63 63
63 63 63
63 63 63
63 63 63
63 63 63
63 63 63
63 63 63
63 63 63
63 63 63
63 63 63
63 63 63
63 63 63
63 63 63
63 63 63
63 63 63
63 63 63
63 63 63
63 63 63
63 63 63
63 63 63
63 63 63
63 63 63
63 63 63
63 63 63
63 63 63
63 63 63
63 63 63
63 63 63
63 63 63
63 63 63
63 63 63
63 63 63
63 63 63
63 63 63
63 63 63
63 63 63
63 63 63
63 63 63
63 63 63
63 63 63
63 63 63
63 63 63
63 63 63
63 63 63
63 63 63
63 63 63
63 63 63
63 63 63
63 63 63
63 63 63
63 63 63
63 63 63
63 63 63
63 63 63
63 63 63
63 63 63
63 63 63
63 63 63
63 63 63
63 63 63
63 63 63
63 63 63
63 63 63
63 63 63
63 63 63
63 63 63
63 63 63
63 63 63
63 63 63
63 63 63
63 63 63
63 63 63
63 63 63
63 63 63
63 63 63
63 63 63
63 63 63
63 63 63
9 80 115
6 88 125
4 94 132
3 98 137
3 101 143
3 104 147
4 106 152
4 108 156
5 110 160
6 112 163
7 114 167
8 115 170
9 116 174
10 118 177
11 119 180
12 120 183
14 121 186
15 122 188
17 122 191
18 123 194
20 124 196
21 124 199
23 125 201
25 125 204
26 125 206
28 126 208
30 126 211
32 126 213
34 126 215
36 126 217
38 126 219
40 126 221
42 126 223
44 126 225
47 126 227
49 125 229
51 125 230
54 125 232
56 124 234
59 124 235
61 123 237
64 122 238
67 122 240
69 121 241
72 120 243
75 119 244
78 118 245
81 116 246
85 115 247
88 114 248
92 112 249
95 110 250
99 108 251
103 106 251
108 104 252
112 101 252
118 98 252
123 94 251
130 88 249
140 80 246
63 63 63
63 63 63
63 63 63
63 63 63
63 63 63
63 63 63
63 63 63
63 63 63
63 63 63
63 63 63
63 63 63
63 63 63
63 63 63
63 63 63
63 63 63
63 63 63
63 63 63
63 63 63
63 63 63
63 63 63
63 63 63
63 63 63
63 63 63
63 63 63
63 63 63
63 63 63
63 63 63
63 63 63
63 63 63
63 63 63
63 63 63
63 63 63
63 63 63
63 63 63
63 63 63
63 63 63
63 63 63
63 63 63
63 63 63
63 63 63
63 63 63
63 63 63
63 63 63
63 63 63
63 63 63
63 63 63
63 63 63
63 63 63
63 63 63
63 63 63
63 63 63
63 63 63
63 63 63
63 63 63
63 63 63
63 63 63
63 63 63
63 63 63
63 63 63
63 63 63
63 63 63
63 63 63
63 63 63
63 63 63
63 63 63
63 63 63
63 63 63
63 63 63
63 63 63
63 63 63
63 63 63
63 63 63
63 63 63
63 63 63
63 63 63
63 63 63
63 63 63
63 63 63
63 63 63
63 63 63
63 63 63
63 63 63
63 63 63
63 63 63
63 63 63
63 63 63
63 63 63
63 63 63
63 63 63
63 63 63
63 63 63
63 63 63
63 63 63
63 63 63
63 63 63
63 63 63
63 63 63
63 63 63
63 63 63
63 63 63
63 63 63
63 63 63
63 63 63
63 63 63
63 63 63
63 63 63
63 63 63
63 63 63
63 63 63
63 63 63
63 63 63
63 63 63
63 63 63
63 63 63
63 63 63
63 63 63
63 63 63
63 63 63
63 63 63
63 63 63
63 63 63
63 63 63
63 63 63
63 63 63
63 63 63
63 63 63
63 63 63
63 63 63
63 63 63
63 63 63
63 63 63
63 63 63
63 63 63
63 63 63
63 63 63
63 63 63
63 63 63
63 63 63
63 63 63
63 63 63
63 63 63
63 63 63
63 63 63
63 63 63
63 63 63
63 63 63
63 63 63
63 63 63
63 63 63
63 63 63
63 63 63
63 63 63
63 63 63
63 63 63
63 63 63
63 63 63
63 63 63
63 63 63
63 63 63
63 63 63
63 63 63
63 63 63
63 63 63
63 63 63
63 63 63
63 63 63
63 63 63
63 63 63
63 63 63
63 63 63
63 63 63
63 63 63
63 63 63
63 63 63
63 63 63
63 63 63
63 63 63
63 63 63
63 63 63
63 63 63
63 63 63
63 63 63
63 63 63
63 63 63
63 63 63
63 63 63
63 63 63
63 63 63
63 63 63
63 63 63
63 63 63
63 63 63
63 63 63
63 63 63
63 63 63
63 63 63
63 63 63
63 63 63
63 63 63
63 63 63
63 63 63
63 63 63
63 63 63
63 63 63
63 63 63
63 63 63
63 63 63
63 63 63
63 63 63
63 63 63
63 63 63
63 63 63
63 63 63
63 63 63
63 63 63
63 63 63
63 63 63
63 63 63
63 63 63
63 63 63
63 63 63
63 63 63
63 63 63
63 63 63
63 63 63
63 63 63
63 63 63
63 63 63
63 63 63
63 63 63
63 63 63
63 63 63
63 63 63
63 63 63
63 63 63
63 63 63
63 63 63
63 63 63
63 63 63
63 63 63
63 63 63
63 63 63
63 63 63
63 63 63
63 63 63
63 63 63
63 63 63
63 63 63
63 63 63
63 63 63
63 63 63
63 63 63
63 63 63
63 63 63
63 63 63
63 63 63
63 63 63
63 63 63
63 63 63
63 63 63
63 63 63
63 63 63
63 63 63
63 63 63
63 63 63
63 63 63
63 63 63
63 63 63
63 63 63
63 63 63
63 63 63
63 63 63
63 63 63
63 63 63
63 63 63
63 63 63
63 63 63
63 63 63
63 63 63
63 63 63
63 63 63
63 63 63
63 63 63
63 63 63
63 63 63
63 63 63
63 63 63
63 63 63
63 63 63
63 63 63
63 63 63
63 63 63
63 63 63
63 63 63
63 63 63
63 63 63
63 63 63
63 63 63
63 63 63
63 63 63
63 63 63
63 63 63
63 63 63
63 63 63
63 63 63
63 63 63
63 63 63
63 63 63
63 63 63
63 63 63
63 63 63
63 63 63
63 63 63
63 63 63
63 63 63
63 63 63
63 63 63
63 63 63
63 63 63
63 63 63
63 63 63
63 63 63
63 63 63
63 63 63
63 63 63
63 63 63
63 63 63
63 63 63
63 63 63
63 63 63
63 63 63
63 63 63
63 63 63
63 63 63
63 63 63
63 63 63
63 63 63
63 63 63
63 63 63
63 63 63
63 63 63
10 79 119
6 86 128
5 91 135
4 95 141
4 98 146
4 101 151
5 103 155
5 106 159
6 107 163
7 109 166
8 111 170
9 112 173
10 113 176
11 115 179
13 116 182
14 117 185
15 117 188
17 118 191
18 119 194
20 120 196
21 120 199
23 121 201
25 121 204
27 121 206
28 122 208
30 122 210
32 122 213
34 122 215
36 122 217
38 122 219
40 122 221
42 122 223
45 122 225
47 122 227
49 121 228
51 121 230
54 121 232
56 120 234
59 120 235
61 119 237
64 118 238
67 117 240
70 117 241
73 116 242
76 115 244
79 113 245
82 112 246
85 111 247
89 109 248
92 107 249
96 106 250
100 103 250
104 101 251
109 98 251
114 95 251
120 91 250
127 86 249
136 79 245
63 63 63
63 63 63
63 63 63
63 63 63
63 63 63
63 63 63
63 63 63
63 63 63
63 63 63
63 63 63
63 63 63
63 63 63
63 63 63
63 63 63
63 63 63
63 63 63
63 63 63
63 63 63
63 63 63
63 63 63
63 63 63
63 63 63
63 63 63
63 63 63
63 63 63
63 63 63
63 63 63
63 63 63
63 63 63
63 63 63
63 63 63
63 63 63
63 63 63
63 63 63
63 63 63
63 63 63
63 63 63
63 63 63
63 63 63
63 63 63
63 63 63
63 63 63
63 63 63
63 63 63
63 63 63
63 63 63
63 63 63
63 63 63
63 63 63
63 63 63
63 63 63
63 63 63
63 63 63
63 63 63
63 63 63
63 63 63
63 63 63
63 63 63
63 63 63
63 63 63
63 63 63
63 63 63
63 63 63
63 63 63
63 63 63
63 63 63
63 63 63
63 63 63
63 63 63
63 63 63
63 63 63
63 63 63
63 63 63
63 63 63
63 63 63
63 63 63
63 63 63
63 63 63
63 63 63
63 63 63
63 63 63
63 63 63
63 63 63
63 63 63
63 63 63
63 63 63
63 63 63
63 63 63
63 63 63
63 63 63
63 63 63
63 63 63
63 63 63
63 63 63
63 63 63
63 63 63
63 63 63
63 63 63
63 63 63
63 63 63
63 63 63
63 63 63
63 63 63
63 63 63
63 63 63
63 63 63
63 63 63
63 63 63
63 63 63
63 63 63
63 63 63
63 63 63
63 63 63
63 63 63
63 63 63
63 63 63
63 63 63
63 63 63
63 63 63
63 63 63
63 63 63
63 63 63
63 63 63
63 63 63
63 63 63
63 63 63
63 63 63
63 63 63
63 63 63
63 63 63
63 63 63
63 63 63
63 63 63
63 63 63
63 63 63
63 63 63
63 63 63
63 63 63
63 63 63
63 63 63
63 63 63
63 63 63
63 63 63
63 63 63
63 63 63
63 63 63
63 63 63
63 63 63
63 63 63
63 63 63
63 63 63
63 63 63
63 63 63
63 63 63
63 63 63
63 63 63
63 63 63
63 63 63
63 63 63
63 63 63
63 63 63
63 63 63
63 63 63
63 63 63
63 63 63
63 63 63
63 63 63
63 63 63
63 63 63
63 63 63
63 63 63
63 63 63
63 63 63
63 63 63
63 63 63
63 63 63
63 63 63
63 63 63
63 63 63
63 63 63
63 63 63
63 63 63
63 63 63
63 63 63
63 63 63
63 63 63
63 63 63
63 63 63
63 63 63
63 63 63
63 63 63
63 63 63
63 63 63
63 63 63
63 63 63
63 63 63
63 63 63
63 63 63
63 63 63
63 63 63
63 63 63
63 63 63
63 63 63
63 63 63
63 63 63
63 63 63
63 63 63
63 63 63
63 63 63
63 63 63
63 63 63
63 63 63
63 63 63
63 63 63
63 63 63
63 63 63
63 63 63
63 63 63
63 63 63
63 63 63
63 63 63
63 63 63
63 63 63
63 63 63
63 63 63
63 63 63
63 63 63
63 63 63
63 63 63
63 63 63
63 63 63
63 63 63
63 63 63
63 63 63
63 63 63
63 63 63
63 63 63
63 63 63
63 63 63
63 63 63
63 63 63
63 63 63
63 63 63
63 63 63
63 63 63
63 63 63
63 63 63
63 63 63
63 63 63
63 63 63
63 63 63
63 63 63
63 63 63
63 63 63
63 63 63
63 63 63
63 63 63
63 63 63
63 63 63
63 63 63
63 63 63
63 63 63
63 63 63
63 63 63
63 63 63
63 63 63
63 63 63
63 63 63
63 63 63
63 63 63
63 63 63
63 63 63
63 63 63
63 63 63
63 63 63
63 63 63
63 63 63
63 63 63
63 63 63
63 63 63
63 63 63
63 63 63
63 63 63
63 63 63
63 63 63
63 63 63
63 63 63
63 63 63
63 63 63
63 63 63
63 63 63
63 63 63
63 63 63
63 63 63
63 63 63
63 63 63
63 63 63
63 63 63
63 63 63
63 63 63
63 63 63
63 63 63
63 63 63
63 63 63
63 63 63
63 63 63
63 63 63
63 63 63
63 63 63
63 63 63
63 63 63
63 63 63
63 63 63
63 63 63
63 63 63
63 63 63
63 63 63
63 63 63
63 63 63
63 63 63
63 63 63
63 63 63
63 63 63
63 63 63
63 63 63
63 63 63
63 63 63
63 63 63
63 63 63
63 63 63
63 63 63
63 63 63
63 63 63
63 63 63
63 63 63
63 63 63
63 63 63
63 63 63
63 63 63
63 63 63
63 63 63
63 63 63
63 63 63
10 76 123
7 84 132
6 88 138
6 92 144
5 95 149
6 98 153
6 100 158
7 102 162
7 104 165
8 106 169
9 108 172
10 109 176
12 110 179
13 111 182
14 112 185
15 113 188
17 114 191
18 115 193
20 115 196
22 116 198
23 117 201
25 117 203
27 117 206
28 118 208
30 118 210
32 118 212
34 118 215
36 118 217
38 118 219
40 118 221
43 118 223
45 118 225
47 118 227
49 117 228
52 117 230
54 117 232
57 116 233
59 115 235
62 115 237
64 114 238
67 113 240
70 112 241
73 111 242
76 110 243
79 109 245
83 108 246
86 106 247
90 104 248
93 102 248
97 100 249
102 98 249
106 95 250
111 92 249
117 88 249
123 84 248
132 76 245
63 63 63
63 63 63
63 63 63
63 63 63
63 63 63
63 63 63
63 63 63
63 63 63
63 63 63
63 63 63
63 63 63
63 63 63
63 63 63
63 63 63
63 63 63
63 63 63
63 63 63
63 63 63
63 63 63
63 63 63
63 63 63
63 63 63
63 63 63
63 63 63
63 63 63
63 63 63
63 63 63
63 63 63
63 63 63
63 63 63
63 63 63
63 63 63
63 63 63
63 63 63
63 63 63
63 63 63
63 63 63
63 63 63
63 63 63
63 63 63
63 63 63
63 63 63
63 63 63
63 63 63
63 63 63
63 63 63
63 63 63
63 63 63
63 63 63
63 63 63
63 63 63
63 63 63
63 63 63
63 63 63
63 63 63
63 63 63
63 63 63
63 63 63
63 63 63
63 63 63
63 63 63
63 63 63
63 63 63
63 63 63
63 63 63
63 63 63
63 63 63
63 63 63
63 63 63
63 63 63
63 63 63
63 63 63
63 63 63
63 63 63
63 63 63
63 63 63
63 63 63
63 63 63
63 63 63
63 63 63
63 63 63
63 63 63
63 63 63
63 63 63
63 63 63
63 63 63
63 63 63
63 63 63
63 63 63
63 63 63
63 63 63
63 63 63
63 63 63
63 63 63
63 63 63
63 63 63
63 63 63
63 63 63
63 63 63
63 63 63
63 63 63
63 63 63
63 63 63
63 63 63
63 63 63
63 63 63
63 63 63
63 63 63
63 63 63
63 63 63
63 63 63
63 63 63
63 63 63
63 63 63
63 63 63
63 63 63
63 63 63
63 63 63
63 63 63
63 63 63
63 63 63
63 63 63
63 63 63
63 63 63
63 63 63
63 63 63
63 63 63
63 63 63
63 63 63
63 63 63
63 63 63
63 63 63
63 63 63
63 63 63
63 63 63
63 63 63
63 63 63
63 63 63
63 63 63
63 63 63
63 63 63
63 63 63
63 63 63
63 63 63
63 63 63
63 63 63
63 63 63
63 63 63
63 63 63
63 63 63
63 63 63
63 63 63
63 63 63
63 63 63
63 63 63
63 63 63
63 63 63
63 63 63
63 63 63
63 63 63
63 63 63
63 63 63
63 63 63
63 63 63
63 63 63
63 63 63
63 63 63
63 63 63
63 63 63
63 63 63
63 63 63
63 63 63
63 63 63
63 63 63
63 63 63
63 63 63
63 63 63
63 63 63
63 63 63
63 63 63
63 63 63
63 63 63
63 63 63
63 63 63
63 63 63
63 63 63
63 63 63
63 63 63
63 63 63
63 63 63
63 63 63
63 63 63
63 63 63
63 63 63
63 63 63
63 63 63
63 63 63
63 63 63
63 63 63
63 63 63
63 63 63
63 63 63
63 63 63
63 63 63
63 63 63
63 63 63
63 63 63
63 63 63
63 63 63
63 63 63
63 63 63
63 63 63
63 63 63
63 63 63
63 63 63
63 63 63
63 63 63
63 63 63
63 63 63
63 63 63
63 63 63
63 63 63
63 63 63
63 63 63
63 63 63
63 63 63
63 63 63
63 63 63
63 63 63
63 63 63
63 63 63
63 63 63
63 63 63
63 63 63
63 63 63
63 63 63
63 63 63
63 63 63
63 63 63
63 63 63
63 63 63
63 63 63
63 63 63
63 63 63
63 63 63
63 63 63
63 63 63
63 63 63
63 63 63
63 63 63
63 63 63
63 63 63
63 63 63
63 63 63
63 63 63
63 63 63
63 63 63
63 63 63
63 63 63
63 63 63
63 63 63
63 63 63
63 63 63
63 63 63
63 63 63
63 63 63
63 63 63
63 63 63
63 63 63
63 63 63
63 63 63
63 63 63
63 63 63
63 63 63
63 63 63
63 63 63
63 63 63
63 63 63
63 63 63
63 63 63
63 63 63
63 63 63
63 63 63
63 63 63
63 63 63
63 63 63
63 63 63
63 63 63
63 63 63
63 63 63
63 63 63
63 63 63
63 63 63
63 63 63
63 63 63
63 63 63
63 63 63
63 63 63
63 63 63
63 63 63
63 63 63
63 63 63
63 63 63
63 63 63
63 63 63
63 63 63
63 63 63
63 63 63
63 63 63
63 63 63
63 63 63
63 63 63
63 63 63
63 63 63
63 63 63
63 63 63
63 63 63
63 63 63
63 63 63
63 63 63
63 63 63
63 63 63
63 63 63
63 63 63
63 63 63
63 63 63
63 63 63
63 63 63
63 63 63
63 63 63
63 63 63
63 63 63
63 63 63
63 63 63
63 63 63
63 63 63
63 63 63
63 63 63
63 63 63
63 63 63
63 63 63
63 63 63
63 63 63
63 63 63
63 63 63
12 73 126
9 80 135
7 85 141
7 89 147
7 92 152
7 95 156
8 97 160
8 99 164
9 101 168
10 103 171
11 104 175
12 105 178
13 107 181
14 108 184
16 109 187
17 110 190
19 110 193
20 111 195
22 112 198
23 112 201
25 113 203
27 113 205
29 113 208
31 114 210
33 114 212
34 114 214
36 114 216
39 114 219
41 114 221
43 114 222
45 114 224
47 113 226
50 113 228
52 113 230
54 112 232
57 112 233
60 111 235
62 110 236
65 110 238
68 109 239
71 108 241
74 107 242
77 105 243
80 104 244
84 103 245
87 101 246
91 99 247
95 97 247
99 95 248
103 92 248
108 89 248
114 85 248
120 80 246
129 73 243
63 63 63
63 63 63
63 63 63
63 63 63
63 63 63
63 63 63
63 63 63
63 63 63
63 63 63
63 63 63
63 63 63
63 63 63
63 63 63
63 63 63
63 63 63
63 63 63
63 63 63
63 63 63
63 63 63
63 63 63
63 63 63
63 63 63
63 63 63
63 63 63
63 63 63
63 63 63
63 63 63
63 63 63
63 63 63
63 63 63
63 63 63
63 63 63
63 63 63
63 63 63
63 63 63
63 63 63
63 63 63
63 63 63
63 63 63
63 63 63
63 63 63
63 63 63
63 63 63
63 63 63
63 63 63
63 63 63
63 63 63
63 63 63
63 63 63
63 63 63
63 63 63
63 63 63
63 63 63
63 63 63
63 63 63
63 63 63
63 63 63
63 63 63
63 63 63
63 63 63
63 63 63
63 63 63
63 63 63
63 63 63
63 63 63
63 63 63
63 63 63
63 63 63
63 63 63
63 63 63
63 63 63
63 63 63
63 63 63
63 63 63
63 63 63
63 63 63
63 63 63
63 63 63
63 63 63
63 63 63
63 63 63
63 63 63
63 63 63
63 63 63
63 63 63
63 63 63
63 63 63
63 63 63
63 63 63
63 63 63
63 63 63
63 63 63
63 63 63
63 63 63
63 63 63
63 63 63
63 63 63
63 63 63
63 63 63
63 63 63
63 63 63
63 63 63
63 63 63
63 63 63
63 63 63
63 63 63
63 63 63
63 63 63
63 63 63
63 63 63
63 63 63
63 63 63
63 63 63
63 63 63
63 63 63
63 63 63
63 63 63
63 63 63
63 63 63
63 63 63
63 63 63
63 63 63
63 63 63
63 63 63
63 63 63
63 63 63
63 63 63
63 63 63
63 63 63
63 63 63
63 63 63
63 63 63
63 63 63
63 63 63
63 63 63
63 63 63
63 63 63
63 63 63
63 63 63
63 63 63
63 63 63
63 63 63
63 63 63
63 63 63
63 63 63
63 63 63
63 63 63
63 63 63
63 63 63
63 63 63
63 63 63
63 63 63
63 63 63
63 63 63
63 63 63
63 63 63
63 63 63
63 63 63
63 63 63
63 63 63
63 63 63
63 63 63
63 63 63
63 63 63
63 63 63
63 63 63
63 63 63
63 63 63
63 63 63
63 63 63
63 63 63
63 63 63
63 63 63
63 63 63
63 63 63
63 63 63
63 63 63
63 63 63
63 63 63
63 63 63
63 63 63
63 63 63
63 63 63
63 63 63
63 63 63
63 63 63
63 63 63
63 63 63
63 63 63
63 63 63
63 63 63
63 63 63
63 63 63
63 63 63
63 63 63
63 63 63
63 63 63
63 63 63
63 63 63
63 63 63
63 63 63
63 63 63
63 63 63
63 63 63
63 63 63
63 63 63
63 63 63
63 63 63
63 63 63
63 63 63
63 63 63
63 63 63
63 63 63
63 63 63
63 63 63
63 63 63
63 63 63
63 63 63
63 63 63
63 63 63
63 63 63
63 63 63
63 63 63
63 63 63
63 63 63
63 63 63
63 63 63
63 63 63
63 63 63
63 63 63
63 63 63
63 63 63
63 63 63
63 63 63
63 63 63
63 63 63
63 63 63
63 63 63
63 63 63
63 63 63
63 63 63
63 63 63
63 63 63
63 63 63
63 63 63
63 63 63
63 63 63
63 63 63
63 63 63
63 63 63
63 63 63
63 63 63
63 63 63
63 63 63
63 63 63
63 63 63
63 63 63
63 63 63
63 63 63
63 63 63
63 63 63
63 63 63
63 63 63
63 63 63
63 63 63
63 63 63
63 63 63
63 63 63
63 63 63
63 63 63
63 63 63
63 63 63
63 63 63
63 63 63
63 63 63
63 63 63
63 63 63
63 63 63
63 63 63
63 63 63
63 63 63
63 63 63
63 63 63
63 63 63
63 63 63
63 63 63
63 63 63
63 63 63
63 63 63
63 63 63
63 63 63
63 63 63
63 63 63
63 63 63
63 63 63
63 63 63
63 63 63
63 63 63
63 63 63
63 63 63
63 63 63
63 63 63
63 63 63
63 63 63
63 63 63
63 63 63
63 63 63
63 63 63
63 63 63
63 63 63
63 63 63
63 63 63
63 63 63
63 63 63
63 63 63
63 63 63
63 63 63
63 63 63
63 63 63
63 63 63
63 63 63
63 63 63
63 63 63
63 63 63
63 63 63
63 63 63
63 63 63
63 63 63
63 63 63
63 63 63
63 63 63
63 63 63
63 63 63
63 63 63
63 63 63
63 63 63
63 63 63
63 63 63
63 63 63
63 63 63
63 63 63
63 63 63
63 63 63
63 63 63
63 63 63
63 63 63
63 63 63
14 69 128
10 77 137
9 82 144
9 86 149
8 89 154
9 91 159
9 94 163
10 96 167
11 97 170
12 99 174
13 101 177
14 102 180
15 103 183
16 104 186
18 105 189
19 106 192
21 107 195
22 107 197
24 108 200
26 108 203
27 109 205
29 109 207
31 109 210
33 110 212
35 110 214
37 110 216
39 110 218
41 110 220
43 110 222
45 109 224
48 109 226
50 109 228
52 108 229
55 108 231
58 107 233
60 107 234
63 106 236
66 105 237
69 104 239
72 103 240
75 102 241
78 101 242
81 99 243
85 97 244
88 96 245
92 94 246
96 91 246
101 89 247
106 86 246
111 82 246
118 77 245
127 69 241
63 63 63
63 63 63
63 63 63
63 63 63
63 63 63
63 63 63
63 63 63
63 63 63
63 63 63
63 63 63
63 63 63
63 63 63
63 63 63
63 63 63
63 63 63
63 63 63
63 63 63
63 63 63
63 63 63
63 63 63
63 63 63
63 63 63
63 63 63
63 63 63
63 63 63
63 63 63
63 63 63
63 63 63
63 63 63
63 63 63
63 63 63
63 63 63
63 63 63
63 63 63
63 63 63
63 63 63
63 63 63
63 63 63
63 63 63
63 63 63
63 63 63
63 63 63
63 63 63
63 63 63
63 63 63
63 63 63
63 63 63
63 63 63
63 63 63
63 63 63
63 63 63
63 63 63
63 63 63
63 63 63
63 63 63
63 63 63
63 63 63
63 63 63
63 63 63
63 63 63
63 63 63
63 63 63
63 63 63
63 63 63
63 63 63
63 63 63
63 63 63
63 63 63
63 63 63
63 63 63
63 63 63
63 63 63
63 63 63
63 63 63
63 63 63
63 63 63
63 63 63
63 63 63
63 63 63
63 63 63
63 63 63
63 63 63
63 63 63
63 63 63
63 63 63
63 63 63
63 63 63
63 63 63
63 63 63
63 63 63
63 63 63
63 63 63
63 63 63
63 63 63
63 63 63
63 63 63
63 63 63
63 63 63
63 63 63
63 63 63
63 63 63
63 63 63
63 63 63
63 63 63
63 63 63
63 63 63
63 63 63
63 63 63
63 63 63
63 63 63
63 63 63
63 63 63
63 63 63
63 63 63
63 63 63
63 63 63
63 63 63
63 63 63
63 63 63
63 63 63
63 63 63
63 63 63
63 63 63
63 63 63
63 63 63
63 63 63
63 63 63
63 63 63
63 63 63
63 63 63
63 63 63
63 63 63
63 63 63
63 63 63
63 63 63
63 63 63
63 63 63
63 63 63
63 63 63
63 63 63
63 63 63
63 63 63
63 63 63
63 63 63
63 63 63
63 63 63
63 63 63
63 63 63
63 63 63
63 63 63
63 63 63
63 63 63
63 63 63
63 63 63
63 63 63
63 63 63
63 63 63
63 63 63
63 63 63
63 63 63
63 63 63
63 63 63
63 63 63
63 63 63
63 63 63
63 63 63
63 63 63
63 63 63
63 63 63
63 63 63
63 63 63
63 63 63
63 63 63
63 63 63
63 63 63
63 63 63
63 63 63
63 63 63
63 63 63
63 63 63
63 63 63
63 63 63
63 63 63
63 63 63
63 63 63
63 63 63
63 63 63
63 63 63
63 63 63
63 63 63
63 63 63
63 63 63
63 63 63
63 63 63
63 63 63
63 63 63
63 63 63
63 63 63
63 63 63
63 63 63
63 63 63
63 63 63
63 63 63
63 63 63
63 63 63
63 63 63
63 63 63
63 63 63
63 63 63
63 63 63
63 63 63
63 63 63
63 63 63
63 63 63
63 63 63
63 63 63
63 63 63
63 63 63
63 63 63
63 63 63
63 63 63
63 63 63
63 63 63
63 63 63
63 63 63
63 63 63
63 63 63
63 63 63
63 63 63
63 63 63
63 63 63
63 63 63
63 63 63
63 63 63
63 63 63
63 63 63
63 63 63
63 63 63
63 63 63
63 63 63
63 63 63
63 63 63
63 63 63
63 63 63
63 63 63
63 63 63
63 63 63
63 63 63
63 63 63
63 63 63
63 63 63
63 63 63
63 63 63
63 63 63
63 63 63
63 63 63
63 63 63
63 63 63
63 63 63
63 63 63
63 63 63
63 63 63
63 63 63
63 63 63
63 63 63
63 63 63
63 63 63
63 63 63
63 63 63
63 63 63
63 63 63
63 63 63
63 63 63
63 63 63
63 63 63
63 63 63
63 63 63
63 63 63
63 63 63
63 63 63
63 63 63
63 63 63
63 63 63
63 63 63
63 63 63
63 63 63
63 63 63
63 63 63
63 63 63
63 63 63
63 63 63
63 63 63
63 63 63
63 63 63
63 63 63
63 63 63
63 63 63
63 63 63
63 63 63
63 63 63
63 63 63
63 63 63
63 63 63
63 63 63
63 63 63
63 63 63
63 63 63
63 63 63
63 63 63
63 63 63
63 63 63
63 63 63
63 63 63
63 63 63
63 63 63
63 63 63
63 63 63
63 63 63
63 63 63
63 63 63
63 63 63
63 63 63
63 63 63
63 63 63
63 63 63
63 63 63
63 63 63
63 63 63
63 63 63
63 63 63
63 63 63
63 63 63
63 63 63
63 63 63
63 63 63
63 63 63
63 63 63
63 63 63
63 63 63
63 63 63
63 63 63
63 63 63
63 63 63
63 63 63
63 63 63
63 63 63
63 63 63
63 63 63
63 63 63
17 63 129
12 73 139
11 78 146
10 82 152
10 85 156
11 88 161
11 90 165
12 92 169
13 94 173
14 95 176
15 97 179
16 98 182
17 99 186
18 100 188
20 101 191
21 102 194
23 103 197
24 103 199
26 104 202
28 104 204
30 105 207
31 105 209
33 105 211
35 105 213
37 105 216
39 105 218
42 105 220
44 105 222
46 105 224
48 105 225
51 104 227
53 104 229
56 103 231
58 103 232
61 102 234
64 101 235
67 100 237
69 99 238
73 98 239
76 97 240
79 95 241
82 94 242
86 92 243
90 90 244
94 88 244
99 85 245
103 82 245
109 78 244
116 73 243
126 63 238
63 63 63
63 63 63
63 63 63
63 63 63
63 63 63
63 63 63
63 63 63
63 63 63
63 63 63
63 63 63
63 63 63
63 63 63
63 63 63
63 63 63
63 63 63
63 63 63
63 63 63
63 63 63
63 63 63
63 63 63
63 63 63
63 63 63
63 63 63
63 63 63
63 63 63
63 63 63
63 63 63
63 63 63
63 63 63
63 63 63
63 63 63
63 63 63
63 63 63
63 63 63
63 63 63
63 63 63
63 63 63
63 63 63
63 63 63
63 63 63
63 63 63
63 63 63
63 63 63
63 63 63
63 63 63
63 63 63
63 63 63
63 63 63
63 63 63
63 63 63
63 63 63
63 63 63
63 63 63
63 63 63
63 63 63
63 63 63
63 63 63
63 63 63
63 63 63
63 63 63
63 63 63
63 63 63
63 63 63
63 63 63
63 63 63
63 63 63
63 63 63
63 63 63
63 63 63
63 63 63
63 63 63
63 63 63
63 63 63
63 63 63
63 63 63
63 63 63
63 63 63
63 63 63
63 63 63
63 63 63
63 63 63
63 63 63
63 63 63
63 63 63
63 63 63
63 63 63
63 63 63
63 63 63
63 63 63
63 63 63
63 63 63
63 63 63
63 63 63
63 63 63
63 63 63
63 63 63
63 63 63
63 63 63
63 63 63
63 63 63
63 63 63
63 63 63
63 63 63
63 63 63
63 63 63
63 63 63
63 63 63
63 63 63
63 63 63
63 63 63
63 63 63
63 63 63
63 63 63
63 63 63
63 63 63
63 63 63
63 63 63
63 63 63
63 63 63
63 63 63
63 63 63
63 63 63
63 63 63
63 63 63
63 63 63
63 63 63
63 63 63
63 63 63
63 63 63
63 63 63
63 63 63
63 63 63
63 63 63
63 63 63
63 63 63
63 63 63
63 63 63
63 63 63
63 63 63
63 63 63
63 63 63
63 63 63
63 63 63
63 63 63
63 63 63
63 63 63
63 63 63
63 63 63
63 63 63
63 63 63
63 63 63
63 63 63
63 63 63
63 63 63
63 63 63
63 63 63
63 63 63
63 63 63
63 63 63
63 63 63
63 63 63
63 63 63
63 63 63
63 63 63
63 63 63
63 63 63
63 63 63
63 63 63
63 63 63
63 63 63
63 63 63
63 63 63
63 63 63
63 63 63
63 63 63
63 63 63
63 63 63
63 63 63
63 63 63
63 63 63
63 63 63
63 63 63
63 63 63
63 63 63
63 63 63
63 63 63
63 63 63
63 63 63
63 63 63
63 63 63
63 63 63
63 63 63
63 63 63
63 63 63
63 63 63
63 63 63
63 63 63
63 63 63
63 63 63
63 63 63
63 63 63
63 63 63
63 63 63
63 63 63
63 63 63
63 63 63
63 63 63
63 63 63
63 63 63
63 63 63
63 63 63
63 63 63
63 63 63
63 63 63
63 63 63
63 63 63
63 63 63
63 63 63
63 63 63
63 63 63
63 63 63
63 63 63
63 63 63
63 63 63
63 63 63
63 63 63
63 63 63
63 63 63
63 63 63
63 63 63
63 63 63
63 63 63
63 63 63
63 63 63
63 63 63
63 63 63
63 63 63
63 63 63
63 63 63
63 63 63
63 63 63
63 63 63
63 63 63
63 63 63
63 63 63
63 63 63
63 63 63
63 63 63
63 63 63
63 63 63
63 63 63
63 63 63
63 63 63
63 63 63
63 63 63
63 63 63
63 63 63
63 63 63
63 63 63
63 63 63
63 63 63
63 63 63
63 63 63
63 63 63
63 63 63
63 63 63
63 63 63
63 63 63
63 63 63
63 63 63
63 63 63
63 63 63
63 63 63
63 63 63
63 63 63
63 63 63
63 63 63
63 63 63
63 63 63
63 63 63
63 63 63
63 63 63
63 63 63
63 63 63
63 63 63
63 63 63
63 63 63
63 63 63
63 63 63
63 63 63
63 63 63
63 63 63
63 63 63
63 63 63
63 63 63
63 63 63
63 63 63
63 63 63
63 63 63
63 63 63
63 63 63
63 63 63
63 63 63
63 63 63
63 63 63
63 63 63
63 63 63
63 63 63
63 63 63
63 63 63
63 63 63
63 63 63
63 63 63
63 63 63
63 63 63
63 63 63
63 63 63
63 63 63
63 63 63
63 63 63
63 63 63
63 63 63
63 63 63
63 63 63
63 63 63
63 63 63
63 63 63
63 63 63
63 63 63
63 63 63
63 63 63
63 63 63
63 63 63
63 63 63
63 63 63
63 63 63
63 63 63
63 63 63
63 63 63
63 63 63
63 63 63
63 63 63
63 63 63
63 63 63
63 63 63
63 63 63
63 63 63
63 63 63
63 63 63
63 63 63
63 63 63
63 63 63
15 68 140
13 73 148
13 78 153
12 81 158
13 84 163
13 86 167
14 88 171
15 90 174
16 91 178
17 93 181
18 94 184
19 95 187
21 96 190
22 97 193
24 98 196
25 98 199
27 99 201
28 99 204
30 100 206
32 100 208
34 100 211
36 100 213
38 100 215
40 100 217
42 100 219
44 100 221
47 100 223
49 100 225
51 99 227
54 99 228
56 98 230
59 98 231
62 97 233
65 96 234
68 95 236
71 94 237
74 93 238
77 91 239
81 90 240
84 88 241
88 86 242
92 84 242
97 81 243
102 78 242
107 73 242
115 68 240
63 63 63
63 63 63
63 63 63
63 63 63
63 63 63
63 63 63
63 63 63
63 63 63
63 63 63
63 63 63
63 63 63
63 63 63
63 63 63
63 63 63
63 63 63
63 63 63
63 63 63
63 63 63
63 63 63
63 63 63
63 63 63
63 63 63
63 63 63
63 63 63
63 63 63
63 63 63
63 63 63
63 63 63
63 63 63
63 63 63
63 63 63
63 63 63
63 63 63
63 63 63
63 63 63
63 63 63
63 63 63
63 63 63
63 63 63
63 63 63
63 63 63
63 63 63
63 63 63
63 63 63
63 63 63
63 63 63
63 63 63
63 63 63
63 63 63
63 63 63
63 63 63
63 63 63
63 63 63
63 63 63
63 63 63
63 63 63
63 63 63
63 63 63
63 63 63
63 63 63
63 63 63
63 63 63
63 63 63
63 63 63
63 63 63
63 63 63
63 63 63
63 63 63
63 63 63
63 63 63
63 63 63
63 63 63
63 63 63
63 63 63
63 63 63
63 63 63
63 63 63
63 63 63
63 63 63
63 63 63
63 63 63
63 63 63
63 63 63
63 63 63
63 63 63
63 63 63
63 63 63
63 63 63
63 63 63
63 63 63
63 63 63
63 63 63
63 63 63
63 63 63
63 63 63
63 63 63
63 63 63
63 63 63
63 63 63
63 63 63
63 63 63
63 63 63
63 63 63
63 63 63
63 63 63
63 63 63
63 63 63
63 63 63
63 63 63
63 63 63
63 63 63
63 63 63
63 63 63
63 63 63
63 63 63
63 63 63
63 63 63
63 63 63
63 63 63
63 63 63
63 63 63
63 63 63
63 63 63
63 63 63
63 63 63
63 63 63
63 63 63
63 63 63
63 63 63
63 63 63
63 63 63
63 63 63
63 63 63
63 63 63
63 63 63
63 63 63
63 63 63
63 63 63
63 63 63
63 63 63
63 63 63
63 63 63
63 63 63
63 63 63
63 63 63
63 63 63
63 63 63
63 63 63
63 63 63
63 63 63
63 63 63
63 63 63
63 63 63
63 63 63
63 63 63
63 63 63
63 63 63
63 63 63
63 63 63
63 63 63
63 63 63
63 63 63
63 63 63
63 63 63
63 63 63
63 63 63
63 63 63
63 63 63
63 63 63
63 63 63
63 63 63
63 63 63
63 63 63
63 63 63
63 63 63
63 63 63
63 63 63
63 63 63
63 63 63
63 63 63
63 63 63
63 63 63
63 63 63
63 63 63
63 63 63
63 63 63
63 63 63
63 63 63
63 63 63
63 63 63
63 63 63
63 63 63
63 63 63
63 63 63
63 63 63
63 63 63
63 63 63
63 63 63
63 63 63
63 63 63
63 63 63
63 63 63
63 63 63
63 63 63
63 63 63
63 63 63
63 63 63
63 63 63
63 63 63
63 63 63
63 63 63
63 63 63
63 63 63
63 63 63
63 63 63
63 63 63
63 63 63
63 63 63
63 63 63
63 63 63
63 63 63
63 63 63
63 63 63
63 63 63
63 63 63
63 63 63
63 63 63
63 63 63
63 63 63
63 63 63
63 63 63
63 63 63
63 63 63
63 63 63
63 63 63
63 63 63
63 63 63
63 63 63
63 63 63
63 63 63
63 63 63
63 63 63
63 63 63
63 63 63
63 63 63
63 63 63
63 63 63
63 63 63
63 63 63
63 63 63
63 63 63
63 63 63
63 63 63
63 63 63
63 63 63
63 63 63
63 63 63
63 63 63
63 63 63
63 63 63
63 63 63
63 63 63
63 63 63
63 63 63
63 63 63
63 63 63
63 63 63
63 63 63
63 63 63
63 63 63
63 63 63
63 63 63
63 63 63
63 63 63
63 63 63
63 63 63
63 63 63
63 63 63
63 63 63
63 63 63
63 63 63
63 63 63
63 63 63
63 63 63
63 63 63
63 63 63
63 63 63
63 63 63
63 63 63
63 63 63
63 63 63
63 63 63
63 63 63
63 63 63
63 63 63
63 63 63
63 63 63
63 63 63
63 63 63
63 63 63
63 63 63
63 63 63
63 63 63
63 63 63
63 63 63
63 63 63
63 63 63
63 63 63
63 63 63
63 63 63
63 63 63
63 63 63
63 63 63
63 63 63
63 63 63
63 63 63
63 63 63
63 63 63
63 63 63
63 63 63
63 63 63
63 63 63
63 63 63
63 63 63
63 63 63
63 63 63
63 63 63
63 63 63
63 63 63
63 63 63
63 63 63
63 63 63
63 63 63
63 63 63
63 63 63
63 63 63
63 63 63
63 63 63
63 63 63
63 63 63
63 63 63
63 63 63
63 63 63
63 63 63
63 63 63
63 63 63
63 63 63
63 63 63
63 63 63
63 63 63
63 63 63
63 63 63
63 63 63
63 63 63
63 63 63
19 61 140
16 68 149
15 73 155
15 76 160
15 79 165
15 81 169
16 83 173
17 85 176
18 87 180
19 88 183
20 89 186
22 91 189
23 91 192
24 92 195
26 93 197
28 94 200
29 94 203
31 95 205
33 95 207
35 95 210
37 95 212
39 95 214
41 95 216
43 95 218
45 95 220
48 95 222
50 95 224
52 94 226
55 94 227
58 93 229
60 92 231
63 91 232
66 91 233
69 89 235
72 88 236
75 87 237
79 85 238
82 83 239
86 81 240
90 79 240
95 76 240
100 73 240
106 68 239
115 61 236
63 63 63
63 63 63
63 63 63
63 63 63
63 63 63
63 63 63
63 63 63
63 63 63
63 63 63
63 63 63
63 63 63
63 63 63
63 63 63
63 63 63
63 63 63
63 63 63
63 63 63
63 63 63
63 63 63
63 63 63
63 63 63
63 63 63
63 63 63
63 63 63
63 63 63
63 63 63
63 63 63
63 63 63
63 63 63
63 63 63
63 63 63
63 63 63
63 63 63
63 63 63
63 63 63
63 63 63
63 63 63
63 63 63
63 63 63
63 63 63
63 63 63
63 63 63
63 63 63
63 63 63
63 63 63
63 63 63
63 63 63
63 63 63
63 63 63
63 63 63
63 63 63
63 63 63
63 63 63
63 63 63
63 63 63
63 63 63
63 63 63
63 63 63
63 63 63
63 63 63
63 63 63
63 63 63
63 63 63
63 63 63
63 63 63
63 63 63
63 63 63
63 63 63
63 63 63
63 63 63
63 63 63
63 63 63
63 63 63
63 63 63
63 63 63
63 63 63
63 63 63
63 63 63
63 63 63
63 63 63
63 63 63
63 63 63
63 63 63
63 63 63
63 63 63
63 63 63
63 63 63
63 63 63
63 63 63
63 63 63
63 63 63
63 63 63
63 63 63
63 63 63
63 63 63
63 63 63
63 63 63
63 63 63
63 63 63
63 63 63
63 63 63
63 63 63
63 63 63
63 63 63
63 63 63
63 63 63
63 63 63
63 63 63
63 63 63
63 63 63
63 63 63
63 63 63
63 63 63
63 63 63
63 63 63
63 63 63
63 63 63
63 63 63
63 63 63
63 63 63
63 63 63
63 63 63
63 63 63
63 63 63
63 63 63
63 63 63
63 63 63
63 63 63
63 63 63
63 63 63
63 63 63
63 63 63
63 63 63
63 63 63
63 63 63
63 63 63
63 63 63
63 63 63
63 63 63
63 63 63
63 63 63
63 63 63
63 63 63
63 63 63
63 63 63
63 63 63
63 63 63
63 63 63
63 63 63
63 63 63
63 63 63
63 63 63
63 63 63
63 63 63
63 63 63
63 63 63
63 63 63
63 63 63
63 63 63
63 63 63
63 63 63
63 63 63
63 63 63
63 63 63
63 63 63
63 63 63
63 63 63
63 63 63
63 63 63
63 63 63
63 63 63
63 63 63
63 63 63
63 63 63
63 63 63
63 63 63
63 63 63
63 63 63
63 63 63
63 63 63
63 63 63
63 63 63
63 63 63
63 63 63
63 63 63
63 63 63
63 63 63
63 63 63
63 63 63
63 63 63
63 63 63
63 63 63
63 63 63
63 63 63
63 63 63
63 63 63
63 63 63
63 63 63
63 63 63
63 63 63
63 63 63
63 63 63
63 63 63
63 63 63
63 63 63
63 63 63
63 63 63
63 63 63
63 63 63
63 63 63
63 63 63
63 63 63
63 63 63
63 63 63
63 63 63
63 63 63
63 63 63
63 63 63
63 63 63
63 63 63
63 63 63
63 63 63
63 63 63
63 63 63
63 63 63
63 63 63
63 63 63
63 63 63
63 63 63
63 63 63
63 63 63
63 63 63
63 63 63
63 63 63
63 63 63
63 63 63
63 63 63
63 63 63
63 63 63
63 63 63
63 63 63
63 63 63
63 63 63
63 63 63
63 63 63
63 63 63
63 63 63
63 63 63
63 63 63
63 63 63
63 63 63
63 63 63
63 63 63
63 63 63
63 63 63
63 63 63
63 63 63
63 63 63
63 63 63
63 63 63
63 63 63
63 63 63
63 63 63
63 63 63
63 63 63
63 63 63
63 63 63
63 63 63
63 63 63
63 63 63
63 63 63
63 63 63
63 63 63
63 63 63
63 63 63
63 63 63
63 63 63
63 63 63
63 63 63
63 63 63
63 63 63
63 63 63
63 63 63
63 63 63
63 63 63
63 63 63
63 63 63
63 63 63
63 63 63
63 63 63
63 63 63
63 63 63
63 63 63
63 63 63
63 63 63
63 63 63
63 63 63
63 63 63
63 63 63
63 63 63
63 63 63
63 63 63
63 63 63
63 63 63
63 63 63
63 63 63
63 63 63
63 63 63
63 63 63
63 63 63
63 63 63
63 63 63
63 63 63
63 63 63
63 63 63
63 63 63
63 63 63
63 63 63
63 63 63
63 63 63
63 63 63
63 63 63
63 63 63
63 63 63
63 63 63
63 63 63
63 63 63
63 63 63
63 63 63
63 63 63
63 63 63
63 63 63
63 63 63
63 63 63
63 63 63
63 63 63
63 63 63
63 63 63
63 63 63
63 63 63
63 63 63
63 63 63
63 63 63
63 63 63
63 63 63
63 63 63
63 63 63
63 63 63
63 63 63
63 63 63
63 63 63
63 63 63
63 63 63
63 63 63
63 63 63
63 63 63
63 63 63
63 63 63
20 62 149
18 67 156
18 71 161
18 74 166
18 76 170
19 79 174
20 80 178
21 82 181
22 83 184
23 85 187
24 86 190
26 87 193
27 87 196
29 88 199
30 89 201
32 89 204
34 90 206
36 90 209
38 90 211
40 90 213
42 90 215
44 90 217
46 90 219
49 90 221
51 89 223
54 89 225
56 88 226
59 87 228
62 87 229
65 86 231
68 85 232
71 83 233
74 82 234
77 80 235
81 79 236
85 76 237
89 74 237
94 71 237
99 67 237
106 62 235
63 63 63
63 63 63
63 63 63
63 63 63
63 63 63
63 63 63
63 63 63
63 63 63
63 63 63
63 63 63
63 63 63
63 63 63
63 63 63
63 63 63
63 63 63
63 63 63
63 63 63
63 63 63
63 63 63
63 63 63
63 63 63
63 63 63
63 63 63
63 63 63
63 63 63
63 63 63
63 63 63
63 63 63
63 63 63
63 63 63
63 63 63
63 63 63
63 63 63
63 63 63
63 63 63
63 63 63
63 63 63
63 63 63
63 63 63
63 63 63
63 63 63
63 63 63
63 63 63
63 63 63
63 63 63
63 63 63
63 63 63
63 63 63
63 63 63
63 63 63
63 63 63
63 63 63
63 63 63
63 63 63
63 63 63
63 63 63
63 63 63
63 63 63
63 63 63
63 63 63
63 63 63
63 63 63
63 63 63
63 63 63
63 63 63
63 63 63
63 63 63
63 63 63
63 63 63
63 63 63
63 63 63
63 63 63
63 63 63
63 63 63
63 63 63
63 63 63
63 63 63
63 63 63
63 63 63
63 63 63
63 63 63
63 63 63
63 63 63
63 63 63
63 63 63
63 63 63
63 63 63
63 63 63
63 63 63
63 63 63
63 63 63
63 63 63
63 63 63
63 63 63
63 63 63
63 63 63
63 63 63
63 63 63
63 63 63
63 63 63
63 63 63
63 63 63
63 63 63
63 63 63
63 63 63
63 63 63
63 63 63
63 63 63
63 63 63
63 63 63
63 63 63
63 63 63
63 63 63
63 63 63
63 63 63
63 63 63
63 63 63
63 63 63
63 63 63
63 63 63
63 63 63
63 63 63
63 63 63
63 63 63
63 63 63
63 63 63
63 63 63
63 63 63
63 63 63
63 63 63
63 63 63
63 63 63
63 63 63
63 63 63
63 63 63
63 63 63
63 63 63
63 63 63
63 63 63
63 63 63
63 63 63
63 63 63
63 63 63
63 63 63
63 63 63
63 63 63
63 63 63
63 63 63
63 63 63
63 63 63
63 63 63
63 63 63
63 63 63
63 63 63
63 63 63
63 63 63
63 63 63
63 63 63
63 63 63
63 63 63
63 63 63
63 63 63
63 63 63
63 63 63
63 63 63
63 63 63
63 63 63
63 63 63
63 63 63
63 63 63
63 63 63
63 63 63
63 63 63
63 63 63
63 63 63
63 63 63
63 63 63
63 63 63
63 63 63
63 63 63
63 63 63
63 63 63
63 63 63
63 63 63
63 63 63
63 63 63
63 63 63
63 63 63
63 63 63
63 63 63
63 63 63
63 63 63
63 63 63
63 63 63
63 63 63
63 63 63
63 63 63
63 63 63
63 63 63
63 63 63
63 63 63
63 63 63
63 63 63
63 63 63
63 63 63
63 63 63
63 63 63
63 63 63
63 63 63
63 63 63
63 63 63
63 63 63
63 63 63
63 63 63
63 63 63
63 63 63
63 63 63
63 63 63
63 63 63
63 63 63
63 63 63
63 63 63
63 63 63
63 63 63
63 63 63
63 63 63
63 63 63
63 63 63
63 63 63
63 63 63
63 63 63
63 63 63
63 63 63
63 63 63
63 63 63
63 63 63
63 63 63
63 63 63
63 63 63
63 63 63
63 63 63
63 63 63
63 63 63
63 63 63
63 63 63
63 63 63
63 63 63
63 63 63
63 63 63
63 63 63
63 63 63
63 63 63
63 63 63
63 63 63
63 63 63
63 63 63
63 63 63
63 63 63
63 63 63
63 63 63
63 63 63
63 63 63
63 63 63
63 63 63
63 63 63
63 63 63
63 63 63
63 63 63
63 63 63
63 63 63
63 63 63
63 63 63
63 63 63
63 63 63
63 63 63
63 63 63
63 63 63
63 63 63
63 63 63
63 63 63
63 63 63
63 63 63
63 63 63
63 63 63
63 63 63
63 63 63
63 63 63
63 63 63
63 63 63
63 63 63
63 63 63
63 63 63
63 63 63
63 63 63
63 63 63
63 63 63
63 63 63
63 63 63
63 63 63
63 63 63
63 63 63
63 63 63
63 63 63
63 63 63
63 63 63
63 63 63
63 63 63
63 63 63
63 63 63
63 63 63
63 63 63
63 63 63
63 63 63
63 63 63
63 63 63
63 63 63
63 63 63
63 63 63
63 63 63
63 63 63
63 63 63
63 63 63
63 63 63
63 63 63
63 63 63
63 63 63
63 63 63
63 63 63
63 63 63
63 63 63
63 63 63
63 63 63
63 63 63
63 63 63
63 63 63
63 63 63
63 63 63
63 63 63
63 63 63
63 63 63
63 63 63
63 63 63
63 63 63
63 63 63
63 63 63
63 63 63
63 63 63
63 63 63
63 63 63
63 63 63
63 63 63
63 63 63
63 63 63
63 63 63
63 63 63
63 63 63
63 63 63
63 63 63
63 63 63
63 63 63
63 63 63
27 50 145
22 60 155
21 65 161
21 68 166
21 71 171
22 73 175
23 75 179
23 77 182
25 78 185
26 79 189
27 80 192
29 81 194
30 82 197
32 83 200
34 83 202
35 84 205
37 84 207
39 84 209
41 84 212
43 84 214
46 84 216
48 84 218
50 84 220
53 83 221
55 83 223
58 82 225
61 81 226
63 80 228
66 79 229
70 78 230
73 77 232
76 75 232
80 73 233
84 71 234
89 68 234
94 65 234
100 60 233
110 50 228
63 63 63
63 63 63
63 63 63
63 63 63
63 63 63
63 63 63
63 63 63
63 63 63
63 63 63
63 63 63
63 63 63
63 63 63
63 63 63
63 63 63
63 63 63
63 63 63
63 63 63
63 63 63
63 63 63
63 63 63
63 63 63
63 63 63
63 63 63
63 63 63
63 63 63
63 63 63
63 63 63
63 63 63
63 63 63
63 63 63
63 63 63
63 63 63
63 63 63
63 63 63
63 63 63
63 63 63
63 63 63
63 63 63
63 63 63
63 63 63
63 63 63
63 63 63
63 63 63
63 63 63
63 63 63
63 63 63
63 63 63
63 63 63
63 63 63
63 63 63
63 63 63
63 63 63
63 63 63
63 63 63
63 63 63
63 63 63
63 63 63
63 63 63
63 63 63
63 63 63
63 63 63
63 63 63
63 63 63
63 63 63
63 63 63
63 63 63
63 63 63
63 63 63
63 63 63
63 63 63
63 63 63
63 63 63
63 63 63
63 63 63
63 63 63
63 63 63
63 63 63
63 63 63
63 63 63
63 63 63
63 63 63
63 63 63
63 63 63
63 63 63
63 63 63
63 63 63
63 63 63
63 63 63
63 63 63
63 63 63
63 63 63
63 63 63
63 63 63
63 63 63
63 63 63
63 63 63
63 63 63
63 63 63
63 63 63
63 63 63
63 63 63
63 63 63
63 63 63
63 63 63
63 63 63
63 63 63
63 63 63
63 63 63
63 63 63
63 63 63
63 63 63
63 63 63
63 63 63
63 63 63
63 63 63
63 63 63
63 63 63
63 63 63
63 63 63
63 63 63
63 63 63
63 63 63
63 63 63
63 63 63
63 63 63
63 63 63
63 63 63
63 63 63
63 63 63
63 63 63
63 63 63
63 63 63
63 63 63
63 63 63
63 63 63
63 63 63
63 63 63
63 63 63
63 63 63
63 63 63
63 63 63
63 63 63
63 63 63
63 63 63
63 63 63
63 63 63
63 63 63
63 63 63
63 63 63
63 63 63
63 63 63
63 63 63
63 63 63
63 63 63
63 63 63
63 63 63
63 63 63
63 63 63
63 63 63
63 63 63
63 63 63
63 63 63
63 63 63
63 63 63
63 63 63
63 63 63
63 63 63
63 63 63
63 63 63
63 63 63
63 63 63
63 63 63
63 63 63
63 63 63
63 63 63
63 63 63
63 63 63
63 63 63
63 63 63
63 63 63
63 63 63
63 63 63
63 63 63
63 63 63
63 63 63
63 63 63
63 63 63
63 63 63
63 63 63
63 63 63
63 63 63
63 63 63
63 63 63
63 63 63
63 63 63
63 63 63
63 63 63
63 63 63
63 63 63
63 63 63
63 63 63
63 63 63
63 63 63
63 63 63
63 63 63
63 63 63
63 63 63
63 63 63
63 63 63
63 63 63
63 63 63
63 63 63
63 63 63
63 63 63
63 63 63
63 63 63
63 63 63
63 63 63
63 63 63
63 63 63
63 63 63
63 63 63
63 63 63
63 63 63
63 63 63
63 63 63
63 63 63
63 63 63
63 63 63
63 63 63
63 63 63
63 63 63
63 63 63
63 63 63
63 63 63
63 63 63
63 63 63
63 63 63
63 63 63
63 63 63
63 63 63
63 63 63
63 63 63
63 63 63
63 63 63
63 63 63
63 63 63
63 63 63
63 63 63
63 63 63
63 63 63
63 63 63
63 63 63
63 63 63
63 63 63
63 63 63
63 63 63
63 63 63
63 63 63
63 63 63
63 63 63
63 63 63
63 63 63
63 63 63
63 63 63
63 63 63
63 63 63
63 63 63
63 63 63
63 63 63
63 63 63
63 63 63
63 63 63
63 63 63
63 63 63
63 63 63
63 63 63
63 63 63
63 63 63
63 63 63
63 63 63
63 63 63
63 63 63
63 63 63
63 63 63
63 63 63
63 63 63
63 63 63
63 63 63
63 63 63
63 63 63
63 63 63
63 63 63
63 63 63
63 63 63
63 63 63
63 63 63
63 63 63
63 63 63
63 63 63
63 63 63
63 63 63
63 63 63
63 63 63
63 63 63
63 63 63
63 63 63
63 63 63
63 63 63
63 63 63
63 63 63
63 63 63
63 63 63
63 63 63
63 63 63
63 63 63
63 63 63
63 63 63
63 63 63
63 63 63
63 63 63
63 63 63
63 63 63
63 63 63
63 63 63
63 63 63
63 63 63
63 63 63
63 63 63
63 63 63
63 63 63
63 63 63
63 63 63
63 63 63
63 63 63
63 63 63
63 63 63
63 63 63
63 63 63
63 63 63
63 63 63
63 63 63
63 63 63
63 63 63
63 63 63
63 63 63
63 63 63
63 63 63
63 63 63
63 63 63
63 63 63
63 63 63
63 63 63
63 63 63
63 63 63
63 63 63
63 63 63
63 63 63
63 63 63
63 63 63
63 63 63
63 63 63
63 63 63
63 63 63
31 47 150
26 56 160
25 61 166
25 64 171
25 67 175
26 69 179
27 71 183
28 72 186
29 73 189
31 75 192
32 75 195
34 76 198
35 77 200
37 77 203
39 78 205
41 78 208
43 78 210
45 78 212
47 78 214
50 78 216
52 77 218
55 77 220
57 76 221
60 75 223
63 75 224
66 73 226
69 72 227
72 71 228
76 69 229
80 67 230
84 64 230
89 61 230
95 56 229
105 47 224
63 63 63
63 63 63
63 63 63
63 63 63
63 63 63
63 63 63
63 63 63
63 63 63
63 63 63
63 63 63
63 63 63
63 63 63
63 63 63
63 63 63
63 63 63
63 63 63
63 63 63
63 63 63
63 63 63
63 63 63
63 63 63
63 63 63
63 63 63
63 63 63
63 63 63
63 63 63
63 63 63
63 63 63
63 63 63
63 63 63
63 63 63
63 63 63
63 63 63
63 63 63
63 63 63
63 63 63
63 63 63
63 63 63
63 63 63
63 63 63
63 63 63
63 63 63
63 63 63
63 63 63
63 63 63
63 63 63
63 63 63
63 63 63
63 63 63
63 63 63
63 63 63
63 63 63
63 63 63
63 63 63
63 63 63
63 63 63
63 63 63
63 63 63
63 63 63
63 63 63
63 63 63
63 63 63
63 63 63
63 63 63
63 63 63
63 63 63
63 63 63
63 63 63
63 63 63
63 63 63
63 63 63
63 63 63
63 63 63
63 63 63
63 63 63
63 63 63
63 63 63
63 63 63
63 63 63
63 63 63
63 63 63
63 63 63
63 63 63
63 63 63
63 63 63
63 63 63
63 63 63
63 63 63
63 63 63
63 63 63
63 63 63
63 63 63
63 63 63
63 63 63
63 63 63
63 63 63
63 63 63
63 63 63
63 63 63
63 63 63
63 63 63
63 63 63
63 63 63
63 63 63
63 63 63
63 63 63
63 63 63
63 63 63
63 63 63
63 63 63
63 63 63
63 63 63
63 63 63
63 63 63
63 63 63
63 63 63
63 63 63
63 63 63
63 63 63
63 63 63
63 63 63
63 63 63
63 63 63
63 63 63
63 63 63
63 63 63
63 63 63
63 63 63
63 63 63
63 63 63
63 63 63
63 63 63
63 63 63
63 63 63
63 63 63
63 63 63
63 63 63
63 63 63
63 63 63
63 63 63
63 63 63
63 63 63
63 63 63
63 63 63
63 63 63
63 63 63
63 63 63
63 63 63
63 63 63
63 63 63
63 63 63
63 63 63
63 63 63
63 63 63
63 63 63
63 63 63
63 63 63
63 63 63
63 63 63
63 63 63
63 63 63
63 63 63
63 63 63
63 63 63
63 63 63
63 63 63
63 63 63
63 63 63
63 63 63
63 63 63
63 63 63
63 63 63
63 63 63
63 63 63
63 63 63
63 63 63
63 63 63
63 63 63
63 63 63
63 63 63
63 63 63
63 63 63
63 63 63
63 63 63
63 63 63
63 63 63
63 63 63
63 63 63
63 63 63
63 63 63
63 63 63
63 63 63
63 63 63
63 63 63
63 63 63
63 63 63
63 63 63
63 63 63
63 63 63
63 63 63
63 63 63
63 63 63
63 63 63
63 63 63
63 63 63
63 63 63
63 63 63
63 63 63
63 63 63
63 63 63
63 63 63
63 63 63
63 63 63
63 63 63
63 63 63
63 63 63
63 63 63
63 63 63
63 63 63
63 63 63
63 63 63
63 63 63
63 63 63
63 63 63
63 63 63
63 63 63
63 63 63
63 63 63
63 63 63
63 63 63
63 63 63
63 63 63
63 63 63
63 63 63
63 63 63
63 63 63
63 63 63
63 63 63
63 63 63
63 63 63
63 63 63
63 63 63
63 63 63
63 63 63
63 63 63
63 63 63
63 63 63
63 63 63
63 63 63
63 63 63
63 63 63
63 63 63
63 63 63
63 63 63
63 63 63
63 63 63
63 63 63
63 63 63
63 63 63
63 63 63
63 63 63
63 63 63
63 63 63
63 63 63
63 63 63
63 63 63
63 63 63
63 63 63
63 63 63
63 63 63
63 63 63
63 63 63
63 63 63
63 63 63
63 63 63
63 63 63
63 63 63
63 63 63
63 63 63
63 63 63
63 63 63
63 63 63
63 63 63
63 63 63
63 63 63
63 63 63
63 63 63
63 63 63
63 63 63
63 63 63
63 63 63
63 63 63
63 63 63
63 63 63
63 63 63
63 63 63
63 63 63
63 63 63
63 63 63
63 63 63
63 63 63
63 63 63
63 63 63
63 63 63
63 63 63
63 63 63
63 63 63
63 63 63
63 63 63
63 63 63
63 63 63
63 63 63
63 63 63
63 63 63
63 63 63
63 63 63
63 63 63
63 63 63
63 63 63
63 63 63
63 63 63
63 63 63
63 63 63
63 63 63
63 63 63
63 63 63
63 63 63
63 63 63
63 63 63
63 63 63
63 63 63
63 63 63
63 63 63
63 63 63
63 63 63
63 63 63
63 63 63
63 63 63
63 63 63
63 63 63
63 63 63
63 63 63
63 63 63
63 63 63
63 63 63
63 63 63
63 63 63
63 63 63
63 63 63
63 63 63
63 63 63
63 63 63
63 63 63
63 63 63
63 63 63
63 63 63
63 63 63
63 63 63
63 63 63
63 63 63
63 63 63
63 63 63
63 63 63
63 63 63
63 63 63
63 63 63
63 63 63
63 63 63
63 63 63
32 51 163
30 56 170
30 59 174
30 62 179
31 64 182
32 65 186
33 67 189
35 68 192
36 69 195
38 69 198
39 70 200
41 70 203
43 71 205
45 71 208
47 71 210
50 71 212
52 70 214
55 70 216
57 69 217
60 69 219
63 68 220
66 67 222
69 65 223
73 64 224
76 62 225
81 59 225
85 56 225
92 51 223
63 63 63
63 63 63
63 63 63
63 63 63
63 63 63
63 63 63
63 63 63
63 63 63
63 63 63
63 63 63
63 63 63
63 63 63
63 63 63
63 63 63
63 63 63
63 63 63
63 63 63
63 63 63
63 63 63
63 63 63
63 63 63
63 63 63
63 63 63
63 63 63
63 63 63
63 63 63
63 63 63
63 63 63
63 63 63
63 63 63
63 63 63
63 63 63
63 63 63
63 63 63
63 63 63
63 63 63
63 63 63
63 63 63
63 63 63
63 63 63
63 63 63
63 63 63
63 63 63
63 63 63
63 63 63
63 63 63
63 63 63
63 63 63
63 63 63
63 63 63
63 63 63
63 63 63
63 63 63
63 63 63
63 63 63
63 63 63
63 63 63
63 63 63
63 63 63
63 63 63
63 63 63
63 63 63
63 63 63
63 63 63
63 63 63
63 63 63
63 63 63
63 63 63
63 63 63
63 63 63
63 63 63
63 63 63
63 63 63
63 63 63
63 63 63
63 63 63
63 63 63
63 63 63
63 63 63
63 63 63
63 63 63
63 63 63
63 63 63
63 63 63
63 63 63
63 63 63
63 63 63
63 63 63
63 63 63
63 63 63
63 63 63
63 63 63
63 63 63
63 63 63
63 63 63
63 63 63
63 63 63
63 63 63
63 63 63
63 63 63
63 63 63
63 63 63
63 63 63
63 63 63
63 63 63
63 63 63
63 63 63
63 63 63
63 63 63
63 63 63
63 63 63
63 63 63
63 63 63
63 63 63
63 63 63
63 63 63
63 63 63
63 63 63
63 63 63
63 63 63
63 63 63
63 63 63
63 63 63
63 63 63
63 63 63
63 63 63
63 63 63
63 63 63
63 63 63
63 63 63
63 63 63
63 63 63
63 63 63
63 63 63
63 63 63
63 63 63
63 63 63
63 63 63
63 63 63
63 63 63
63 63 63
63 63 63
63 63 63
63 63 63
63 63 63
63 63 63
63 63 63
63 63 63
63 63 63
63 63 63
63 63 63
63 63 63
63 63 63
63 63 63
63 63 63
63 63 63
63 63 63
63 63 63
63 63 63
63 63 63
63 63 63
63 63 63
63 63 63
63 63 63
63 63 63
63 63 63
63 63 63
63 63 63
63 63 63
63 63 63
63 63 63
63 63 63
63 63 63
63 63 63
63 63 63
63 63 63
63 63 63
63 63 63
63 63 63
63 63 63
63 63 63
63 63 63
63 63 63
63 63 63
63 63 63
63 63 63
63 63 63
63 63 63
63 63 63
63 63 63
63 63 63
63 63 63
63 63 63
63 63 63
63 63 63
63 63 63
63 63 63
63 63 63
63 63 63
63 63 63
63 63 63
63 63 63
63 63 63
63 63 63
63 63 63
63 63 63
63 63 63
63 63 63
63 63 63
63 63 63
63 63 63
63 63 63
63 63 63
63 63 63
63 63 63
63 63 63
63 63 63
63 63 63
63 63 63
63 63 63
63 63 63
63 63 63
63 63 63
63 63 63
63 63 63
63 63 63
63 63 63
63 63 63
63 63 63
63 63 63
63 63 63
63 63 63
63 63 63
63 63 63
63 63 63
63 63 63
63 63 63
63 63 63
63 63 63
63 63 63
63 63 63
63 63 63
63 63 63
63 63 63
63 63 63
63 63 63
63 63 63
63 63 63
63 63 63
63 63 63
63 63 63
63 63 63
63 63 63
63 63 63
63 63 63
63 63 63
63 63 63
63 63 63
63 63 63
63 63 63
63 63 63
63 63 63
63 63 63
63 63 63
63 63 63
63 63 63
63 63 63
63 63 63
63 63 63
63 63 63
63 63 63
63 63 63
63 63 63
63 63 63
63 63 63
63 63 63
63 63 63
63 63 63
63 63 63
63 63 63
63 63 63
63 63 63
63 63 63
63 63 63
63 63 63
63 63 63
63 63 63
63 63 63
63 63 63
63 63 63
63 63 63
63 63 63
63 63 63
63 63 63
63 63 63
63 63 63
63 63 63
63 63 63
63 63 63
63 63 63
63 63 63
63 63 63
63 63 63
63 63 63
63 63 63
63 63 63
63 63 63
63 63 63
63 63 63
63 63 63
63 63 63
63 63 63
63 63 63
63 63 63
63 63 63
63 63 63
63 63 63
63 63 63
63 63 63
63 63 63
63 63 63
63 63 63
63 63 63
63 63 63
63 63 63
63 63 63
63 63 63
63 63 63
63 63 63
63 63 63
63 63 63
63 63 63
63 63 63
63 63 63
63 63 63
63 63 63
63 63 63
63 63 63
63 63 63
63 63 63
63 63 63
63 63 63
63 63 63
63 63 63
63 63 63
63 63 63
63 63 63
63 63 63
63 63 63
63 63 63
63 63 63
63 63 63
63 63 63
63 63 63
63 63 63
63 63 63
63 63 63
63 63 63
63 63 63
63 63 63
63 63 63
63 63 63
63 63 63
63 63 63
63 63 63
63 63 63
63 63 63
63 63 63
63 63 63
63 63 63
63 63 63
63 63 63
63 63 63
63 63 63
63 63 63
37 47 171
37 52 176
37 55 181
37 57 185
38 58 188
40 60 191
41 61 194
43 61 197
45 62 200
46 62 202
48 62 204
51 62 207
53 62 209
55 62 210
58 61 212
61 61 214
64 60 215
67 58 217
70 57 218
74 55 218
79 52 218
84 47 218
63 63 63
63 63 63
63 63 63
63 63 63
63 63 63
63 63 63
63 63 63
63 63 63
63 63 63
63 63 63
63 63 63
63 63 63
63 63 63
63 63 63
63 63 63
63 63 63
63 63 63
63 63 63
63 63 63
63 63 63
63 63 63
63 63 63
63 63 63
63 63 63
63 63 63
63 63 63
63 63 63
63 63 63
63 63 63
63 63 63
63 63 63
63 63 63
63 63 63
63 63 63
63 63 63
63 63 63
63 63 63
63 63 63
63 63 63
63 63 63
63 63 63
63 63 63
63 63 63
63 63 63
63 63 63
63 63 63
63 63 63
63 63 63
63 63 63
63 63 63
63 63 63
63 63 63
63 63 63
63 63 63
63 63 63
63 63 63
63 63 63
63 63 63
63 63 63
63 63 63
63 63 63
63 63 63
63 63 63
63 63 63
63 63 63
63 63 63
63 63 63
63 63 63
63 63 63
63 63 63
63 63 63
63 63 63
63 63 63
63 63 63
63 63 63
63 63 63
63 63 63
63 63 63
63 63 63
63 63 63
63 63 63
63 63 63
63 63 63
63 63 63
63 63 63
63 63 63
63 63 63
63 63 63
63 63 63
63 63 63
63 63 63
63 63 63
63 63 63
63 63 63
63 63 63
63 63 63
63 63 63
63 63 63
63 63 63
63 63 63
63 63 63
63 63 63
63 63 63
63 63 63
63 63 63
63 63 63
63 63 63
63 63 63
63 63 63
63 63 63
63 63 63
63 63 63
63 63 63
63 63 63
63 63 63
63 63 63
63 63 63
63 63 63
63 63 63
63 63 63
63 63 63
63 63 63
63 63 63
63 63 63
63 63 63
63 63 63
63 63 63
63 63 63
63 63 63
63 63 63
63 63 63
63 63 63
63 63 63
63 63 63
63 63 63
63 63 63
63 63 63
63 63 63
63 63 63
63 63 63
63 63 63
63 63 63
63 63 63
63 63 63
63 63 63
63 63 63
63 63 63
63 63 63
63 63 63
63 63 63
63 63 63
63 63 63
63 63 63
63 63 63
63 63 63
63 63 63
63 63 63
63 63 63
63 63 63
63 63 63
63 63 63
63 63 63
63 63 63
63 63 63
63 63 63
63 63 63
63 63 63
63 63 63
63 63 63
63 63 63
63 63 63
63 63 63
63 63 63
63 63 63
63 63 63
63 63 63
63 63 63
63 63 63
63 63 63
63 63 63
63 63 63
63 63 63
63 63 63
63 63 63
63 63 63
63 63 63
63 63 63
63 63 63
63 63 63
63 63 63
63 63 63
63 63 63
63 63 63
63 63 63
63 63 63
63 63 63
63 63 63
63 63 63
63 63 63
63 63 63
63 63 63
63 63 63
63 63 63
63 63 63
63 63 63
63 63 63
63 63 63
63 63 63
63 63 63
63 63 63
63 63 63
63 63 63
63 63 63
63 63 63
63 63 63
63 63 63
63 63 63
63 63 63
63 63 63
63 63 63
63 63 63
63 63 63
63 63 63
63 63 63
63 63 63
63 63 63
63 63 63
63 63 63
63 63 63
63 63 63
63 63 63
63 63 63
63 63 63
63 63 63
63 63 63
63 63 63
63 63 63
63 63 63
63 63 63
63 63 63
63 63 63
63 63 63
63 63 63
63 63 63
63 63 63
63 63 63
63 63 63
63 63 63
63 63 63
63 63 63
63 63 63
63 63 63
63 63 63
63 63 63
63 63 63
63 63 63
63 63 63
63 63 63
63 63 63
63 63 63
63 63 63
63 63 63
63 63 63
63 63 63
63 63 63
63 63 63
63 63 63
63 63 63
63 63 63
63 63 63
63 63 63
63 63 63
63 63 63
63 63 63
63 63 63
63 63 63
63 63 63
63 63 63
63 63 63
63 63 63
63 63 63
63 63 63
63 63 63
63 63 63
63 63 63
63 63 63
63 63 63
63 63 63
63 63 63
63 63 63
63 63 63
63 63 63
63 63 63
63 63 63
63 63 63
63 63 63
63 63 63
63 63 63
63 63 63
63 63 63
63 63 63
63 63 63
63 63 63
63 63 63
63 63 63
63 63 63
63 63 63
63 63 63
63 63 63
63 63 63
63 63 63
63 63 63
63 63 63
63 63 63
63 63 63
63 63 63
63 63 63
63 63 63
63 63 63
63 63 63
63 63 63
63 63 63
63 63 63
63 63 63
63 63 63
63 63 63
63 63 63
63 63 63
63 63 63
63 63 63
63 63 63
63 63 63
63 63 63
63 63 63
63 63 63
63 63 63
63 63 63
63 63 63
63 63 63
63 63 63
63 63 63
63 63 63
63 63 63
63 63 63
63 63 63
63 63 63
63 63 63
63 63 63
63 63 63
63 63 63
63 63 63
63 63 63
63 63 63
63 63 63
63 63 63
63 63 63
63 63 63
63 63 63
63 63 63
63 63 63
63 63 63
63 63 63
63 63 63
63 63 63
63 63 63
63 63 63
63 63 63
63 63 63
63 63 63
63 63 63
63 63 63
63 63 63
63 63 63
63 63 63
63 63 63
63 63 63
63 63 63
63 63 63
63 63 63
63 63 63
63 63 63
63 63 63
47 42 179
47 46 184
47 48 188
49 49 191
50 50 194
52 51 197
54 51 199
56 51 201
58 51 203
61 50 205
64 49 206
67 48 208
71 46 208
76 42 208
63 63 63
63 63 63
63 63 63
63 63 63
63 63 63
63 63 63
63 63 63
63 63 63
63 63 63
63 63 63
63 63 63
63 63 63
63 63 63
63 63 63
63 63 63
63 63 63
63 63 63
63 63 63
63 63 63
63 63 63
63 63 63
63 63 63
63 63 63
63 63 63
63 63 63
63 63 63
63 63 63
63 63 63
63 63 63
63 63 63
63 63 63
63 63 63
63 63 63
63 63 63
63 63 63
63 63 63
63 63 63
63 63 63
63 63 63
63 63 63
63 63 63
63 63 63
63 63 63
63 63 63
63 63 63
63 63 63
63 63 63
63 63 63
63 63 63
63 63 63
63 63 63
63 63 63
63 63 63
63 63 63
63 63 63
63 63 63
63 63 63
63 63 63
63 63 63
63 63 63
63 63 63
63 63 63
63 63 63
63 63 63
63 63 63
63 63 63
63 63 63
63 63 63
63 63 63
63 63 63
63 63 63
63 63 63
63 63 63
63 63 63
63 63 63
63 63 63
63 63 63
63 63 63
63 63 63
63 63 63
63 63 63
63 63 63
63 63 63
63 63 63
63 63 63
63 63 63
63 63 63
63 63 63
63 63 63
63 63 63
63 63 63
63 63 63
63 63 63
63 63 63
63 63 63
63 63 63
63 63 63
63 63 63
63 63 63
63 63 63
63 63 63
63 63 63
63 63 63
63 63 63
63 63 63
63 63 63
63 63 63
63 63 63
63 63 63
63 63 63
63 63 63
63 63 63
63 63 63
63 63 63
63 63 63
63 63 63
63 63 63
63 63 63
63 63 63
63 63 63
63 63 63
63 63 63
63 63 63
63 63 63
63 63 63
63 63 63
63 63 63
63 63 63
63 63 63
63 63 63
63 63 63
63 63 63
63 63 63
63 63 63
63 63 63
63 63 63
63 63 63
63 63 63
63 63 63
63 63 63
63 63 63
63 63 63
63 63 63
63 63 63
63 63 63
63 63 63
63 63 63
63 63 63
63 63 63
63 63 63
63 63 63
63 63 63
63 63 63
63 63 63
63 63 63
63 63 63
63 63 63
63 63 63
63 63 63
63 63 63
63 63 63
63 63 63
63 63 63
63 63 63
63 63 63
63 63 63
63 63 63
63 63 63
63 63 63
63 63 63
63 63 63
63 63 63
63 63 63
63 63 63
63 63 63
63 63 63
63 63 63
63 63 63
63 63 63
63 63 63
63 63 63
63 63 63
63 63 63
63 63 63
63 63 63
63 63 63
63 63 63
63 63 63
63 63 63
63 63 63
63 63 63
63 63 63
63 63 63
63 63 63
63 63 63
63 63 63
63 63 63
63 63 63
63 63 63
63 63 63
63 63 63
63 63 63
63 63 63
63 63 63
63 63 63
63 63 63
63 63 63
63 63 63
63 63 63
63 63 63
63 63 63
63 63 63
63 63 63
63 63 63
63 63 63
63 63 63
63 63 63
63 63 63
63 63 63
63 63 63
63 63 63
63 63 63
63 63 63
63 63 63
63 63 63
63 63 63
63 63 63
63 63 63
63 63 63
63 63 63
63 63 63
63 63 63
63 63 63
63 63 63
63 63 63
63 63 63
63 63 63
63 63 63
63 63 63
63 63 63
63 63 63
63 63 63
63 63 63
63 63 63
63 63 63
63 63 63
63 63 63
63 63 63
63 63 63
63 63 63
63 63 63
63 63 63
63 63 63
63 63 63
63 63 63
63 63 63
63 63 63
63 63 63
63 63 63
63 63 63
63 63 63
63 63 63
63 63 63
63 63 63
63 63 63
63 63 63
63 63 63
63 63 63
63 63 63
63 63 63
63 63 63
63 63 63
63 63 63
63 63 63
63 63 63
63 63 63
63 63 63
63 63 63
63 63 63
63 63 63
63 63 63
63 63 63
63 63 63
63 63 63
63 63 63
63 63 63
63 63 63
63 63 63
63 63 63
63 63 63
63 63 63
63 63 63
63 63 63
63 63 63
63 63 63
63 63 63
63 63 63
63 63 63
63 63 63
63 63 63
63 63 63
63 63 63
63 63 63
63 63 63
63 63 63
63 63 63
63 63 63
63 63 63
63 63 63
63 63 63
63 63 63
63 63 63
63 63 63
63 63 63
63 63 63
63 63 63
63 63 63
63 63 63
63 63 63
63 63 63
63 63 63
63 63 63
63 63 63
63 63 63
63 63 63
63 63 63
63 63 63
63 63 63
63 63 63
63 63 63
63 63 63
63 63 63
63 63 63
63 63 63
63 63 63
63 63 63
63 63 63
63 63 63
63 63 63
63 63 63
63 63 63
63 63 63
63 63 63
63 63 63
63 63 63
63 63 63
63 63 63
63 63 63
63 63 63
63 63 63
63 63 63
63 63 63
63 63 63
63 63 63
63 63 63
63 63 63
63 63 63
63 63 63
63 63 63
63 63 63
63 63 63
63 63 63
63 63 63
63 63 63
63 63 63
63 63 63
63 63 63
63 63 63
63 63 63
63 63 63
63 63 63
63 63 63
63 63 63
63 63 63
63 63 63
63 63 63
63 63 63
63 63 63
63 63 63
63 63 63
63 63 63
63 63 63
63 63 63
63 63 63
63 63 63
63 63 63
63 63 63
63 63 63
63 63 63
63 63 63
63 63 63
63 63 63
63 63 63
63 63 63
63 63 63
63 63 63
63 63 63
63 63 63
63 63 63
63 63 63
63 63 63
63 63 63
63 63 63
63 63 63
63 63 63
63 63 63
63 63 63
63 63 63
63 63 63
63 63 63
63 63 63
63 63 63
63 63 63
63 63 63
63 63 63
63 63 63
63 63 63
63 63 63
63 63 63
63 63 63
63 63 63
63 63 63
63 63 63
63 63 63
63 63 63
63 63 63
63 63 63
63 63 63
63 63 63
63 63 63
63 63 63
63 63 63
63 63 63
63 63 63
63 63 63
63 63 63
63 63 63
63 63 63
63 63 63
63 63 63
63 63 63
63 63 63
63 63 63
63 63 63
63 63 63
63 63 63
63 63 63
63 63 63
63 63 63
63 63 63
63 63 63
63 63 63
63 63 63
63 63 63
63 63 63
63 63 63
63 63 63
63 63 63
63 63 63
63 63 63
63 63 63
63 63 63
63 63 63
63 63 63
63 63 63
63 63 63
63 63 63
63 63 63
63 63 63
63 63 63
63 63 63
63 63 63
63 63 63
63 63 63
63 63 63
63 63 63
63 63 63
63 63 63
63 63 63
63 63 63
63 63 63
63 63 63
63 63 63
63 63 63
63 63 63
63 63 63
63 63 63
63 63 63
63 63 63
63 63 63
63 63 63
63 63 63
63 63 63
63 63 63
63 63 63
63 63 63
63 63 63
63 63 63
63 63 63
63 63 63
63 63 63
63 63 63
63 63 63
63 63 63
63 63 63
63 63 63
63 63 63
63 63 63
63 63 63
63 63 63
63 63 63
63 63 63
63 63 63
63 63 63
63 63 63
63 63 63
63 63 63
63 63 63
63 63 63
63 63 63
63 63 63
63 63 63
63 63 63
63 63 63
63 63 63
63 63 63
63 63 63
63 63 63
63 63 63
63 63 63
63 63 63
63 63 63
63 63 63
63 63 63
63 63 63
63 63 63
63 63 63
63 63 63
63 63 63
63 63 63
63 63 63
63 63 63
63 63 63
63 63 63
63 63 63
63 63 63
63 63 63
63 63 63
63 63 63
63 63 63
63 63 63
63 63 63
63 63 63
63 63 63
63 63 63
63 63 63
63 63 63
63 63 63
63 63 63
63 63 63
63 63 63
63 63 63
63 63 63
63 63 63
63 63 63
63 63 63
63 63 63
63 63 63
63 63 63
63 63 63
63 63 63
63 63 63
63 63 63
63 63 63
63 63 63
63 63 63
63 63 63
63 63 63
63 63 63
63 63 63
63 63 63
63 63 63
63 63 63
63 63 63
63 63 63
63 63 63
63 63 63
63 63 63
63 63 63
63 63 63
63 63 63
63 63 63
63 63 63
63 63 63
63 63 63
63 63 63
63 63 63
63 63 63
63 63 63
63 63 63
63 63 63
63 63 63
63 63 63
63 63 63
63 63 63
63 63 63
63 63 63
63 63 63
63 63 63
63 63 63
63 63 63
63 63 63
63 63 63
63 63 63
63 63 63
63 63 63
63 63 63
63 63 63
63 63 63
63 63 63
63 63 63
63 63 63
63 63 63
63 63 63
63 63 63
63 63 63
63 63 63
63 63 63
63 63 63
63 63 63
63 63 63
63 63 63
63 63 63
63 63 63
63 63 63
63 63 63
63 63 63
63 63 63
63 63 63
63 63 63
63 63 63
63 63 63
63 63 63
63 63 63
63 63 63
63 63 63
63 63 63
63 63 63
63 63 63
63 63 63
63 63 63
63 63 63
63 63 63
63 63 63
63 63 63
63 63 63
63 63 63
63 63 63
63 63 63
63 63 63
63 63 63
63 63 63
63 63 63
63 63 63
63 63 63
63 63 63
63 63 63
63 63 63
63 63 63
63 63 63
63 63 63
63 63 63
63 63 63
63 63 63
63 63 63
63 63 63
63 63 63
63 63 63
63 63 63
63 63 63
63 63 63
63 63 63
63 63 63
63 63 63
63 63 63
63 63 63
63 63 63
63 63 63
63 63 63
63 63 63
63 63 63
63 63 63
63 63 63
63 63 63
63 63 63
63 63 63
63 63 63
63 63 63
63 63 63
63 63 63
63 63 63
63 63 63
63 63 63
63 63 63
63 63 63
63 63 63
63 63 63
63 63 63
63 63 63
63 63 63
63 63 63
63 63 63
63 63 63
63 63 63
63 63 63
63 63 63
63 63 63
63 63 63
63 63 63
63 63 63
63 63 63
63 63 63
63 63 63
63 63 63
63 63 63
63 63 63
63 63 63
63 63 63
63 63 63
63 63 63
63 63 63
63 63 63
63 63 63
63 63 63
63 63 63
63 63 63
63 63 63
63 63 63
63 63 63
63 63 63
63 63 63
63 63 63
63 63 63
63 63 63
63 63 63
63 63 63
63 63 63
63 63 63
63 63 63
63 63 63
63 63 63
63 63 63
63 63 63
63 63 63
63 63 63
63 63 63
63 63 63
63 63 63
63 63 63
63 63 63
63 63 63
63 63 63
63 63 63
63 63 63
63 63 63
63 63 63
63 63 63
63 63 63
63 63 63
63 63 63
63 63 63
63 63 63
63 63 63
63 63 63
63 63 63
63 63 63
63 63 63
63 63 63
63 63 63
63 63 63
63 63 63
63 63 63
63 63 63
63 63 63
63 63 63
63 63 63
63 63 63
63 63 63
63 63 63
63 63 63
63 63 63
63 63 63
63 63 63
63 63 63
63 63 63
63 63 63
63 63 63
63 63 63
63 63 63
63 63 63
63 63 63
63 63 63
63 63 63
63 63 63
63 63 63
63 63 63
63 63 63
63 63 63
63 63 63
63 63 63
63 63 63
63 63 63
63 63 63
63 63 63
63 63 63
63 63 63
63 63 63
63 63 63
63 63 63
63 63 63
63 63 63
63 63 63
63 63 63
63 63 63
63 63 63
63 63 63
63 63 63
63 63 63
63 63 63
63 63 63
63 63 63
63 63 63
63 63 63
63 63 63
63 63 63
63 63 63
63 63 63
63 63 63
63 63 63
63 63 63
63 63 63
63 63 63
63 63 63
63 63 63
63 63 63
63 63 63
63 63 63
63 63 63
63 63 63
63 63 63
63 63 63
63 63 63
63 63 63
63 63 63
63 63 63
63 63 63
63 63 63
63 63 63
63 63 63
63 63 63
63 63 63
63 63 63
63 63 63
63 63 63
63 63 63
63 63 63
63 63 63
63 63 63
63 63 63
63 63 63
63 63 63
63 63 63
63 63 63
63 63 63
63 63 63
63 63 63
63 63 63
63 63 63
63 63 63
63 63 63
63 63 63
63 63 63
63 63 63
63 63 63
63 63 63
63 63 63
63 63 63
63 63 63
63 63 63
63 63 63
63 63 63
63 63 63
63 63 63
63 63 63
63 63 63
63 63 63
63 63 63
63 63 63
63 63 63
63 63 63
63 63 63
63 63 63
63 63 63
63 63 63
63 63 63
63 63 63
63 63 63
63 63 63
63 63 63
63 63 63
63 63 63
63 63 63
63 63 63
63 63 63
63 63 63
63 63 63
63 63 63
63 63 63
63 63 63
63 63 63
63 63 63
63 63 63
63 63 63
63 63 63
63 63 63
63 63 63
63 63 63
63 63 63
63 63 63
63 63 63
63 63 63
63 63 63
63 63 63
63 63 63
63 63 63
63 63 63
63 63 63
63 63 63
63 63 63
63 63 63
63 63 63
63 63 63
63 63 63
63 63 63
63 63 63
63 63 63
63 63 63
63 63 63
63 63 63
63 63 63
63 63 63
63 63 63
63 63 63
63 63 63
63 63 63
63 63 63
63 63 63
63 63 63
63 63 63
63 63 63
63 63 63
63 63 63
63 63 63
63 63 63
63 63 63
63 63 63
63 63 63
63 63 63
63 63 63
63 63 63
63 63 63
63 63 63
63 63 63
63 63 63
63 63 63
63 63 63
63 63 63
63 63 63
63 63 63
63 63 63
63 63 63
63 63 63
63 63 63
63 63 63
63 63 63
63 63 63
63 63 63
63 63 63
63 63 63
63 63 63
63 63 63
63 63 63
63 63 63
63 63 63
63 63 63
63 63 63
63 63 63
63 63 63
63 63 63
63 63 63
63 63 63
63 63 63
63 63 63
63 63 63
63 63 63
63 63 63
63 63 63
63 63 63
63 63 63
63 63 63
63 63 63
63 63 63
63 63 63
63 63 63
63 63 63
63 63 63
63 63 63
63 63 63
63 63 63
63 63 63
63 63 63
63 63 63
63 63 63
63 63 63
63 63 63
63 63 63
63 63 63
63 63 63
63 63 63
63 63 63
63 63 63
63 63 63
63 63 63
63 63 63
63 63 63
63 63 63
63 63 63
63 63 63
63 63 63
63 63 63
63 63 63
63 63 63
63 63 63
63 63 63
63 63 63
63 63 63
63 63 63
63 63 63
63 63 63
63 63 63
63 63 63
63 63 63
63 63 63
63 63 63
63 63 63
63 63 63
63 63 63
63 63 63
63 63 63
63 63 63
63 63 63
63 63 63
63 63 63
63 63 63
63 63 63
63 63 63
63 63 63
63 63 63
63 63 63
63 63 63
63 63 63
63 63 63
63 63 63
63 63 63
63 63 63
63 63 63
63 63 63
63 63 63
63 63 63
63 63 63
63 63 63
63 63 63
63 63 63
63 63 63
63 63 63
63 63 63
63 63 63
63 63 63
63 63 63
63 63 63
63 63 63
63 63 63
63 63 63
63 63 63
63 63 63
63 63 63
63 63 63
63 63 63
63 63 63
63 63 63
63 63 63
63 63 63
63 63 63
63 63 63
63 63 63
63 63 63
63 63 63
63 63 63
63 63 63
63 63 63
63 63 63
63 63 63
63 63 63
63 63 63
63 63 63
63 63 63
63 63 63
63 63 63
63 63 63
63 63 63
63 63 63
63 63 63
63 63 63
63 63 63
63 63 63
63 63 63
63 63 63
63 63 63
63 63 63
63 63 63
63 63 63
63 63 63
63 63 63
63 63 63
63 63 63
63 63 63
63 63 63
63 63 63
63 63 63
63 63 63
63 63 63
63 63 63
63 63 63
63 63 63
63 63 63
63 63 63
63 63 63
63 63 63
63 63 63
63 63 63
63 63 63
63 63 63
63 63 63
63 63 63
63 63 63
63 63 63
63 63 63
63 63 63
63 63 63
63 63 63
63 63 63
63 63 63
63 63 63
63 63 63
63 63 63
63 63 63
63 63 63
63 63 63
63 63 63
63 63 63
63 63 63
63 63 63
63 63 63
63 63 63
63 63 63
63 63 63
63 63 63
63 63 63
63 63 63
63 63 63
63 63 63
63 63 63
63 63 63
63 63 63
63 63 63
63 63 63
63 63 63
63 63 63
63 63 63
63 63 63
63 63 63
63 63 63
63 63 63
63 63 63
63 63 63
63 63 63
63 63 63
63 63 63
63 63 63
63 63 63
63 63 63
63 63 63
63 63 63
63 63 63
63 63 63
63 63 63
63 63 63
63 63 63
63 63 63
63 63 63
63 63 63
63 63 63
63 63 63
63 63 63
63 63 63
63 63 63
63 63 63
63 63 63
63 63 63
63 63 63
63 63 63
63 63 63
63 63 63
63 63 63
63 63 63
63 63 63
63 63 63
63 63 63
63 63 63
63 63 63
63 63 63
63 63 63
63 63 63
63 63 63
63 63 63
63 63 63
63 63 63
63 63 63
63 63 63
63 63 63
63 63 63
63 63 63
63 63 63
63 63 63
63 63 63
63 63 63
63 63 63
63 63 63
63 63 63
63 63 63
63 63 63
63 63 63
63 63 63
63 63 63
63 63 63
63 63 63
63 63 63
63 63 63
63 63 63
63 63 63
63 63 63
63 63 63
63 63 63
63 63 63
63 63 63
63 63 63
63 63 63
63 63 63
63 63 63
63 63 63
63 63 63
63 63 63
63 63 63
63 63 63
63 63 63
63 63 63
63 63 63
63 63 63
63 63 63
63 63 63
63 63 63
63 63 63
63 63 63
63 63 63
63 63 63
63 63 63
63 63 63
63 63 63
63 63 63
63 63 63
63 63 63
63 63 63
63 63 63
63 63 63
63 63 63
63 63 63
63 63 63
63 63 63
63 63 63
63 63 63
63 63 63
63 63 63
63 63 63
63 63 63
63 63 63
63 63 63
63 63 63
63 63 63
63 63 63
63 63 63
63 63 63
63 63 63
63 63 63
63 63 63
63 63 63
63 63 63
63 63 63
63 63 63
63 63 63
63 63 63
63 63 63
63 63 63
63 63 63
63 63 63
63 63 63
63 63 63
63 63 63
63 63 63
63 63 63
63 63 63
63 63 63
63 63 63
63 63 63
63 63 63
63 63 63
63 63 63
63 63 63
63 63 63
63 63 63
63 63 63
63 63 63
63 63 63
63 63 63
63 63 63
63 63 63
63 63 63
63 63 63
63 63 63
63 63 63
63 63 63
63 63 63
63 63 63
63 63 63
63 63 63
63 63 63
63 63 63
63 63 63
63 63 63
63 63 63
63 63 63
63 63 63
63 63 63
63 63 63
63 63 63
63 63 63
63 63 63
63 63 63
63 63 63
63 63 63
63 63 63
63 63 63
63 63 63
63 63 63
63 63 63
63 63 63
63 63 63
63 63 63
63 63 63
63 63 63
63 63 63
63 63 63
63 63 63
63 63 63
63 63 63
63 63 63
63 63 63
63 63 63
63 63 63
63 63 63
63 63 63
63 63 63
63 63 63
63 63 63
63 63 63
63 63 63
63 63 63
63 63 63
63 63 63
63 63 63
63 63 63
63 63 63
63 63 63
63 63 63
63 63 63
63 63 63
63 63 63
63 63 63
63 63 63
63 63 63
63 63 63
63 63 63
63 63 63
63 63 63
63 63 63
63 63 63
63 63 63
63 63 63
63 63 63
63 63 63
63 63 63
63 63 63
63 63 63
63 63 63
63 63 63
63 63 63
63 63 63
63 63 63
63 63 63
63 63 63
63 63 63
63 63 63
63 63 63
63 63 63
63 63 63
63 63 63
63 63 63
63 63 63
63 63 63
63 63 63
63 63 63
63 63 63
63 63 63
63 63 63
63 63 63
63 63 63
63 63 63
63 63 63
63 63 63
63 63 63
63 63 63
63 63 63
63 63 63
63 63 63
63 63 63
63 63 63
63 63 63
63 63 63
63 63 63
63 63 63
63 63 63
63 63 63
63 63 63
63 63 63
63 63 63
63 63 63
63 63 63
63 63 63
63 63 63
63 63 63
63 63 63
63 63 63
63 63 63
63 63 63
63 63 63
63 63 63
63 63 63
63 63 63
63 63 63
63 63 63
63 63 63
63 63 63
63 63 63
63 63 63
63 63 63
63 63 63
63 63 63
63 63 63
63 63 63
63 63 63
63 63 63
63 63 63
63 63 63
63 63 63
63 63 63
63 63 63
63 63 63
63 63 63
63 63 63
63 63 63
63 63 63
63 63 63
63 63 63
63 63 63
63 63 63
63 63 63
63 63 63
63 63 63
63 63 63
63 63 63
63 63 63
63 63 63
63 63 63
63 63 63
63 63 63
63 63 63
63 63 63
63 63 63
63 63 63
63 63 63
63 63 63
63 63 63
63 63 63
63 63 63
63 63 63
63 63 63
63 63 63
63 63 63
63 63 63
63 63 63
63 63 63
63 63 63
63 63 63
63 63 63
63 63 63
63 63 63
63 63 63
63 63 63
63 63 63
63 63 63
63 63 63
63 63 63
63 63 63
63 63 63
63 63 63
63 63 63
63 63 63
63 63 63
63 63 63
63 63 63
63 63 63
63 63 63
63 63 63
63 63 63
63 63 63
63 63 63
63 63 63
63 63 63
63 63 63
63 63 63
63 63 63
63 63 63
63 63 63
63 63 63
63 63 63
63 63 63
63 63 63
63 63 63
63 63 63
63 63 63
63 63 63
63 63 63
63 63 63
63 63 63
63 63 63
63 63 63
63 63 63
63 63 63
63 63 63
63 63 63
63 63 63
63 63 63
63 63 63
63 63 63
63 63 63
63 63 63
63 63 63
63 63 63
63 63 63
63 63 63
63 63 63
63 63 63
63 63 63
63 63 63
63 63 63
63 63 63
63 63 63
63 63 63
63 63 63
63 63 63
63 63 63
63 63 63
63 63 63
63 63 63
63 63 63
63 63 63
63 63 63
63 63 63
63 63 63
63 63 63
63 63 63
63 63 63
63 63 63
63 63 63
63 63 63
63 63 63
63 63 63
63 63 63
63 63 63
63 63 63
63 63 63
63 63 63
63 63 63
63 63 63
63 63 63
63 63 63
63 63 63
63 63 63
63 63 63
63 63 63
63 63 63
63 63 63
63 63 63
63 63 63
63 63 63
63 63 63
63 63 63
63 63 63
63 63 63
63 63 63
63 63 63
63 63 63
63 63 63
63 63 63
63 63 63
63 63 63
63 63 63
63 63 63
63 63 63
63 63 63
63 63 63
63 63 63
63 63 63
63 63 63
63 63 63
63 63 63
63 63 63
63 63 63
63 63 63
63 63 63
63 63 63
63 63 63
63 63 63
63 63 63
63 63 63
63 63 63
63 63 63
63 63 63
63 63 63
63 63 63
63 63 63
63 63 63
63 63 63
63 63 63
63 63 63
63 63 63
63 63 63
63 63 63
63 63 63
63 63 63
63 63 63
63 63 63
63 63 63
63 63 63
63 63 63
63 63 63
63 63 63
63 63 63
63 63 63
63 63 63
63 63 63
63 63 63
63 63 63
63 63 63
63 63 63
63 63 63
63 63 63
63 63 63
63 63 63
63 63 63
63 63 63
63 63 63
63 63 63
63 63 63
63 63 63
63 63 63
63 63 63
63 63 63
63 63 63
63 63 63
63 63 63
63 63 63
63 63 63
63 63 63
63 63 63
63 63 63
63 63 63
63 63 63
63 63 63
63 63 63
63 63 63
63 63 63
63 63 63
63 63 63
63 63 63
63 63 63
63 63 63
63 63 63
63 63 63
63 63 63
63 63 63
63 63 63
63 63 63
63 63 63
63 63 63
63 63 63
63 63 63
63 63 63
63 63 63
63 63 63
63 63 63
63 63 63
63 63 63
63 63 63
63 63 63
63 63 63
63 63 63
63 63 63
63 63 63
63 63 63
63 63 63
63 63 63
63 63 63
63 63 63
63 63 63
63 63 63
63 63 63
63 63 63
63 63 63
63 63 63
63 63 63
63 63 63
63 63 63
63 63 63
63 63 63
63 63 63
63 63 63
63 63 63
63 63 63
63 63 63
63 63 63
63 63 63
63 63 63
63 63 63
63 63 63
63 63 63
63 63 63
63 63 63
63 63 63
63 63 63
63 63 63
63 63 63
63 63 63
63 63 63
63 63 63
63 63 63
63 63 63
63 63 63
63 63 63
63 63 63
63 63 63
63 63 63
63 63 63
63 63 63
63 63 63
63 63 63
63 63 63
63 63 63
63 63 63
63 63 63
63 63 63
63 63 63
63 63 63
63 63 63
63 63 63
63 63 63
63 63 63
63 63 63
63 63 63
63 63 63
63 63 63
63 63 63
63 63 63
63 63 63
63 63 63
63 63 63
63 63 63
63 63 63
63 63 63
63 63 63
63 63 63
63 63 63
63 63 63
63 63 63
63 63 63
63 63 63
63 63 63
63 63 63
63 63 63
63 63 63
63 63 63
63 63 63
63 63 63
63 63 63
63 63 63
63 63 63
63 63 63
63 63 63
63 63 63
63 63 63
63 63 63
63 63 63
63 63 63
63 63 63
63 63 63
63 63 63
63 63 63
63 63 63
63 63 63
63 63 63
63 63 63
63 63 63
63 63 63
63 63 63
63 63 63
63 63 63
63 63 63
63 63 63
63 63 63
63 63 63
63 63 63
63 63 63
63 63 63
63 63 63
63 63 63
63 63 63
63 63 63
63 63 63
63 63 63
63 63 63
63 63 63
63 63 63
63 63 63
63 63 63
63 63 63
63 63 63
63 63 63
63 63 63
63 63 63
63 63 63
63 63 63
63 63 63
63 63 63
63 63 63
63 63 63
63 63 63
63 63 63
63 63 63
63 63 63
63 63 63
63 63 63
63 63 63
63 63 63
63 63 63
63 63 63
63 63 63
63 63 63
63 63 63
63 63 63
63 63 63
63 63 63
63 63 63
63 63 63
63 63 63
63 63 63
63 63 63
63 63 63
63 63 63
63 63 63
63 63 63
63 63 63
63 63 63
63 63 63
63 63 63
63 63 63
63 63 63
63 63 63
63 63 63
63 63 63
63 63 63
63 63 63
63 63 63
63 63 63
63 63 63
63 63 63
63 63 63
63 63 63
63 63 63
63 63 63
63 63 63
63 63 63
63 63 63
63 63 63
63 63 63
63 63 63
63 63 63
63 63 63
63 63 63
63 63 63
63 63 63
63 63 63
63 63 63
63 63 63
63 63 63
63 63 63
63 63 63
63 63 63
63 63 63
63 63 63
63 63 63
63 63 63
63 63 63
63 63 63
63 63 63
63 63 63
63 63 63
63 63 63
63 63 63
63 63 63
63 63 63
63 63 63
63 63 63
63 63 63
63 63 63
63 63 63
63 63 63
63 63 63
63 63 63
63 63 63
63 63 63
63 63 63
63 63 63
63 63 63
63 63 63
63 63 63
63 63 63
63 63 63
63 63 63
63 63 63
63 63 63
63 63 63
63 63 63
63 63 63
63 63 63
63 63 63
63 63 63
63 63 63
63 63 63
63 63 63
63 63 63
63 63 63
63 63 63
63 63 63
63 63 63
63 63 63
63 63 63
63 63 63
63 63 63
63 63 63
63 63 63
63 63 63
63 63 63
63 63 63
63 63 63
63 63 63
63 63 63
63 63 63
63 63 63
63 63 63
63 63 63
63 63 63
63 63 63
63 63 63
63 63 63
63 63 63
63 63 63
63 63 63
63 63 63
63 63 63
63 63 63
63 63 63
63 63 63
63 63 63
63 63 63
63 63 63
63 63 63
63 63 63
63 63 63
63 63 63
63 63 63
63 63 63
63 63 63
63 63 63
63 63 63
63 63 63
63 63 63
63 63 63
63 63 63
63 63 63
63 63 63
63 63 63
63 63 63
63 63 63
63 63 63
63 63 63
63 63 63
63 63 63
63 63 63
63 63 63
63 63 63
63 63 63
63 63 63
63 63 63
63 63 63
63 63 63
63 63 63
63 63 63
63 63 63
63 63 63
63 63 63
63 63 63
63 63 63
63 63 63
63 63 63
63 63 63
63 63 63
63 63 63
63 63 63
63 63 63
63 63 63
63 63 63
63 63 63
63 63 63
63 63 63
63 63 63
63 63 63
63 63 63
63 63 63
63 63 63
63 63 63
63 63 63
63 63 63
63 63 63
63 63 63
63 63 63
63 63 63
63 63 63
63 63 63
63 63 63
63 63 63
63 63 63
63 63 63
63 63 63
63 63 63
63 63 63
63 63 63
63 63 63
63 63 63
63 63 63
63 63 63
63 63 63
63 63 63
63 63 63
63 63 63
63 63 63
63 63 63
63 63 63
63 63 63
63 63 63
63 63 63
63 63 63
63 63 63
63 63 63
63 63 63
63 63 63
63 63 63
63 63 63
63 63 63
63 63 63
63 63 63
63 63 63
63 63 63
63 63 63
63 63 63
63 63 63
63 63 63
63 63 63
63 63 63
63 63 63
63 63 63
63 63 63
63 63 63
63 63 63
63 63 63
63 63 63
63 63 63
63 63 63
63 63 63
63 63 63
63 63 63
63 63 63
63 63 63
63 63 63
63 63 63
63 63 63
63 63 63
63 63 63
63 63 63
63 63 63
63 63 63
63 63 63
63 63 63
63 63 63
63 63 63
63 63 63
63 63 63
63 63 63
63 63 63
63 63 63
63 63 63
63 63 63
63 63 63
63 63 63
63 63 63
63 63 63
63 63 63
63 63 63
63 63 63
63 63 63
63 63 63
63 63 63
63 63 63
63 63 63
63 63 63
63 63 63
63 63 63
63 63 63
63 63 63
63 63 63
63 63 63
63 63 63
63 63 63
63 63 63
63 63 63
63 63 63
63 63 63
63 63 63
63 63 63
63 63 63
63 63 63
63 63 63
63 63 63
63 63 63
63 63 63
63 63 63
63 63 63
63 63 63
63 63 63
63 63 63
63 63 63
63 63 63
63 63 63
63 63 63
63 63 63
63 63 63
63 63 63
63 63 63
63 63 63
63 63 63
63 63 63
63 63 63
63 63 63
63 63 63
63 63 63
63 63 63
63 63 63
63 63 63
63 63 63
63 63 63
63 63 63
63 63 63
63 63 63
63 63 63
63 63 63
63 63 63
63 63 63
63 63 63
63 63 63
63 63 63
63 63 63
63 63 63
63 63 63
63 63 63
63 63 63
63 63 63
63 63 63
63 63 63
63 63 63
63 63 63
63 63 63
63 63 63
63 63 63
63 63 63
63 63 63
63 63 63
63 63 63
63 63 63
63 63 63
63 63 63
63 63 63
63 63 63
63 63 63
63 63 63
63 63 63
63 63 63
63 63 63
63 63 63
63 63 63
63 63 63
63 63 63
63 63 63
63 63 63
63 63 63
63 63 63
63 63 63
63 63 63
63 63 63
63 63 63
63 63 63
63 63 63
63 63 63
63 63 63
63 63 63
63 63 63
63 63 63
63 63 63
63 63 63
63 63 63
63 63 63
63 63 63
63 63 63
63 63 63
63 63 63
63 63 63
63 63 63
63 63 63
63 63 63
63 63 63
63 63 63
63 63 63
63 63 63
63 63 63
63 63 63
63 63 63
63 63 63
63 63 63
63 63 63
63 63 63
63 63 63
63 63 63
63 63 63
63 63 63
63 63 63
63 63 63
63 63 63
63 63 63
63 63 63
63 63 63
63 63 63
63 63 63
63 63 63
63 63 63
63 63 63
63 63 63
63 63 63
63 63 63
63 63 63
63 63 63
63 63 63
63 63 63
63 63 63
63 63 63
63 63 63
63 63 63
63 63 63
63 63 63
63 63 63
63 63 63
63 63 63
63 63 63
63 63 63
63 63 63
63 63 63
63 63 63
63 63 63
63 63 63
63 63 63
63 63 63
63 63 63
63 63 63
63 63 63
63 63 63
63 63 63
63 63 63
63 63 63
63 63 63
63 63 63
63 63 63
63 63 63
63 63 63
63 63 63
63 63 63
63 63 63
63 63 63
63 63 63
63 63 63
63 63 63
63 63 63
63 63 63
63 63 63
63 63 63
63 63 63
63 63 63
63 63 63
63 63 63
63 63 63
63 63 63
63 63 63
63 63 63
63 63 63
63 63 63
63 63 63
63 63 63
63 63 63
63 63 63
63 63 63
63 63 63
63 63 63
63 63 63
63 63 63
63 63 63
63 63 63
63 63 63
63 63 63
63 63 63
63 63 63
63 63 63
63 63 63
63 63 63
63 63 63
63 63 63
63 63 63
63 63 63
63 63 63
63 63 63
63 63 63
63 63 63
63 63 63
63 63 63
63 63 63
63 63 63
63 63 63
63 63 63
63 63 63
63 63 63
63 63 63
63 63 63
63 63 63
63 63 63
63 63 63
63 63 63
63 63 63
63 63 63
63 63 63
63 63 63
63 63 63
63 63 63
63 63 63
63 63 63
63 63 63
63 63 63
63 63 63
63 63 63
63 63 63
63 63 63
63 63 63
63 63 63
63 63 63
63 63 63
63 63 63
63 63 63
63 63 63
63 63 63
63 63 63
63 63 63
63 63 63
63 63 63
63 63 63
63 63 63
63 63 63
63 63 63
63 63 63
63 63 63
63 63 63
63 63 63
63 63 63
63 63 63
63 63 63
63 63 63
63 63 63
63 63 63
63 63 63
63 63 63
63 63 63
63 63 63
63 63 63
63 63 63
63 63 63
63 63 63
63 63 63
63 63 63
63 63 63
63 63 63
63 63 63
63 63 63
63 63 63
63 63 63
63 63 63
63 63 63
63 63 63
63 63 63
63 63 63
63 63 63
63 63 63
63 63 63
63 63 63
63 63 63
63 63 63
63 63 63
63 63 63
63 63 63
63 63 63
63 63 63
63 63 63
63 63 63
63 63 63
63 63 63
63 63 63
63 63 63
63 63 63
63 63 63
63 63 63
63 63 63
63 63 63
63 63 63
63 63 63
63 63 63
63 63 63
63 63 63
63 63 63
63 63 63
63 63 63
63 63 63
63 63 63
63 63 63
63 63 63
63 63 63
63 63 63
63 63 63
63 63 63
63 63 63
63 63 63
63 63 63
63 63 63
63 63 63
63 63 63
63 63 63
63 63 63
63 63 63
63 63 63
63 63 63
63 63 63
63 63 63
63 63 63
63 63 63
63 63 63
63 63 63
63 63 63
63 63 63
63 63 63
63 63 63
63 63 63
63 63 63
63 63 63
63 63 63
63 63 63
63 63 63
63 63 63
63 63 63
63 63 63
63 63 63
63 63 63
63 63 63
63 63 63
63 63 63
63 63 63
63 63 63
63 63 63
63 63 63
63 63 63
63 63 63
63 63 63
63 63 63
63 63 63
63 63 63
63 63 63
63 63 63
63 63 63
63 63 63
63 63 63
63 63 63
63 63 63
63 63 63
63 63 63
63 63 63
63 63 63
63 63 63
63 63 63
63 63 63
63 63 63
63 63 63
63 63 63
63 63 63
63 63 63
63 63 63
63 63 63
63 63 63
63 63 63
63 63 63
63 63 63
63 63 63
63 63 63
63 63 63
63 63 63
63 63 63
63 63 63
63 63 63
63 63 63
63 63 63
63 63 63
63 63 63
63 63 63
63 63 63
63 63 63
63 63 63
63 63 63
63 63 63
63 63 63
63 63 63
63 63 63
63 63 63
63 63 63
63 63 63
63 63 63
63 63 63
63 63 63
63 63 63
63 63 63
63 63 63
63 63 63
63 63 63
63 63 63
63 63 63
63 63 63
63 63 63
63 63 63
63 63 63
63 63 63
63 63 63
63 63 63
63 63 63
63 63 63
63 63 63
63 63 63
63 63 63
63 63 63
63 63 63
63 63 63
63 63 63
63 63 63
63 63 63
63 63 63
63 63 63
63 63 63
63 63 63
63 63 63
63 63 63
63 63 63
63 63 63
63 63 63
63 63 63
63 63 63
63 63 63
63 63 63
63 63 63
63 63 63
63 63 63
63 63 63
63 63 63
63 63 63
63 63 63
63 63 63
63 63 63
63 63 63
63 63 63
63 63 63
63 63 63
63 63 63
63 63 63
63 63 63
63 63 63
63 63 63
63 63 63
63 63 63
63 63 63
63 63 63
63 63 63
63 63 63
63 63 63
63 63 63
63 63 63
63 63 63
63 63 63
63 63 63
63 63 63
63 63 63
63 63 63
63 63 63
63 63 63
63 63 63
63 63 63
63 63 63
63 63 63
63 63 63
63 63 63
63 63 63
63 63 63
63 63 63
63 63 63
63 63 63
63 63 63
63 63 63
63 63 63
63 63 63
63 63 63
63 63 63
63 63 63
63 63 63
63 63 63
63 63 63
63 63 63
63 63 63
63 63 63
63 63 63
63 63 63
63 63 63
63 63 63
63 63 63
63 63 63
63 63 63
63 63 63
63 63 63
63 63 63
63 63 63
63 63 63
63 63 63
63 63 63
63 63 63
63 63 63
63 63 63
63 63 63
63 63 63
63 63 63
63 63 63
63 63 63
63 63 63
63 63 63
63 63 63
63 63 63
63 63 63
63 63 63
63 63 63
63 63 63
63 63 63
63 63 63
63 63 63
63 63 63
63 63 63
63 63 63
63 63 63
63 63 63
63 63 63
63 63 63
63 63 63
63 63 63
63 63 63
63 63 63
63 63 63
63 63 63
63 63 63
63 63 63
63 63 63
63 63 63
63 63 63
63 63 63
63 63 63
63 63 63
63 63 63
63 63 63
63 63 63
63 63 63
63 63 63
63 63 63
63 63 63
63 63 63
63 63 63
63 63 63
63 63 63
63 63 63
63 63 63
63 63 63
63 63 63
63 63 63
63 63 63
63 63 63
63 63 63
63 63 63
63 63 63
63 63 63
63 63 63
63 63 63
63 63 63
63 63 63
63 63 63
63 63 63
63 63 63
63 63 63
63 63 63
63 63 63
63 63 63
63 63 63
63 63 63
63 63 63
63 63 63
63 63 63
63 63 63
63 63 63
63 63 63
63 63 63
63 63 63
63 63 63
63 63 63
63 63 63
63 63 63
63 63 63
63 63 63
63 63 63
63 63 63
63 63 63
63 63 63
63 63 63
63 63 63
63 63 63
63 63 63
63 63 63
63 63 63
63 63 63
63 63 63
63 63 63
63 63 63
63 63 63
63 63 63
63 63 63
63 63 63
63 63 63
63 63 63
63 63 63
63 63 63
63 63 63
63 63 63
63 63 63
63 63 63
63 63 63
63 63 63
63 63 63
63 63 63
63 63 63
63 63 63
63 63 63
63 63 63
63 63 63
63 63 63
63 63 63
63 63 63
63 63 63
63 63 63
63 63 63
63 63 63
63 63 63
63 63 63
63 63 63
63 63 63
63 63 63
63 63 63
63 63 63
63 63 63
63 63 63
63 63 63
63 63 63
63 63 63
63 63 63
63 63 63
63 63 63
63 63 63
63 63 63
63 63 63
63 63 63
63 63 63
63 63 63
63 63 63
63 63 63
63 63 63
63 63 63
63 63 63
63 63 63
63 63 63
63 63 63
63 63 63
63 63 63
63 63 63
63 63 63
63 63 63
63 63 63
63 63 63
63 63 63
63 63 63
63 63 63
63 63 63
63 63 63
63 63 63
63 63 63
63 63 63
63 63 63
63 63 63
63 63 63
63 63 63
63 63 63
63 63 63
63 63 63
63 63 63
63 63 63
63 63 63
63 63 63
63 63 63
63 63 63
63 63 63
63 63 63
63 63 63
63 63 63
63 63 63
63 63 63
63 63 63
63 63 63
63 63 63
63 63 63
63 63 63
63 63 63
63 63 63
63 63 63
63 63 63
63 63 63
63 63 63
63 63 63
63 63 63
63 63 63
63 63 63
63 63 63
63 63 63
63 63 63
63 63 63
63 63 63
63 63 63
63 63 63
63 63 63
63 63 63
63 63 63
63 63 63
63 63 63
63 63 63
63 63 63
63 63 63
63 63 63
63 63 63
63 63 63
63 63 63
63 63 63
63 63 63
63 63 63
63 63 63
63 63 63
63 63 63
63 63 63
63 63 63
63 63 63
63 63 63
63 63 63
63 63 63
63 63 63
63 63 63
63 63 63
63 63 63
63 63 63
63 63 63
63 63 63
63 63 63
63 63 63
63 63 63
63 63 63
63 63 63
63 63 63
63 63 63
63 63 63
63 63 63
63 63 63
63 63 63
63 63 63
63 63 63
63 63 63
63 63 63
63 63 63
63 63 63
63 63 63
63 63 63
63 63 63
63 63 63
63 63 63
63 63 63
63 63 63
63 63 63
63 63 63
63 63 63
63 63 63
63 63 63
63 63 63
63 63 63
63 63 63
63 63 63
63 63 63
63 63 63
63 63 63
63 63 63
63 63 63
63 63 63
63 63 63
63 63 63
63 63 63
63 63 63
63 63 63
63 63 63
63 63 63
63 63 63
63 63 63
63 63 63
63 63 63
63 63 63
63 63 63
63 63 63
63 63 63
63 63 63
63 63 63
63 63 63
63 63 63
63 63 63
63 63 63
63 63 63
63 63 63
63 63 63
63 63 63
63 63 63
63 63 63
63 63 63
63 63 63
63 63 63
63 63 63
63 63 63
63 63 63
63 63 63
63 63 63
63 63 63
63 63 63
63 63 63
63 63 63
63 63 63
63 63 63
63 63 63
63 63 63
63 63 63
63 63 63
63 63 63
63 63 63
63 63 63
63 63 63
63 63 63
63 63 63
63 63 63
63 63 63
63 63 63
63 63 63
63 63 63
63 63 63
63 63 63
63 63 63
63 63 63
63 63 63
63 63 63
63 63 63
63 63 63
63 63 63
63 63 63
63 63 63
63 63 63
63 63 63
63 63 63
63 63 63
63 63 63
63 63 63
63 63 63
63 63 63
63 63 63
63 63 63
63 63 63
63 63 63
63 63 63
63 63 63
63 63 63
63 63 63
63 63 63
63 63 63
63 63 63
63 63 63
63 63 63
63 63 63
63 63 63
63 63 63
63 63 63
63 63 63
63 63 63
63 63 63
63 63 63
63 63 63
63 63 63
63 63 63
63 63 63
63 63 63
63 63 63
63 63 63
63 63 63
63 63 63
63 63 63
63 63 63
63 63 63
63 63 63
63 63 63
63 63 63
63 63 63
63 63 63
63 63 63
63 63 63
63 63 63
63 63 63
63 63 63
63 63 63
63 63 63
63 63 63
63 63 63
63 63 63
63 63 63
63 63 63
63 63 63
63 63 63
63 63 63
63 63 63
63 63 63
63 63 63
63 63 63
63 63 63
63 63 63
63 63 63
63 63 63
63 63 63
63 63 63
63 63 63
63 63 63
63 63 63
63 63 63
63 63 63
63 63 63
63 63 63
63 63 63
63 63 63
63 63 63
63 63 63
63 63 63
63 63 63
63 63 63
63 63 63
63 63 63
63 63 63
63 63 63
63 63 63
63 63 63
63 63 63
63 63 63
63 63 63
63 63 63
63 63 63
63 63 63
63 63 63
63 63 63
63 63 63
63 63 63
63 63 63
63 63 63
63 63 63
63 63 63
63 63 63
63 63 63
63 63 63
63 63 63
63 63 63
63 63 63
63 63 63
63 63 63
63 63 63
63 63 63
63 63 63
63 63 63
63 63 63
63 63 63
63 63 63
63 63 63
63 63 63
63 63 63
63 63 63
63 63 63
63 63 63
63 63 63
63 63 63
63 63 63
63 63 63
63 63 63
63 63 63
63 63 63
63 63 63
63 63 63
63 63 63
63 63 63
63 63 63
63 63 63
63 63 63
63 63 63
63 63 63
63 63 63
63 63 63
63 63 63
63 63 63
63 63 63
63 63 63
63 63 63
63 63 63
63 63 63
63 63 63
63 63 63
63 63 63
63 63 63
63 63 63
63 63 63
63 63 63
63 63 63
63 63 63
63 63 63
63 63 63
63 63 63
63 63 63
63 63 63
63 63 63
63 63 63
63 63 63
63 63 63
63 63 63
63 63 63
63 63 63
63 63 63
63 63 63
63 63 63
63 63 63
63 63 63
63 63 63
63 63 63
63 63 63
63 63 63
63 63 63
63 63 63
63 63 63
63 63 63
63 63 63
63 63 63
63 63 63
63 63 63
63 63 63
63 63 63
63 63 63
63 63 63
63 63 63
63 63 63
63 63 63
63 63 63
63 63 63
63 63 63
63 63 63
63 63 63
63 63 63
63 63 63
63 63 63
63 63 63
63 63 63
63 63 63
63 63 63
63 63 63
63 63 63
63 63 63
63 63 63
63 63 63
63 63 63
63 63 63
63 63 63
63 63 63
63 63 63
63 63 63
63 63 63
63 63 63
63 63 63
63 63 63
63 63 63
63 63 63
63 63 63
63 63 63
63 63 63
63 63 63
63 63 63
63 63 63
63 63 63
63 63 63
63 63 63
63 63 63
63 63 63
63 63 63
63 63 63
63 63 63
63 63 63
63 63 63
63 63 63
63 63 63
63 63 63
63 63 63
63 63 63
63 63 63
63 63 63
63 63 63
63 63 63
63 63 63
63 63 63
63 63 63
63 63 63
63 63 63
63 63 63
63 63 63
63 63 63
63 63 63
63 63 63
63 63 63
63 63 63
63 63 63
63 63 63
63 63 63
63 63 63
63 63 63
63 63 63
63 63 63
63 63 63
63 63 63
63 63 63
63 63 63
63 63 63
63 63 63
63 63 63
63 63 63
63 63 63
63 63 63
63 63 63
63 63 63
63 63 63
63 63 63
63 63 63
63 63 63
63 63 63
63 63 63
63 63 63
63 63 63
63 63 63
63 63 63
63 63 63
63 63 63
63 63 63
63 63 63
63 63 63
63 63 63
63 63 63
63 63 63
63 63 63
63 63 63
63 63 63
63 63 63
63 63 63
63 63 63
63 63 63
63 63 63
63 63 63
63 63 63
63 63 63
63 63 63
63 63 63
63 63 63
63 63 63
63 63 63
63 63 63
63 63 63
63 63 63
63 63 63
63 63 63
63 63 63
63 63 63
63 63 63
63 63 63
63 63 63
63 63 63
63 63 63
63 63 63
63 63 63
63 63 63
63 63 63
63 63 63
63 63 63
63 63 63
63 63 63
63 63 63
63 63 63
63 63 63
63 63 63
63 63 63
63 63 63
63 63 63
63 63 63
63 63 63
63 63 63
63 63 63
63 63 63
63 63 63
63 63 63
63 63 63
63 63 63
63 63 63
63 63 63
63 63 63
63 63 63
63 63 63
63 63 63
63 63 63
63 63 63
63 63 63
63 63 63
63 63 63
63 63 63
63 63 63
63 63 63
63 63 63
63 63 63
63 63 63
63 63 63
63 63 63
63 63 63
63 63 63
63 63 63
63 63 63
63 63 63
63 63 63
63 63 63
63 63 63
63 63 63
63 63 63
63 63 63
63 63 63
63 63 63
63 63 63
63 63 63
63 63 63
63 63 63
63 63 63
63 63 63
63 63 63
63 63 63
63 63 63
63 63 63
63 63 63
63 63 63
63 63 63
63 63 63
63 63 63
63 63 63
63 63 63
63 63 63
63 63 63
63 63 63
63 63 63
63 63 63
63 63 63
63 63 63
63 63 63
63 63 63
63 63 63
63 63 63
63 63 63
63 63 63
63 63 63
63 63 63
63 63 63
63 63 63
63 63 63
63 63 63
63 63 63
63 63 63
63 63 63
63 63 63
63 63 63
63 63 63
63 63 63
63 63 63
63 63 63
63 63 63
63 63 63
63 63 63
63 63 63
63 63 63
63 63 63
63 63 63
63 63 63
63 63 63
63 63 63
63 63 63
63 63 63
63 63 63
63 63 63
63 63 63
63 63 63
63 63 63
63 63 63
63 63 63
63 63 63
63 63 63
63 63 63
63 63 63
63 63 63
63 63 63
63 63 63
63 63 63
63 63 63
63 63 63
63 63 63
63 63 63
63 63 63
63 63 63
63 63 63
63 63 63
63 63 63
63 63 63
63 63 63
63 63 63
63 63 63
63 63 63
63 63 63
63 63 63
63 63 63
63 63 63
63 63 63
63 63 63
63 63 63
63 63 63
63 63 63
63 63 63
63 63 63
63 63 63
63 63 63
63 63 63
63 63 63
63 63 63
63 63 63
63 63 63
63 63 63
63 63 63
63 63 63
63 63 63
63 63 63
63 63 63
63 63 63
63 63 63
63 63 63
63 63 63
63 63 63
63 63 63
63 63 63
63 63 63
63 63 63
63 63 63
63 63 63
63 63 63
63 63 63
63 63 63
63 63 63
63 63 63
63 63 63
63 63 63
63 63 63
63 63 63
63 63 63
63 63 63
63 63 63
63 63 63
63 63 63
63 63 63
63 63 63
63 63 63
63 63 63
63 63 63
63 63 63
63 63 63
63 63 63
63 63 63
63 63 63
63 63 63
63 63 63
63 63 63
63 63 63
63 63 63
63 63 63
63 63 63
63 63 63
63 63 63
63 63 63
63 63 63
63 63 63
63 63 63
63 63 63
63 63 63
63 63 63
63 63 63
63 63 63
63 63 63
63 63 63
63 63 63
63 63 63
63 63 63
63 63 63
63 63 63
63 63 63
63 63 63
63 63 63
63 63 63
63 63 63
63 63 63
63 63 63
63 63 63
63 63 63
63 63 63
63 63 63
63 63 63
63 63 63
63 63 63
63 63 63
63 63 63
63 63 63
63 63 63
63 63 63
63 63 63
63 63 63
63 63 63
63 63 63
63 63 63
63 63 63
63 63 63
63 63 63
63 63 63
63 63 63
63 63 63
63 63 63
63 63 63
63 63 63
63 63 63
63 63 63
63 63 63
63 63 63
63 63 63
63 63 63
63 63 63
63 63 63
63 63 63
63 63 63
63 63 63
63 63 63
63 63 63
63 63 63
63 63 63
63 63 63
63 63 63
63 63 63
63 63 63
63 63 63
63 63 63
63 63 63
63 63 63
63 63 63
63 63 63
63 63 63
63 63 63
63 63 63
63 63 63
63 63 63
63 63 63
63 63 63
63 63 63
63 63 63
63 63 63
63 63 63
63 63 63
63 63 63
63 63 63
63 63 63
63 63 63
63 63 63
63 63 63
63 63 63
63 63 63
63 63 63
63 63 63
63 63 63
63 63 63
63 63 63
63 63 63
63 63 63
63 63 63
63 63 63
63 63 63
63 63 63
63 63 63
63 63 63
63 63 63
63 63 63
63 63 63
63 63 63
63 63 63
63 63 63
63 63 63
63 63 63
63 63 63
63 63 63
63 63 63
63 63 63
63 63 63
63 63 63
63 63 63
63 63 63
63 63 63
63 63 63
63 63 63
63 63 63
63 63 63
63 63 63
63 63 63
63 63 63
63 63 63
63 63 63
63 63 63
63 63 63
63 63 63
63 63 63
63 63 63
63 63 63
63 63 63
63 63 63
63 63 63
63 63 63
63 63 63
63 63 63
63 63 63
63 63 63
63 63 63
63 63 63
63 63 63
63 63 63
63 63 63
63 63 63
63 63 63
63 63 63
63 63 63
63 63 63
63 63 63
63 63 63
63 63 63
63 63 63
63 63 63
63 63 63
63 63 63
63 63 63
63 63 63
63 63 63
63 63 63
63 63 63
63 63 63
63 63 63
63 63 63
63 63 63
63 63 63
63 63 63
63 63 63
63 63 63
63 63 63
63 63 63
63 63 63
63 63 63
63 63 63
63 63 63
63 63 63
63 63 63
63 63 63
63 63 63
63 63 63
63 63 63
63 63 63
63 63 63
63 63 63
63 63 63
63 63 63
63 63 63
63 63 63
63 63 63
63 63 63
63 63 63
63 63 63
63 63 63
63 63 63
63 63 63
63 63 63
63 63 63
63 63 63
63 63 63
63 63 63
63 63 63
63 63 63
63 63 63
63 63 63
63 63 63
63 63 63
63 63 63
63 63 63
63 63 63
63 63 63
63 63 63
63 63 63
63 63 63
63 63 63
63 63 63
63 63 63
63 63 63
63 63 63
63 63 63
63 63 63
63 63 63
63 63 63
63 63 63
63 63 63
63 63 63
63 63 63
63 63 63
63 63 63
63 63 63
63 63 63
63 63 63
63 63 63
63 63 63
63 63 63
63 63 63
63 63 63
63 63 63
63 63 63
63 63 63
63 63 63
63 63 63
63 63 63
63 63 63
63 63 63
63 63 63
63 63 63
63 63 63
63 63 63
63 63 63
63 63 63
63 63 63
63 63 63
63 63 63
63 63 63
63 63 63
63 63 63
63 63 63
63 63 63
63 63 63
63 63 63
63 63 63
63 63 63
63 63 63
63 63 63
63 63 63
63 63 63
63 63 63
63 63 63
63 63 63
63 63 63
63 63 63
63 63 63
63 63 63
63 63 63
63 63 63
63 63 63
63 63 63
63 63 63
63 63 63
63 63 63
63 63 63
63 63 63
63 63 63
63 63 63
63 63 63
63 63 63
63 63 63
63 63 63
63 63 63
63 63 63
63 63 63
63 63 63
63 63 63
63 63 63
63 63 63
63 63 63
63 63 63
63 63 63
63 63 63
63 63 63
63 63 63
63 63 63
63 63 63
63 63 63
63 63 63
63 63 63
63 63 63
63 63 63
63 63 63
63 63 63
63 63 63
63 63 63
63 63 63
63 63 63
63 63 63
63 63 63
63 63 63
63 63 63
63 63 63
63 63 63
63 63 63
63 63 63
63 63 63
63 63 63
63 63 63
63 63 63
63 63 63
63 63 63
63 63 63
63 63 63
63 63 63
63 63 63
63 63 63
63 63 63
63 63 63
63 63 63
63 63 63
63 63 63
63 63 63
63 63 63
63 63 63
63 63 63
63 63 63
63 63 63
63 63 63
63 63 63
63 63 63
63 63 63
63 63 63
63 63 63
63 63 63
63 63 63
63 63 63
63 63 63
63 63 63
63 63 63
63 63 63
63 63 63
63 63 63
63 63 63
63 63 63
63 63 63
63 63 63
63 63 63
63 63 63
63 63 63
63 63 63
63 63 63
63 63 63
63 63 63
63 63 63
63 63 63
63 63 63
63 63 63
63 63 63
63 63 63
63 63 63
63 63 63
63 63 63
63 63 63
63 63 63
63 63 63
63 63 63
63 63 63
63 63 63
63 63 63
63 63 63
63 63 63
63 63 63
63 63 63
63 63 63
63 63 63
63 63 63
63 63 63
63 63 63
63 63 63
63 63 63
63 63 63
63 63 63
63 63 63
63 63 63
63 63 63
63 63 63
63 63 63
63 63 63
63 63 63
63 63 63
63 63 63
63 63 63
63 63 63
63 63 63
63 63 63
63 63 63
63 63 63
63 63 63
63 63 63
63 63 63
63 63 63
63 63 63
63 63 63
63 63 63
63 63 63
63 63 63
63 63 63
63 63 63
63 63 63
63 63 63
63 63 63
63 63 63
63 63 63
63 63 63
63 63 63
63 63 63
63 63 63
63 63 63
63 63 63
63 63 63
63 63 63
63 63 63
63 63 63
63 63 63
63 63 63
63 63 63
63 63 63
63 63 63
63 63 63
63 63 63
63 63 63
63 63 63
63 63 63
63 63 63
63 63 63
63 63 63
63 63 63
63 63 63
63 63 63
63 63 63
63 63 63
63 63 63
63 63 63
63 63 63
63 63 63
63 63 63
63 63 63
63 63 63
63 63 63
63 63 63
63 63 63
63 63 63
63 63 63
63 63 63
63 63 63
63 63 63
63 63 63
63 63 63
63 63 63
63 63 63
63 63 63
63 63 63
63 63 63
63 63 63
63 63 63
63 63 63
63 63 63
63 63 63
63 63 63
63 63 63
63 63 63
63 63 63
63 63 63
63 63 63
63 63 63
63 63 63
63 63 63
63 63 63
63 63 63
63 63 63
63 63 63
63 63 63
63 63 63
63 63 63
63 63 63
63 63 63
63 63 63
63 63 63
63 63 63
63 63 63
63 63 63
63 63 63
63 63 63
63 63 63
63 63 63
63 63 63
63 63 63
63 63 63
63 63 63
63 63 63
63 63 63
63 63 63
63 63 63
63 63 63
63 63 63
63 63 63
63 63 63
63 63 63
63 63 63
63 63 63
63 63 63
63 63 63
63 63 63
63 63 63
63 63 63
63 63 63
63 63 63
63 63 63
63 63 63
63 63 63
63 63 63
63 63 63
63 63 63
63 63 63
63 63 63
63 63 63
63 63 63
63 63 63
63 63 63
63 63 63
63 63 63
63 63 63
63 63 63
63 63 63
63 63 63
63 63 63
63 63 63
63 63 63
63 63 63
63 63 63
63 63 63
63 63 63
63 63 63
63 63 63
63 63 63
63 63 63
63 63 63
63 63 63
63 63 63
63 63 63
63 63 63
63 63 63
63 63 63
63 63 63
63 63 63
63 63 63
63 63 63
63 63 63
63 63 63
63 63 63
63 63 63
63 63 63
63 63 63
63 63 63
63 63 63
63 63 63
63 63 63
63 63 63
63 63 63
63 63 63
63 63 63
63 63 63
63 63 63
63 63 63
63 63 63
63 63 63
63 63 63
63 63 63
63 63 63
63 63 63
63 63 63
63 63 63
63 63 63
63 63 63
63 63 63
63 63 63
63 63 63
63 63 63
63 63 63
63 63 63
63 63 63
63 63 63
63 63 63
63 63 63
63 63 63
63 63 63
63 63 63
63 63 63
63 63 63
63 63 63
63 63 63
63 63 63
63 63 63
63 63 63
63 63 63
63 63 63
63 63 63
63 63 63
63 63 63
63 63 63
63 63 63
63 63 63
63 63 63
63 63 63
63 63 63
63 63 63
63 63 63
63 63 63
63 63 63
63 63 63
63 63 63
63 63 63
63 63 63
63 63 63
63 63 63
63 63 63
63 63 63
63 63 63
63 63 63
63 63 63
63 63 63
63 63 63
63 63 63
63 63 63
63 63 63
63 63 63
63 63 63
63 63 63
63 63 63
63 63 63
63 63 63
63 63 63
63 63 63
63 63 63
63 63 63
63 63 63
63 63 63
63 63 63
63 63 63
63 63 63
63 63 63
63 63 63
63 63 63
63 63 63
63 63 63
63 63 63
63 63 63
63 63 63
63 63 63
63 63 63
63 63 63
63 63 63
63 63 63
63 63 63
63 63 63
63 63 63
63 63 63
63 63 63
63 63 63
63 63 63
63 63 63
63 63 63
63 63 63
63 63 63
63 63 63
63 63 63
63 63 63
63 63 63
63 63 63
63 63 63
63 63 63
63 63 63
63 63 63
63 63 63
63 63 63
63 63 63
63 63 63
63 63 63
63 63 63
63 63 63
63 63 63
63 63 63
63 63 63
63 63 63
63 63 63
63 63 63
63 63 63
63 63 63
63 63 63
63 63 63
63 63 63
63 63 63
63 63 63
63 63 63
63 63 63
63 63 63
63 63 63
63 63 63
63 63 63
63 63 63
63 63 63
63 63 63
63 63 63
63 63 63
63 63 63
63 63 63
63 63 63
63 63 63
63 63 63
63 63 63
63 63 63
63 63 63
63 63 63
63 63 63
63 63 63
63 63 63
63 63 63
63 63 63
63 63 63
63 63 63
63 63 63
63 63 63
63 63 63
63 63 63
63 63 63
63 63 63
63 63 63
63 63 63
63 63 63
63 63 63
63 63 63
63 63 63
63 63 63
63 63 63
63 63 63
63 63 63
63 63 63
63 63 63
63 63 63
63 63 63
63 63 63
63 63 63
63 63 63
63 63 63
63 63 63
63 63 63
63 63 63
63 63 63
63 63 63
63 63 63
63 63 63
63 63 63
63 63 63
63 63 63
63 63 63
63 63 63
63 63 63
63 63 63
63 63 63
63 63 63
63 63 63
63 63 63
63 63 63
63 63 63
63 63 63
63 63 63
63 63 63
63 63 63
63 63 63
63 63 63
63 63 63
63 63 63
63 63 63
63 63 63
63 63 63
63 63 63
63 63 63
63 63 63
63 63 63
63 63 63
63 63 63
63 63 63
63 63 63
63 63 63
63 63 63
63 63 63
63 63 63
63 63 63
63 63 63
63 63 63
63 63 63
63 63 63
63 63 63
63 63 63
63 63 63
63 63 63
63 63 63
63 63 63
63 63 63
63 63 63
63 63 63
63 63 63
63 63 63
63 63 63
63 63 63
63 63 63
63 63 63
63 63 63
63 63 63
63 63 63
63 63 63
63 63 63
63 63 63
63 63 63
63 63 63
63 63 63
63 63 63
63 63 63
63 63 63
63 63 63
63 63 63
63 63 63
63 63 63
63 63 63
63 63 63
63 63 63
63 63 63
63 63 63
63 63 63
63 63 63
63 63 63
63 63 63
63 63 63
63 63 63
63 63 63
63 63 63
63 63 63
63 63 63
63 63 63
63 63 63
63 63 63
63 63 63
63 63 63
63 63 63
63 63 63
63 63 63
63 63 63
63 63 63
63 63 63
63 63 63
63 63 63
63 63 63
63 63 63
63 63 63
63 63 63
63 63 63
63 63 63
63 63 63
63 63 63
63 63 63
63 63 63
63 63 63
63 63 63
63 63 63
63 63 63
63 63 63
63 63 63
63 63 63
63 63 63
63 63 63
63 63 63
63 63 63
63 63 63
63 63 63
63 63 63
63 63 63
63 63 63
63 63 63
63 63 63
63 63 63
63 63 63
63 63 63
63 63 63
63 63 63
63 63 63
63 63 63
63 63 63
63 63 63
63 63 63
63 63 63
63 63 63
63 63 63
63 63 63
63 63 63
63 63 63
63 63 63
63 63 63
63 63 63
63 63 63
63 63 63
63 63 63
63 63 63
63 63 63
63 63 63
63 63 63
63 63 63
63 63 63
63 63 63
63 63 63
63 63 63
63 63 63
63 63 63
63 63 63
63 63 63
63 63 63
63 63 63
63 63 63
63 63 63
63 63 63
63 63 63
63 63 63
63 63 63
63 63 63
63 63 63
63 63 63
63 63 63
63 63 63
63 63 63
63 63 63
63 63 63
63 63 63
63 63 63
63 63 63
63 63 63
63 63 63
63 63 63
63 63 63
63 63 63
63 63 63
63 63 63
63 63 63
63 63 63
63 63 63
63 63 63
63 63 63
63 63 63
63 63 63
63 63 63
63 63 63
63 63 63
63 63 63
63 63 63
63 63 63
63 63 63
63 63 63
63 63 63
63 63 63
63 63 63
63 63 63
63 63 63
63 63 63
63 63 63
63 63 63
63 63 63
63 63 63
63 63 63
63 63 63
63 63 63
63 63 63
63 63 63
63 63 63
63 63 63
63 63 63
63 63 63
63 63 63
63 63 63
63 63 63
63 63 63
63 63 63
63 63 63
63 63 63
63 63 63
63 63 63
63 63 63
63 63 63
63 63 63
63 63 63
63 63 63
63 63 63
63 63 63
63 63 63
63 63 63
63 63 63
63 63 63
63 63 63
63 63 63
63 63 63
63 63 63
63 63 63
63 63 63
63 63 63
63 63 63
63 63 63
63 63 63
63 63 63
63 63 63
63 63 63
63 63 63
63 63 63
63 63 63
63 63 63
63 63 63
63 63 63
63 63 63
63 63 63
63 63 63
63 63 63
63 63 63
63 63 63
63 63 63
63 63 63
63 63 63
63 63 63
63 63 63
63 63 63
63 63 63
63 63 63
63 63 63
63 63 63
63 63 63
63 63 63
63 63 63
63 63 63
63 63 63
63 63 63
63 63 63
63 63 63
63 63 63
63 63 63
63 63 63
63 63 63
63 63 63
63 63 63
63 63 63
63 63 63
63 63 63
63 63 63
63 63 63
63 63 63
63 63 63
63 63 63
63 63 63
63 63 63
63 63 63
63 63 63
63 63 63
63 63 63
63 63 63
63 63 63
63 63 63
63 63 63
63 63 63
63 63 63
63 63 63
63 63 63
63 63 63
63 63 63
63 63 63
63 63 63
63 63 63
63 63 63
63 63 63
63 63 63
63 63 63
63 63 63
63 63 63
63 63 63
63 63 63
63 63 63
63 63 63
63 63 63
63 63 63
63 63 63
63 63 63
63 63 63
63 63 63
63 63 63
63 63 63
63 63 63
63 63 63
63 63 63
63 63 63
63 63 63
63 63 63
63 63 63
63 63 63
63 63 63
63 63 63
63 63 63
63 63 63
63 63 63
63 63 63
63 63 63
63 63 63
63 63 63
63 63 63
63 63 63
63 63 63
63 63 63
63 63 63
63 63 63
63 63 63
63 63 63
63 63 63
63 63 63
63 63 63
63 63 63
63 63 63
63 63 63
63 63 63
63 63 63
63 63 63
63 63 63
63 63 63
63 63 63
63 63 63
63 63 63
63 63 63
63 63 63
63 63 63
63 63 63
63 63 63
63 63 63
63 63 63
63 63 63
63 63 63
63 63 63
63 63 63
63 63 63
63 63 63
63 63 63
63 63 63
63 63 63
63 63 63
63 63 63
63 63 63
63 63 63
63 63 63
63 63 63
63 63 63
63 63 63
63 63 63
63 63 63
63 63 63
63 63 63
63 63 63
63 63 63
63 63 63
63 63 63
63 63 63
63 63 63
63 63 63
63 63 63
63 63 63
63 63 63
63 63 63
63 63 63
63 63 63
63 63 63
63 63 63
63 63 63
63 63 63
63 63 63
63 63 63
63 63 63
63 63 63
63 63 63
63 63 63
63 63 63
63 63 63
63 63 63
63 63 63
63 63 63
63 63 63
63 63 63
63 63 63
63 63 63
63 63 63
63 63 63
63 63 63
63 63 63
63 63 63
63 63 63
63 63 63
63 63 63
63 63 63
63 63 63
63 63 63
63 63 63
63 63 63
63 63 63
63 63 63
63 63 63
63 63 63
63 63 63
63 63 63
63 63 63
63 63 63
63 63 63
63 63 63
63 63 63
63 63 63
63 63 63
63 63 63
63 63 63
63 63 63
63 63 63
63 63 63
63 63 63
63 63 63
63 63 63
63 63 63
63 63 63
63 63 63
63 63 63
63 63 63
63 63 63
63 63 63
63 63 63
63 63 63
63 63 63
63 63 63
63 63 63
63 63 63
63 63 63
63 63 63
63 63 63
63 63 63
63 63 63
63 63 63
63 63 63
63 63 63
63 63 63
63 63 63
63 63 63
63 63 63
63 63 63
63 63 63
63 63 63
63 63 63
63 63 63
63 63 63
63 63 63
63 63 63
63 63 63
63 63 63
63 63 63
63 63 63
63 63 63
63 63 63
63 63 63
63 63 63
63 63 63
63 63 63
63 63 63
63 63 63
63 63 63
63 63 63
63 63 63
63 63 63
63 63 63
63 63 63
63 63 63
63 63 63
63 63 63
63 63 63
63 63 63
63 63 63
63 63 63
63 63 63
63 63 63
63 63 63
63 63 63
63 63 63
63 63 63
63 63 63
63 63 63
63 63 63
63 63 63
63 63 63
63 63 63
63 63 63
63 63 63
63 63 63
63 63 63
63 63 63
63 63 63
63 63 63
63 63 63
63 63 63
63 63 63
63 63 63
63 63 63
63 63 63
63 63 63
63 63 63
63 63 63
63 63 63
63 63 63
63 63 63
63 63 63
63 63 63
63 63 63
63 63 63
63 63 63
63 63 63
63 63 63
63 63 63
63 63 63
63 63 63
63 63 63
63 63 63
63 63 63
63 63 63
63 63 63
63 63 63
63 63 63
63 63 63
63 63 63
63 63 63
63 63 63
63 63 63
63 63 63
63 63 63
63 63 63
63 63 63
63 63 63
63 63 63
63 63 63
63 63 63
63 63 63
63 63 63
63 63 63
63 63 63
63 63 63
63 63 63
63 63 63
63 63 63
63 63 63
63 63 63
63 63 63
63 63 63
63 63 63
63 63 63
63 63 63
63 63 63
63 63 63
63 63 63
63 63 63
63 63 63
63 63 63
63 63 63
63 63 63
63 63 63
63 63 63
63 63 63
63 63 63
63 63 63
63 63 63
63 63 63
63 63 63
63 63 63
63 63 63
63 63 63
63 63 63
63 63 63
63 63 63
63 63 63
63 63 63
63 63 63
63 63 63
63 63 63
63 63 63
63 63 63
63 63 63
63 63 63
63 63 63
63 63 63
63 63 63
63 63 63
63 63 63
63 63 63
63 63 63
63 63 63
63 63 63
63 63 63
63 63 63
63 63 63
63 63 63
63 63 63
63 63 63
63 63 63
63 63 63
63 63 63
63 63 63
63 63 63
63 63 63
63 63 63
63 63 63
63 63 63
63 63 63
63 63 63
63 63 63
63 63 63
63 63 63
63 63 63
63 63 63
63 63 63
63 63 63
63 63 63
63 63 63
63 63 63
63 63 63
63 63 63
63 63 63
63 63 63
63 63 63
63 63 63
63 63 63
63 63 63
63 63 63
63 63 63
63 63 63
63 63 63
63 63 63
63 63 63
63 63 63
63 63 63
63 63 63
63 63 63
63 63 63
63 63 63
63 63 63
63 63 63
63 63 63
63 63 63
63 63 63
63 63 63
63 63 63
63 63 63
63 63 63
63 63 63
63 63 63
63 63 63
63 63 63
63 63 63
63 63 63
63 63 63
63 63 63
63 63 63
63 63 63
63 63 63
63 63 63
63 63 63
63 63 63
63 63 63
63 63 63
63 63 63
63 63 63
63 63 63
63 63 63
63 63 63
63 63 63
63 63 63
63 63 63
63 63 63
63 63 63
63 63 63
63 63 63
63 63 63
63 63 63
63 63 63
63 63 63
63 63 63
63 63 63
63 63 63
63 63 63
63 63 63
63 63 63
63 63 63
63 63 63
63 63 63
63 63 63
63 63 63
63 63 63
63 63 63
63 63 63
63 63 63
63 63 63
63 63 63
63 63 63
63 63 63
63 63 63
63 63 63
63 63 63
63 63 63
63 63 63
63 63 63
63 63 63
63 63 63
63 63 63
63 63 63
63 63 63
63 63 63
63 63 63
63 63 63
63 63 63
63 63 63
63 63 63
63 63 63
63 63 63
63 63 63
63 63 63
63 63 63
63 63 63
63 63 63
63 63 63
63 63 63
63 63 63
63 63 63
63 63 63
63 63 63
63 63 63
63 63 63
63 63 63
63 63 63
63 63 63
63 63 63
63 63 63
63 63 63
63 63 63
63 63 63
63 63 63
63 63 63
63 63 63
63 63 63
63 63 63
63 63 63
63 63 63
63 63 63
63 63 63
63 63 63
63 63 63
63 63 63
63 63 63
63 63 63
63 63 63
63 63 63
63 63 63
63 63 63
63 63 63
63 63 63
63 63 63
63 63 63
63 63 63
63 63 63
63 63 63
63 63 63
63 63 63
63 63 63
63 63 63
63 63 63
63 63 63
63 63 63
63 63 63
63 63 63
63 63 63
63 63 63
63 63 63
63 63 63
63 63 63
63 63 63
63 63 63
63 63 63
63 63 63
63 63 63
63 63 63
63 63 63
63 63 63
63 63 63
63 63 63
63 63 63
63 63 63
63 63 63
63 63 63
63 63 63
63 63 63
63 63 63
63 63 63
63 63 63
63 63 63
63 63 63
63 63 63
63 63 63
63 63 63
63 63 63
63 63 63
63 63 63
63 63 63
63 63 63
63 63 63
63 63 63
63 63 63
63 63 63
63 63 63
63 63 63
63 63 63
63 63 63
63 63 63
63 63 63
63 63 63
63 63 63
63 63 63
63 63 63
63 63 63
63 63 63
63 63 63
63 63 63
63 63 63
63 63 63
63 63 63
63 63 63
63 63 63
63 63 63
63 63 63
63 63 63
63 63 63
63 63 63
63 63 63
63 63 63
63 63 63
63 63 63
63 63 63
63 63 63
63 63 63
63 63 63
63 63 63
63 63 63
63 63 63
63 63 63
63 63 63
63 63 63
63 63 63
63 63 63
63 63 63
63 63 63
63 63 63
63 63 63
63 63 63
63 63 63
63 63 63
63 63 63
63 63 63
63 63 63
63 63 63
63 63 63
63 63 63
63 63 63
63 63 63
63 63 63
63 63 63
63 63 63
63 63 63
63 63 63
63 63 63
63 63 63
63 63 63
63 63 63
63 63 63
63 63 63
63 63 63
63 63 63
63 63 63
63 63 63
63 63 63
63 63 63
63 63 63
63 63 63
63 63 63
63 63 63
63 63 63
63 63 63
63 63 63
63 63 63
63 63 63
63 63 63
63 63 63
63 63 63
63 63 63
63 63 63
63 63 63
63 63 63
63 63 63
63 63 63
63 63 63
63 63 63
63 63 63
63 63 63
63 63 63
63 63 63
63 63 63
63 63 63
63 63 63
63 63 63
63 63 63
63 63 63
63 63 63
63 63 63
63 63 63
63 63 63
63 63 63
63 63 63
63 63 63
63 63 63
63 63 63
63 63 63
63 63 63
63 63 63
63 63 63
63 63 63
63 63 63
63 63 63
63 63 63
63 63 63
63 63 63
63 63 63
63 63 63
63 63 63
63 63 63
63 63 63
63 63 63
63 63 63
63 63 63
63 63 63
63 63 63
63 63 63
63 63 63
63 63 63
63 63 63
63 63 63
63 63 63
63 63 63
63 63 63
63 63 63
63 63 63
63 63 63
63 63 63
63 63 63
63 63 63
63 63 63
63 63 63
63 63 63
63 63 63
63 63 63
63 63 63
63 63 63
63 63 63
63 63 63
63 63 63
63 63 63
63 63 63
63 63 63
63 63 63
63 63 63
63 63 63
63 63 63
63 63 63
63 63 63
63 63 63
63 63 63
63 63 63
63 63 63
63 63 63
63 63 63
63 63 63
63 63 63
63 63 63
63 63 63
63 63 63
63 63 63
63 63 63
63 63 63
63 63 63
63 63 63
63 63 63
63 63 63
63 63 63
63 63 63
63 63 63
63 63 63
63 63 63
63 63 63
63 63 63
63 63 63
63 63 63
63 63 63
63 63 63
63 63 63
63 63 63
63 63 63
63 63 63
63 63 63
63 63 63
63 63 63
63 63 63
63 63 63
63 63 63
63 63 63
63 63 63
63 63 63
63 63 63
63 63 63
63 63 63
63 63 63
63 63 63
63 63 63
63 63 63
63 63 63
63 63 63
63 63 63
63 63 63
63 63 63
63 63 63
63 63 63
63 63 63
63 63 63
63 63 63
63 63 63
63 63 63
63 63 63
63 63 63
63 63 63
63 63 63
63 63 63
63 63 63
63 63 63
63 63 63
63 63 63
63 63 63
63 63 63
63 63 63
63 63 63
63 63 63
63 63 63
63 63 63
63 63 63
63 63 63
63 63 63
63 63 63
63 63 63
63 63 63
63 63 63
63 63 63
63 63 63
63 63 63
63 63 63
63 63 63
63 63 63
63 63 63
63 63 63
63 63 63
63 63 63
63 63 63
63 63 63
63 63 63
63 63 63
63 63 63
63 63 63
63 63 63
63 63 63
63 63 63
63 63 63
63 63 63
63 63 63
63 63 63
63 63 63
63 63 63
63 63 63
63 63 63
63 63 63
63 63 63
63 63 63
63 63 63
63 63 63
63 63 63
63 63 63
63 63 63
63 63 63
63 63 63
63 63 63
63 63 63
63 63 63
63 63 63
63 63 63
63 63 63
63 63 63
63 63 63
63 63 63
63 63 63
63 63 63
63 63 63
63 63 63
63 63 63
63 63 63
63 63 63
63 63 63
63 63 63
63 63 63
63 63 63
63 63 63
63 63 63
63 63 63
63 63 63
63 63 63
63 63 63
63 63 63
63 63 63
63 63 63
63 63 63
63 63 63
63 63 63
63 63 63
63 63 63
63 63 63
63 63 63
63 63 63
63 63 63
63 63 63
63 63 63
63 63 63
63 63 63
63 63 63
63 63 63
63 63 63
63 63 63
63 63 63
63 63 63
63 63 63
63 63 63
63 63 63
63 63 63
63 63 63
63 63 63
63 63 63
63 63 63
63 63 63
63 63 63
63 63 63
63 63 63
63 63 63
63 63 63
63 63 63
63 63 63
63 63 63
63 63 63
63 63 63
63 63 63
63 63 63
63 63 63
63 63 63
63 63 63
63 63 63
63 63 63
63 63 63
63 63 63
63 63 63
63 63 63
63 63 63
63 63 63
63 63 63
63 63 63
63 63 63
63 63 63
63 63 63
63 63 63
63 63 63
63 63 63
63 63 63
63 63 63
63 63 63
63 63 63
63 63 63
63 63 63
63 63 63
63 63 63
63 63 63
63 63 63
63 63 63
63 63 63
63 63 63
63 63 63
63 63 63
63 63 63
63 63 63
63 63 63
63 63 63
63 63 63
63 63 63
63 63 63
63 63 63
63 63 63
63 63 63
63 63 63
63 63 63
63 63 63
63 63 63
63 63 63
63 63 63
63 63 63
63 63 63
63 63 63
63 63 63
63 63 63
63 63 63
63 63 63
63 63 63
63 63 63
63 63 63
63 63 63
63 63 63
63 63 63
63 63 63
63 63 63
63 63 63
63 63 63
63 63 63
63 63 63
63 63 63
63 63 63
63 63 63
63 63 63
63 63 63
63 63 63
63 63 63
63 63 63
63 63 63
63 63 63
63 63 63
63 63 63
63 63 63
63 63 63
63 63 63
63 63 63
63 63 63
63 63 63
63 63 63
63 63 63
63 63 63
63 63 63
63 63 63
63 63 63
63 63 63
63 63 63
63 63 63
63 63 63
63 63 63
63 63 63
63 63 63
63 63 63
63 63 63
63 63 63
63 63 63
63 63 63
63 63 63
63 63 63
63 63 63
63 63 63
63 63 63
63 63 63
63 63 63
63 63 63
63 63 63
63 63 63
63 63 63
63 63 63
63 63 63
63 63 63
63 63 63
63 63 63
63 63 63
63 63 63
63 63 63
63 63 63
63 63 63
63 63 63
63 63 63
63 63 63
63 63 63
63 63 63
63 63 63
63 63 63
63 63 63
63 63 63
63 63 63
63 63 63
63 63 63
63 63 63
63 63 63
63 63 63
63 63 63
63 63 63
63 63 63
63 63 63
63 63 63
63 63 63
63 63 63
63 63 63
63 63 63
63 63 63
63 63 63
63 63 63
63 63 63
63 63 63
63 63 63
63 63 63
63 63 63
63 63 63
63 63 63
63 63 63
63 63 63
63 63 63
63 63 63
63 63 63
63 63 63
63 63 63
63 63 63
63 63 63
63 63 63
63 63 63
63 63 63
63 63 63
63 63 63
63 63 63
63 63 63
63 63 63
63 63 63
63 63 63
63 63 63
63 63 63
63 63 63
63 63 63
63 63 63
63 63 63
63 63 63
63 63 63
63 63 63
63 63 63
63 63 63
63 63 63
63 63 63
63 63 63
63 63 63
63 63 63
63 63 63
63 63 63
63 63 63
63 63 63
63 63 63
63 63 63
63 63 63
63 63 63
63 63 63
63 63 63
63 63 63
63 63 63
63 63 63
63 63 63
63 63 63
63 63 63
63 63 63
63 63 63
63 63 63
63 63 63
63 63 63
63 63 63
63 63 63
63 63 63
63 63 63
63 63 63
63 63 63
63 63 63
63 63 63
63 63 63
63 63 63
63 63 63
63 63 63
63 63 63
63 63 63
63 63 63
63 63 63
63 63 63
63 63 63
63 63 63
63 63 63
63 63 63
63 63 63
63 63 63
63 63 63
63 63 63
63 63 63
63 63 63
63 63 63
63 63 63
63 63 63
63 63 63
63 63 63
63 63 63
63 63 63
63 63 63
63 63 63
63 63 63
63 63 63
63 63 63
63 63 63
63 63 63
63 63 63
63 63 63
63 63 63
63 63 63
63 63 63
63 63 63
63 63 63
63 63 63
63 63 63
63 63 63
63 63 63
63 63 63
63 63 63
63 63 63
63 63 63
63 63 63
63 63 63
63 63 63
63 63 63
63 63 63
63 63 63
63 63 63
63 63 63
63 63 63
63 63 63
63 63 63
63 63 63
63 63 63
63 63 63
63 63 63
63 63 63
63 63 63
63 63 63
63 63 63
63 63 63
63 63 63
63 63 63
63 63 63
63 63 63
63 63 63
63 63 63
63 63 63
63 63 63
63 63 63
63 63 63
63 63 63
63 63 63
63 63 63
63 63 63
63 63 63
63 63 63
63 63 63
63 63 63
63 63 63
63 63 63
63 63 63
63 63 63
63 63 63
63 63 63
63 63 63
63 63 63
63 63 63
63 63 63
63 63 63
63 63 63
63 63 63
63 63 63
63 63 63
63 63 63
63 63 63
63 63 63
63 63 63
63 63 63
63 63 63
63 63 63
63 63 63
63 63 63
63 63 63
63 63 63
63 63 63
63 63 63
63 63 63
63 63 63
63 63 63
63 63 63
63 63 63
63 63 63
63 63 63
63 63 63
63 63 63
63 63 63
63 63 63
63 63 63
63 63 63
63 63 63
63 63 63
63 63 63
63 63 63
63 63 63
63 63 63
63 63 63
63 63 63
63 63 63
63 63 63
63 63 63
63 63 63
63 63 63
63 63 63
63 63 63
63 63 63
63 63 63
63 63 63
63 63 63
63 63 63
63 63 63
63 63 63
63 63 63
63 63 63
63 63 63
63 63 63
63 63 63
63 63 63
63 63 63
63 63 63
63 63 63
63 63 63
63 63 63
63 63 63
63 63 63
63 63 63
63 63 63
63 63 63
63 63 63
63 63 63
63 63 63
63 63 63
63 63 63
63 63 63
63 63 63
63 63 63
63 63 63
63 63 63
63 63 63
63 63 63
63 63 63
63 63 63
63 63 63
63 63 63
63 63 63
63 63 63
63 63 63
63 63 63
63 63 63
63 63 63
63 63 63
63 63 63
63 63 63
63 63 63
63 63 63
63 63 63
63 63 63
63 63 63
63 63 63
63 63 63
63 63 63
63 63 63
63 63 63
63 63 63
63 63 63
63 63 63
63 63 63
63 63 63
63 63 63
63 63 63
63 63 63
63 63 63
63 63 63
63 63 63
63 63 63
63 63 63
63 63 63
63 63 63
63 63 63
63 63 63
63 63 63
63 63 63
63 63 63
63 63 63
63 63 63
63 63 63
63 63 63
63 63 63
63 63 63
63 63 63
63 63 63
63 63 63
63 63 63
63 63 63
63 63 63
63 63 63
63 63 63
63 63 63
63 63 63
63 63 63
63 63 63
63 63 63
63 63 63
63 63 63
63 63 63
63 63 63
63 63 63
63 63 63
63 63 63
63 63 63
63 63 63
63 63 63
63 63 63
63 63 63
63 63 63
63 63 63
63 63 63
63 63 63
63 63 63
63 63 63
63 63 63
63 63 63
63 63 63
63 63 63
63 63 63
63 63 63
63 63 63
63 63 63
63 63 63
63 63 63
63 63 63
63 63 63
63 63 63
63 63 63
63 63 63
63 63 63
63 63 63
63 63 63
63 63 63
63 63 63
63 63 63
63 63 63
63 63 63
63 63 63
63 63 63
63 63 63
63 63 63
63 63 63
63 63 63
63 63 63
63 63 63
63 63 63
63 63 63
63 63 63
63 63 63
63 63 63
63 63 63
63 63 63
63 63 63
63 63 63
63 63 63
63 63 63
63 63 63
63 63 63
63 63 63
63 63 63
63 63 63
63 63 63
63 63 63
63 63 63
63 63 63
63 63 63
63 63 63
63 63 63
63 63 63
63 63 63
63 63 63
63 63 63
63 63 63
63 63 63
63 63 63
63 63 63
63 63 63
63 63 63
63 63 63
63 63 63
63 63 63
63 63 63
63 63 63
63 63 63
63 63 63
63 63 63
63 63 63
63 63 63
63 63 63
63 63 63
63 63 63
63 63 63
63 63 63
63 63 63
63 63 63
63 63 63
63 63 63
63 63 63
63 63 63
63 63 63
63 63 63
63 63 63
63 63 63
63 63 63
63 63 63
63 63 63
63 63 63
63 63 63
63 63 63
63 63 63
63 63 63
63 63 63
63 63 63
63 63 63
63 63 63
63 63 63
63 63 63
63 63 63
63 63 63
63 63 63
63 63 63
63 63 63
63 63 63
63 63 63
63 63 63
63 63 63
63 63 63
63 63 63
63 63 63
63 63 63
63 63 63
63 63 63
63 63 63
63 63 63
63 63 63
63 63 63
63 63 63
63 63 63
63 63 63
63 63 63
63 63 63
63 63 63
63 63 63
63 63 63
63 63 63
63 63 63
63 63 63
63 63 63
63 63 63
63 63 63
63 63 63
63 63 63
63 63 63
63 63 63
63 63 63
63 63 63
63 63 63
63 63 63
63 63 63
63 63 63
63 63 63
63 63 63
63 63 63
63 63 63
63 63 63
63 63 63
63 63 63
63 63 63
63 63 63
63 63 63
63 63 63
63 63 63
63 63 63
63 63 63
63 63 63
63 63 63
63 63 63
63 63 63
63 63 63
63 63 63
63 63 63
63 63 63
63 63 63
63 63 63
63 63 63
63 63 63
63 63 63
63 63 63
63 63 63
63 63 63
63 63 63
63 63 63
63 63 63
63 63 63
63 63 63
63 63 63
63 63 63
63 63 63
63 63 63
63 63 63
63 63 63
63 63 63
63 63 63
63 63 63
63 63 63
63 63 63
63 63 63
63 63 63
63 63 63
63 63 63
63 63 63
63 63 63
63 63 63
63 63 63
63 63 63
63 63 63
63 63 63
63 63 63
63 63 63
63 63 63
63 63 63
63 63 63
63 63 63
63 63 63
63 63 63
63 63 63
63 63 63
63 63 63
63 63 63
63 63 63
63 63 63
63 63 63
63 63 63
63 63 63
63 63 63
63 63 63
63 63 63
63 63 63
63 63 63
63 63 63
63 63 63
63 63 63
63 63 63
63 63 63
63 63 63
63 63 63
63 63 63
63 63 63
63 63 63
63 63 63
63 63 63
63 63 63
63 63 63
63 63 63
63 63 63
63 63 63
63 63 63
63 63 63
63 63 63
63 63 63
63 63 63
63 63 63
63 63 63
63 63 63
63 63 63
63 63 63
63 63 63
63 63 63
63 63 63
63 63 63
63 63 63
63 63 63
63 63 63
63 63 63
63 63 63
63 63 63
63 63 63
63 63 63
63 63 63
63 63 63
63 63 63
63 63 63
63 63 63
63 63 63
63 63 63
63 63 63
63 63 63
63 63 63
63 63 63
63 63 63
63 63 63
63 63 63
63 63 63
63 63 63
63 63 63
63 63 63
63 63 63
63 63 63
63 63 63
63 63 63
63 63 63
63 63 63
63 63 63
63 63 63
63 63 63
63 63 63
63 63 63
63 63 63
63 63 63
63 63 63
63 63 63
63 63 63
63 63 63
63 63 63
63 63 63
63 63 63
63 63 63
63 63 63
63 63 63
63 63 63
63 63 63
63 63 63
63 63 63
63 63 63
63 63 63
63 63 63
63 63 63
63 63 63
63 63 63
63 63 63
63 63 63
63 63 63
63 63 63
63 63 63
63 63 63
63 63 63
63 63 63
63 63 63
63 63 63
63 63 63
63 63 63
63 63 63
63 63 63
63 63 63
63 63 63
63 63 63
63 63 63
63 63 63
63 63 63
63 63 63
63 63 63
63 63 63
63 63 63
63 63 63
63 63 63
63 63 63
63 63 63
63 63 63
63 63 63
63 63 63
63 63 63
63 63 63
63 63 63
63 63 63
63 63 63
63 63 63
63 63 63
63 63 63
63 63 63
63 63 63
63 63 63
63 63 63
63 63 63
63 63 63
63 63 63
63 63 63
63 63 63
63 63 63
63 63 63
63 63 63
63 63 63
63 63 63
63 63 63
63 63 63
63 63 63
63 63 63
63 63 63
63 63 63
63 63 63
63 63 63
63 63 63
63 63 63
63 63 63
63 63 63
63 63 63
63 63 63
63 63 63
63 63 63
63 63 63
63 63 63
63 63 63
63 63 63
63 63 63
63 63 63
63 63 63
63 63 63
63 63 63
63 63 63
63 63 63
63 63 63
63 63 63
63 63 63
63 63 63
63 63 63
63 63 63
63 63 63
63 63 63
63 63 63
63 63 63
63 63 63
63 63 63
63 63 63
63 63 63
63 63 63
63 63 63
63 63 63
63 63 63
63 63 63
63 63 63
63 63 63
63 63 63
63 63 63
63 63 63
63 63 63
63 63 63
63 63 63
63 63 63
63 63 63
63 63 63
63 63 63
63 63 63
63 63 63
63 63 63
63 63 63
63 63 63
63 63 63
63 63 63
63 63 63
63 63 63
63 63 63
63 63 63
63 63 63
63 63 63
63 63 63
63 63 63
63 63 63
63 63 63
63 63 63
63 63 63
63 63 63
63 63 63
63 63 63
63 63 63
63 63 63
63 63 63
63 63 63
63 63 63
63 63 63
63 63 63
63 63 63
63 63 63
63 63 63
63 63 63
63 63 63
63 63 63
63 63 63
63 63 63
63 63 63
63 63 63
63 63 63
63 63 63
63 63 63
63 63 63
63 63 63
63 63 63
63 63 63
63 63 63
63 63 63
63 63 63
63 63 63
63 63 63
63 63 63
63 63 63
63 63 63
63 63 63
63 63 63
63 63 63
63 63 63
63 63 63
63 63 63
63 63 63
63 63 63
63 63 63
63 63 63
63 63 63
63 63 63
63 63 63
63 63 63
63 63 63
63 63 63
63 63 63
63 63 63
63 63 63
63 63 63
63 63 63
63 63 63
63 63 63
63 63 63
63 63 63
63 63 63
63 63 63
63 63 63
63 63 63
63 63 63
63 63 63
63 63 63
63 63 63
63 63 63
63 63 63
63 63 63
63 63 63
63 63 63
63 63 63
63 63 63
63 63 63
63 63 63
63 63 63
63 63 63
63 63 63
63 63 63
63 63 63
63 63 63
63 63 63
63 63 63
63 63 63
63 63 63
63 63 63
63 63 63
63 63 63
63 63 63
63 63 63
63 63 63
63 63 63
63 63 63
63 63 63
63 63 63
63 63 63
63 63 63
63 63 63
63 63 63
63 63 63
63 63 63
63 63 63
63 63 63
63 63 63
63 63 63
63 63 63
63 63 63
63 63 63
63 63 63
63 63 63
63 63 63
63 63 63
63 63 63
63 63 63
63 63 63
63 63 63
63 63 63
63 63 63
63 63 63
63 63 63
63 63 63
63 63 63
63 63 63
63 63 63
63 63 63
63 63 63
63 63 63
63 63 63
63 63 63
63 63 63
63 63 63
63 63 63
63 63 63
63 63 63
63 63 63
63 63 63
63 63 63
63 63 63
63 63 63
63 63 63
63 63 63
63 63 63
63 63 63
63 63 63
63 63 63
63 63 63
63 63 63
63 63 63
63 63 63
63 63 63
63 63 63
63 63 63
63 63 63
63 63 63
63 63 63
63 63 63
63 63 63
63 63 63
63 63 63
63 63 63
63 63 63
63 63 63
63 63 63
63 63 63
63 63 63
63 63 63
63 63 63
63 63 63
63 63 63
63 63 63
63 63 63
63 63 63
63 63 63
63 63 63
63 63 63
63 63 63
63 63 63
63 63 63
63 63 63
63 63 63
63 63 63
63 63 63
63 63 63
63 63 63
63 63 63
63 63 63
63 63 63
63 63 63
63 63 63
63 63 63
63 63 63
63 63 63
63 63 63
63 63 63
63 63 63
63 63 63
63 63 63
63 63 63
63 63 63
63 63 63
63 63 63
63 63 63
63 63 63
63 63 63
63 63 63
63 63 63
63 63 63
63 63 63
63 63 63
63 63 63
63 63 63
63 63 63
63 63 63
63 63 63
63 63 63
63 63 63
63 63 63
63 63 63
63 63 63
63 63 63
63 63 63
63 63 63
63 63 63
63 63 63
63 63 63
63 63 63
63 63 63
63 63 63
63 63 63
63 63 63
63 63 63
63 63 63
63 63 63
63 63 63
63 63 63
63 63 63
63 63 63
63 63 63
63 63 63
63 63 63
63 63 63
63 63 63
63 63 63
63 63 63
63 63 63
63 63 63
63 63 63
63 63 63
63 63 63
63 63 63
63 63 63
63 63 63
63 63 63
63 63 63
63 63 63
63 63 63
63 63 63
63 63 63
63 63 63
63 63 63
63 63 63
63 63 63
63 63 63
63 63 63
63 63 63
63 63 63
63 63 63
63 63 63
63 63 63
63 63 63
63 63 63
63 63 63
63 63 63
63 63 63
63 63 63
63 63 63
63 63 63
63 63 63
63 63 63
63 63 63
63 63 63
63 63 63
63 63 63
63 63 63
63 63 63
63 63 63
63 63 63
63 63 63
63 63 63
63 63 63
63 63 63
63 63 63
63 63 63
63 63 63
63 63 63
63 63 63
63 63 63
63 63 63
63 63 63
63 63 63
63 63 63
63 63 63
63 63 63
63 63 63
63 63 63
63 63 63
63 63 63
63 63 63
63 63 63
63 63 63
63 63 63
63 63 63
63 63 63
63 63 63
63 63 63
63 63 63
63 63 63
63 63 63
63 63 63
63 63 63
63 63 63
63 63 63
63 63 63
63 63 63
63 63 63
63 63 63
63 63 63
63 63 63
63 63 63
63 63 63
63 63 63
63 63 63
63 63 63
63 63 63
63 63 63
63 63 63
63 63 63
63 63 63
63 63 63
63 63 63
63 63 63
63 63 63
63 63 63
63 63 63
63 63 63
63 63 63
63 63 63
63 63 63
63 63 63
63 63 63
63 63 63
63 63 63
63 63 63
63 63 63
63 63 63
63 63 63
63 63 63
63 63 63
63 63 63
63 63 63
63 63 63
63 63 63
63 63 63
63 63 63
63 63 63
63 63 63
63 63 63
63 63 63
63 63 63
63 63 63
63 63 63
63 63 63
63 63 63
63 63 63
63 63 63
63 63 63
63 63 63
63 63 63
63 63 63
63 63 63
63 63 63
63 63 63
63 63 63
63 63 63
63 63 63
63 63 63
63 63 63
63 63 63
63 63 63
63 63 63
63 63 63
63 63 63
63 63 63
63 63 63
63 63 63
63 63 63
63 63 63
63 63 63
63 63 63
63 63 63
63 63 63
63 63 63
63 63 63
63 63 63
63 63 63
63 63 63
63 63 63
63 63 63
63 63 63
63 63 63
63 63 63
63 63 63
63 63 63
63 63 63
63 63 63
63 63 63
63 63 63
63 63 63
63 63 63
63 63 63
63 63 63
63 63 63
63 63 63
63 63 63
63 63 63
63 63 63
63 63 63
63 63 63
63 63 63
63 63 63
63 63 63
63 63 63
63 63 63
63 63 63
63 63 63
63 63 63
63 63 63
63 63 63
63 63 63
63 63 63
63 63 63
63 63 63
63 63 63
63 63 63
63 63 63
63 63 63
63 63 63
63 63 63
63 63 63
63 63 63
63 63 63
63 63 63
63 63 63
63 63 63
63 63 63
63 63 63
63 63 63
63 63 63
63 63 63
63 63 63
63 63 63
63 63 63
63 63 63
63 63 63
63 63 63
63 63 63
63 63 63
63 63 63
63 63 63
63 63 63
63 63 63
63 63 63
63 63 63
63 63 63
63 63 63
63 63 63
63 63 63
63 63 63
63 63 63
63 63 63
63 63 63
63 63 63
63 63 63
63 63 63
63 63 63
63 63 63
63 63 63
63 63 63
63 63 63
63 63 63
63 63 63
63 63 63
63 63 63
63 63 63
63 63 63
63 63 63
63 63 63
63 63 63
63 63 63
63 63 63
63 63 63
63 63 63
63 63 63
63 63 63
63 63 63
63 63 63
63 63 63
63 63 63
63 63 63
63 63 63
63 63 63
63 63 63
63 63 63
63 63 63
63 63 63
63 63 63
63 63 63
63 63 63
63 63 63
63 63 63
63 63 63
63 63 63
63 63 63
63 63 63
63 63 63
63 63 63
63 63 63
63 63 63
63 63 63
63 63 63
63 63 63
63 63 63
63 63 63
63 63 63
63 63 63
63 63 63
63 63 63
63 63 63
63 63 63
63 63 63
63 63 63
63 63 63
63 63 63
63 63 63
63 63 63
63 63 63
63 63 63
63 63 63
63 63 63
63 63 63
63 63 63
63 63 63
63 63 63
63 63 63
63 63 63
63 63 63
63 63 63
63 63 63
63 63 63
63 63 63
63 63 63
63 63 63
63 63 63
63 63 63
63 63 63
63 63 63
63 63 63
63 63 63
63 63 63
63 63 63
63 63 63
63 63 63
63 63 63
63 63 63
63 63 63
63 63 63
63 63 63
63 63 63
63 63 63
63 63 63
63 63 63
63 63 63
63 63 63
63 63 63
63 63 63
63 63 63
63 63 63
63 63 63
63 63 63
63 63 63
63 63 63
63 63 63
63 63 63
63 63 63
63 63 63
63 63 63
63 63 63
63 63 63
63 63 63
63 63 63
63 63 63
63 63 63
63 63 63
63 63 63
63 63 63
63 63 63
63 63 63
63 63 63
63 63 63
63 63 63
63 63 63
63 63 63
63 63 63
63 63 63
63 63 63
63 63 63
63 63 63
63 63 63
63 63 63
63 63 63
63 63 63
63 63 63
63 63 63
63 63 63
63 63 63
63 63 63
63 63 63
63 63 63
63 63 63
63 63 63
63 63 63
63 63 63
63 63 63
63 63 63
63 63 63
63 63 63
63 63 63
63 63 63
63 63 63
63 63 63
63 63 63
63 63 63
63 63 63
63 63 63
63 63 63
63 63 63
63 63 63
63 63 63
63 63 63
63 63 63
63 63 63
63 63 63
63 63 63
63 63 63
63 63 63
63 63 63
63 63 63
63 63 63
63 63 63
63 63 63
63 63 63
63 63 63
63 63 63
63 63 63
63 63 63
63 63 63
63 63 63
63 63 63
63 63 63
63 63 63
63 63 63
63 63 63
63 63 63
63 63 63
63 63 63
63 63 63
63 63 63
63 63 63
63 63 63
63 63 63
63 63 63
63 63 63
63 63 63
63 63 63
63 63 63
63 63 63
63 63 63
63 63 63
63 63 63
63 63 63
63 63 63
63 63 63
63 63 63
63 63 63
63 63 63
63 63 63
63 63 63
63 63 63
63 63 63
63 63 63
63 63 63
63 63 63
63 63 63
63 63 63
63 63 63
63 63 63
63 63 63
63 63 63
63 63 63
63 63 63
63 63 63
63 63 63
63 63 63
63 63 63
63 63 63
63 63 63
63 63 63
63 63 63
63 63 63
63 63 63
63 63 63
63 63 63
63 63 63
63 63 63
63 63 63
63 63 63
63 63 63
63 63 63
63 63 63
63 63 63
63 63 63
63 63 63
63 63 63
63 63 63
63 63 63
63 63 63
63 63 63
63 63 63
63 63 63
63 63 63
63 63 63
63 63 63
63 63 63
63 63 63
63 63 63
63 63 63
63 63 63
63 63 63
63 63 63
63 63 63
63 63 63
63 63 63
63 63 63
63 63 63
63 63 63
63 63 63
63 63 63
63 63 63
63 63 63
63 63 63
63 63 63
63 63 63
63 63 63
63 63 63
63 63 63
63 63 63
63 63 63
63 63 63
63 63 63
63 63 63
63 63 63
63 63 63
63 63 63
63 63 63
63 63 63
63 63 63
63 63 63
63 63 63
63 63 63
63 63 63
63 63 63
63 63 63
63 63 63
63 63 63
63 63 63
63 63 63
63 63 63
63 63 63
63 63 63
63 63 63
63 63 63
63 63 63
63 63 63
63 63 63
63 63 63
63 63 63
63 63 63
63 63 63
63 63 63
63 63 63
63 63 63
63 63 63
63 63 63
63 63 63
63 63 63
63 63 63
63 63 63
63 63 63
63 63 63
63 63 63
63 63 63
63 63 63
63 63 63
63 63 63
63 63 63
63 63 63
63 63 63
63 63 63
63 63 63
63 63 63
63 63 63
63 63 63
63 63 63
63 63 63
63 63 63
63 63 63
63 63 63
63 63 63
63 63 63
63 63 63
63 63 63
63 63 63
63 63 63
63 63 63
63 63 63
63 63 63
63 63 63
63 63 63
63 63 63
63 63 63
63 63 63
63 63 63
63 63 63
63 63 63
63 63 63
63 63 63
63 63 63
63 63 63
63 63 63
63 63 63
63 63 63
63 63 63
63 63 63
63 63 63
63 63 63
63 63 63
63 63 63
63 63 63
63 63 63
63 63 63
63 63 63
63 63 63
63 63 63
63 63 63
63 63 63
63 63 63
63 63 63
63 63 63
63 63 63
63 63 63
63 63 63
63 63 63
63 63 63
63 63 63
63 63 63
63 63 63
63 63 63
63 63 63
63 63 63
63 63 63
63 63 63
63 63 63
63 63 63
63 63 63
63 63 63
63 63 63
63 63 63
63 63 63
63 63 63
63 63 63
63 63 63
63 63 63
63 63 63
63 63 63
63 63 63
63 63 63
63 63 63
63 63 63
63 63 63
63 63 63
63 63 63
63 63 63
63 63 63
63 63 63
63 63 63
63 63 63
63 63 63
63 63 63
63 63 63
63 63 63
63 63 63
63 63 63
63 63 63
63 63 63
63 63 63
63 63 63
63 63 63
63 63 63
63 63 63
63 63 63
63 63 63
63 63 63
63 63 63
63 63 63
63 63 63
63 63 63
63 63 63
63 63 63
63 63 63
63 63 63
63 63 63
63 63 63
63 63 63
63 63 63
63 63 63
63 63 63
63 63 63
63 63 63
63 63 63
63 63 63
63 63 63
63 63 63
63 63 63
63 63 63
63 63 63
63 63 63
63 63 63
63 63 63
63 63 63
63 63 63
63 63 63
63 63 63
63 63 63
63 63 63
63 63 63
63 63 63
63 63 63
63 63 63
63 63 63
63 63 63
63 63 63
63 63 63
63 63 63
63 63 63
63 63 63
63 63 63
63 63 63
63 63 63
63 63 63
63 63 63
63 63 63
63 63 63
63 63 63
63 63 63
63 63 63
63 63 63
63 63 63
63 63 63
63 63 63
63 63 63
63 63 63
63 63 63
63 63 63
63 63 63
63 63 63
63 63 63
63 63 63
63 63 63
63 63 63
63 63 63
63 63 63
63 63 63
63 63 63
63 63 63
63 63 63
63 63 63
63 63 63
63 63 63
63 63 63
63 63 63
63 63 63
63 63 63
63 63 63
63 63 63
63 63 63
63 63 63
63 63 63
63 63 63
63 63 63
63 63 63
63 63 63
63 63 63
63 63 63
63 63 63
63 63 63
63 63 63
63 63 63
63 63 63
63 63 63
63 63 63
63 63 63
63 63 63
63 63 63
63 63 63
63 63 63
63 63 63
63 63 63
63 63 63
63 63 63
63 63 63
63 63 63
63 63 63
63 63 63
63 63 63
63 63 63
63 63 63
63 63 63
63 63 63
63 63 63
63 63 63
63 63 63
63 63 63
63 63 63
63 63 63
63 63 63
63 63 63
63 63 63
63 63 63
63 63 63
63 63 63
63 63 63
63 63 63
63 63 63
63 63 63
63 63 63
63 63 63
63 63 63
63 63 63
63 63 63
63 63 63
63 63 63
63 63 63
63 63 63
63 63 63
63 63 63
63 63 63
63 63 63
63 63 63
63 63 63
63 63 63
63 63 63
63 63 63
63 63 63
63 63 63
63 63 63
63 63 63
63 63 63
63 63 63
63 63 63
63 63 63
63 63 63
63 63 63
63 63 63
63 63 63
63 63 63
63 63 63
63 63 63
63 63 63
63 63 63
63 63 63
63 63 63
63 63 63
63 63 63
63 63 63
63 63 63
63 63 63
63 63 63
63 63 63
63 63 63
63 63 63
63 63 63
63 63 63
63 63 63
63 63 63
63 63 63
63 63 63
63 63 63
63 63 63
63 63 63
63 63 63
63 63 63
63 63 63
63 63 63
63 63 63
63 63 63
63 63 63
63 63 63
63 63 63
63 63 63
63 63 63
63 63 63
63 63 63
63 63 63
63 63 63
63 63 63
63 63 63
63 63 63
63 63 63
63 63 63
63 63 63
63 63 63
63 63 63
63 63 63
63 63 63
63 63 63
63 63 63
63 63 63
63 63 63
63 63 63
63 63 63
63 63 63
63 63 63
63 63 63
63 63 63
63 63 63
63 63 63
63 63 63
63 63 63
63 63 63
63 63 63
63 63 63
63 63 63
63 63 63
63 63 63
63 63 63
63 63 63
63 63 63
63 63 63
63 63 63
63 63 63
63 63 63
63 63 63
63 63 63
63 63 63
63 63 63
63 63 63
63 63 63
63 63 63
63 63 63
63 63 63
63 63 63
63 63 63
63 63 63
63 63 63
63 63 63
63 63 63
63 63 63
63 63 63
63 63 63
63 63 63
63 63 63
63 63 63
63 63 63
63 63 63
63 63 63
63 63 63
63 63 63
63 63 63
63 63 63
63 63 63
63 63 63
63 63 63
63 63 63
63 63 63
63 63 63
63 63 63
63 63 63
63 63 63
63 63 63
63 63 63
63 63 63
63 63 63
63 63 63
63 63 63
63 63 63
63 63 63
63 63 63
63 63 63
63 63 63
63 63 63
63 63 63
63 63 63
63 63 63
63 63 63
63 63 63
63 63 63
63 63 63
63 63 63
63 63 63
63 63 63
63 63 63
63 63 63
63 63 63
63 63 63
63 63 63
63 63 63
63 63 63
63 63 63
63 63 63
63 63 63
63 63 63
63 63 63
63 63 63
63 63 63
63 63 63
63 63 63
63 63 63
63 63 63
63 63 63
63 63 63
63 63 63
63 63 63
63 63 63
63 63 63
63 63 63
63 63 63
63 63 63
63 63 63
63 63 63
63 63 63
63 63 63
63 63 63
63 63 63
63 63 63
63 63 63
63 63 63
63 63 63
63 63 63
63 63 63
63 63 63
63 63 63
63 63 63
63 63 63
63 63 63
63 63 63
63 63 63
63 63 63
63 63 63
63 63 63
63 63 63
63 63 63
63 63 63
63 63 63
63 63 63
63 63 63
63 63 63
63 63 63
63 63 63
63 63 63
63 63 63
63 63 63
63 63 63
63 63 63
63 63 63
63 63 63
63 63 63
63 63 63
63 63 63
63 63 63
63 63 63
63 63 63
63 63 63
63 63 63
63 63 63
63 63 63
63 63 63
63 63 63
63 63 63
63 63 63
63 63 63
63 63 63
63 63 63
63 63 63
63 63 63
63 63 63
63 63 63
63 63 63
63 63 63
63 63 63
63 63 63
63 63 63
63 63 63
63 63 63
63 63 63
63 63 63
63 63 63
63 63 63
63 63 63
63 63 63
63 63 63
63 63 63
63 63 63
63 63 63
63 63 63
63 63 63
63 63 63
63 63 63
63 63 63
63 63 63
63 63 63
63 63 63
63 63 63
63 63 63
63 63 63
63 63 63
63 63 63
63 63 63
63 63 63
63 63 63
63 63 63
63 63 63
63 63 63
63 63 63
63 63 63
63 63 63
63 63 63
63 63 63
63 63 63
63 63 63
63 63 63
63 63 63
63 63 63
63 63 63
63 63 63
63 63 63
63 63 63
63 63 63
63 63 63
63 63 63
63 63 63
63 63 63
63 63 63
63 63 63
63 63 63
63 63 63
63 63 63
63 63 63
63 63 63
63 63 63
63 63 63
63 63 63
63 63 63
63 63 63
63 63 63
63 63 63
63 63 63
63 63 63
63 63 63
63 63 63
63 63 63
63 63 63
63 63 63
63 63 63
63 63 63
63 63 63
63 63 63
63 63 63
63 63 63
63 63 63
63 63 63
63 63 63
63 63 63
63 63 63
63 63 63
63 63 63
63 63 63
63 63 63
63 63 63
63 63 63
63 63 63
63 63 63
63 63 63
63 63 63
63 63 63
63 63 63
63 63 63
63 63 63
63 63 63
63 63 63
63 63 63
63 63 63
63 63 63
63 63 63
63 63 63
63 63 63
63 63 63
63 63 63
63 63 63
63 63 63
63 63 63
63 63 63
63 63 63
63 63 63
63 63 63
63 63 63
63 63 63
63 63 63
63 63 63
63 63 63
63 63 63
63 63 63
63 63 63
63 63 63
63 63 63
63 63 63
63 63 63
63 63 63
63 63 63
63 63 63
63 63 63
63 63 63
63 63 63
63 63 63
63 63 63
63 63 63
63 63 63
63 63 63
63 63 63
63 63 63
63 63 63
63 63 63
63 63 63
63 63 63
63 63 63
63 63 63
63 63 63
63 63 63
63 63 63
63 63 63
63 63 63
63 63 63
63 63 63
63 63 63
63 63 63
63 63 63
63 63 63
63 63 63
63 63 63
63 63 63
63 63 63
63 63 63
63 63 63
63 63 63
63 63 63
63 63 63
63 63 63
63 63 63
63 63 63
63 63 63
63 63 63
63 63 63
63 63 63
63 63 63
63 63 63
63 63 63
63 63 63
63 63 63
63 63 63
63 63 63
63 63 63
63 63 63
63 63 63
63 63 63
63 63 63
63 63 63
63 63 63
63 63 63
63 63 63
63 63 63
63 63 63
63 63 63
63 63 63
63 63 63
63 63 63
63 63 63
63 63 63
63 63 63
63 63 63
63 63 63
63 63 63
63 63 63
63 63 63
63 63 63
63 63 63
63 63 63
63 63 63
63 63 63
63 63 63
63 63 63
63 63 63
63 63 63
63 63 63
63 63 63
63 63 63
63 63 63
63 63 63
63 63 63
63 63 63
63 63 63
63 63 63
63 63 63
63 63 63
63 63 63
63 63 63
63 63 63
63 63 63
63 63 63
63 63 63
63 63 63
63 63 63
63 63 63
63 63 63
63 63 63
63 63 63
63 63 63
63 63 63
63 63 63
63 63 63
63 63 63
63 63 63
63 63 63
63 63 63
63 63 63
63 63 63
63 63 63
63 63 63
63 63 63
63 63 63
63 63 63
63 63 63
63 63 63
63 63 63
63 63 63
63 63 63
63 63 63
63 63 63
63 63 63
63 63 63
63 63 63
63 63 63
63 63 63
63 63 63
63 63 63
63 63 63
63 63 63
63 63 63
63 63 63
63 63 63
63 63 63
63 63 63
63 63 63
63 63 63
63 63 63
63 63 63
63 63 63
63 63 63
63 63 63
63 63 63
63 63 63
63 63 63
63 63 63
63 63 63
63 63 63
63 63 63
63 63 63
63 63 63
63 63 63
63 63 63
63 63 63
63 63 63
63 63 63
63 63 63
63 63 63
63 63 63
63 63 63
63 63 63
63 63 63
63 63 63
63 63 63
63 63 63
63 63 63
63 63 63
63 63 63
63 63 63
63 63 63
63 63 63
63 63 63
63 63 63
63 63 63
63 63 63
63 63 63
63 63 63
63 63 63
63 63 63
63 63 63
63 63 63
63 63 63
63 63 63
63 63 63
63 63 63
63 63 63
63 63 63
63 63 63
63 63 63
63 63 63
63 63 63
63 63 63
63 63 63
63 63 63
63 63 63
63 63 63
63 63 63
63 63 63
63 63 63
63 63 63
63 63 63
63 63 63
63 63 63
63 63 63
63 63 63
63 63 63
63 63 63
63 63 63
63 63 63
63 63 63
63 63 63
63 63 63
63 63 63
63 63 63
63 63 63
63 63 63
63 63 63
63 63 63
63 63 63
63 63 63
63 63 63
63 63 63
63 63 63
63 63 63
63 63 63
63 63 63
63 63 63
63 63 63
63 63 63
63 63 63
63 63 63
63 63 63
63 63 63
63 63 63
63 63 63
63 63 63
63 63 63
63 63 63
63 63 63
63 63 63
63 63 63
63 63 63
63 63 63
63 63 63
63 63 63
63 63 63
63 63 63
63 63 63
63 63 63
63 63 63
63 63 63
63 63 63
63 63 63
63 63 63
63 63 63
63 63 63
63 63 63
63 63 63
63 63 63
63 63 63
63 63 63
63 63 63
63 63 63
63 63 63
63 63 63
63 63 63
63 63 63
63 63 63
63 63 63
63 63 63
63 63 63
63 63 63
63 63 63
63 63 63
63 63 63
63 63 63
63 63 63
63 63 63
63 63 63
63 63 63
63 63 63
63 63 63
63 63 63
63 63 63
63 63 63
63 63 63
63 63 63
63 63 63
63 63 63
63 63 63
63 63 63
63 63 63
63 63 63
63 63 63
63 63 63
63 63 63
63 63 63
63 63 63
63 63 63
63 63 63
63 63 63
63 63 63
63 63 63
63 63 63
63 63 63
63 63 63
63 63 63
63 63 63
63 63 63
63 63 63
63 63 63
63 63 63
63 63 63
63 63 63
63 63 63
63 63 63
63 63 63
63 63 63
63 63 63
63 63 63
63 63 63
63 63 63
63 63 63
63 63 63
63 63 63
63 63 63
63 63 63
63 63 63
63 63 63
63 63 63
63 63 63
63 63 63
63 63 63
63 63 63
63 63 63
63 63 63
63 63 63
63 63 63
63 63 63
63 63 63
63 63 63
63 63 63
63 63 63
63 63 63
63 63 63
63 63 63
63 63 63
63 63 63
63 63 63
63 63 63
63 63 63
63 63 63
63 63 63
63 63 63
63 63 63
63 63 63
63 63 63
63 63 63
63 63 63
63 63 63
63 63 63
63 63 63
63 63 63
63 63 63
63 63 63
63 63 63
63 63 63
63 63 63
63 63 63
63 63 63
63 63 63
63 63 63
63 63 63
63 63 63
63 63 63
63 63 63
63 63 63
63 63 63
63 63 63
63 63 63
63 63 63
63 63 63
63 63 63
63 63 63
63 63 63
63 63 63
63 63 63
63 63 63
63 63 63
63 63 63
63 63 63
63 63 63
63 63 63
63 63 63
63 63 63
63 63 63
63 63 63
63 63 63
63 63 63
63 63 63
63 63 63
63 63 63
63 63 63
63 63 63
63 63 63
63 63 63
63 63 63
63 63 63
63 63 63
63 63 63
63 63 63
63 63 63
63 63 63
63 63 63
63 63 63
63 63 63
63 63 63
63 63 63
63 63 63
63 63 63
63 63 63
63 63 63
63 63 63
63 63 63
63 63 63
63 63 63
63 63 63
63 63 63
63 63 63
63 63 63
63 63 63
63 63 63
63 63 63
63 63 63
63 63 63
63 63 63
63 63 63
63 63 63
63 63 63
63 63 63
63 63 63
63 63 63
63 63 63
63 63 63
63 63 63
63 63 63
63 63 63
63 63 63
63 63 63
63 63 63
63 63 63
63 63 63
63 63 63
63 63 63
63 63 63
63 63 63
63 63 63
63 63 63
63 63 63
63 63 63
63 63 63
63 63 63
63 63 63
63 63 63
63 63 63
63 63 63
63 63 63
63 63 63
63 63 63
63 63 63
63 63 63
63 63 63
63 63 63
63 63 63
63 63 63
63 63 63
63 63 63
63 63 63
63 63 63
63 63 63
63 63 63
63 63 63
63 63 63
63 63 63
63 63 63
63 63 63
63 63 63
63 63 63
63 63 63
63 63 63
63 63 63
63 63 63
63 63 63
63 63 63
63 63 63
63 63 63
63 63 63
63 63 63
63 63 63
63 63 63
63 63 63
63 63 63
63 63 63
63 63 63
63 63 63
63 63 63
63 63 63
63 63 63
63 63 63
63 63 63
63 63 63
63 63 63
63 63 63
63 63 63
63 63 63
63 63 63
63 63 63
63 63 63
63 63 63
63 63 63
63 63 63
63 63 63
63 63 63
63 63 63
63 63 63
63 63 63
63 63 63
63 63 63
63 63 63
63 63 63
63 63 63
63 63 63
63 63 63
63 63 63
63 63 63
63 63 63
63 63 63
63 63 63
63 63 63
63 63 63
63 63 63
63 63 63
63 63 63
63 63 63
63 63 63
63 63 63
63 63 63
63 63 63
63 63 63
63 63 63
63 63 63
63 63 63
63 63 63
63 63 63
63 63 63
63 63 63
63 63 63
63 63 63
63 63 63
63 63 63
63 63 63
63 63 63
63 63 63
63 63 63
63 63 63
63 63 63
63 63 63
63 63 63
63 63 63
63 63 63
63 63 63
63 63 63
63 63 63
63 63 63
63 63 63
63 63 63
63 63 63
63 63 63
63 63 63
63 63 63
63 63 63
63 63 63
63 63 63
63 63 63
63 63 63
63 63 63
63 63 63
63 63 63
63 63 63
63 63 63
63 63 63
63 63 63
63 63 63
63 63 63
63 63 63
63 63 63
63 63 63
63 63 63
63 63 63
63 63 63
63 63 63
63 63 63
63 63 63
63 63 63
63 63 63
63 63 63
63 63 63
63 63 63
63 63 63
63 63 63
63 63 63
63 63 63
63 63 63
63 63 63
63 63 63
63 63 63
63 63 63
63 63 63
63 63 63
63 63 63
63 63 63
63 63 63
63 63 63
63 63 63
63 63 63
63 63 63
63 63 63
63 63 63
63 63 63
63 63 63
63 63 63
63 63 63
63 63 63
63 63 63
63 63 63
63 63 63
63 63 63
63 63 63
63 63 63
63 63 63
63 63 63
63 63 63
63 63 63
63 63 63
63 63 63
63 63 63
63 63 63
63 63 63
63 63 63
63 63 63
63 63 63
63 63 63
63 63 63
63 63 63
63 63 63
63 63 63
63 63 63
63 63 63
63 63 63
63 63 63
63 63 63
63 63 63
63 63 63
63 63 63
63 63 63
63 63 63
63 63 63
63 63 63
63 63 63
63 63 63
63 63 63
63 63 63
63 63 63
63 63 63
63 63 63
63 63 63
63 63 63
63 63 63
63 63 63
63 63 63
63 63 63
63 63 63
63 63 63
63 63 63
63 63 63
63 63 63
63 63 63
63 63 63
63 63 63
63 63 63
63 63 63
63 63 63
63 63 63
63 63 63
63 63 63
63 63 63
63 63 63
63 63 63
63 63 63
63 63 63
63 63 63
63 63 63
63 63 63
63 63 63
63 63 63
63 63 63
63 63 63
63 63 63
63 63 63
63 63 63
63 63 63
63 63 63
63 63 63
63 63 63
63 63 63
63 63 63
63 63 63
63 63 63
63 63 63
63 63 63
63 63 63
63 63 63
63 63 63
63 63 63
63 63 63
63 63 63
63 63 63
63 63 63
63 63 63
63 63 63
63 63 63
63 63 63
63 63 63
63 63 63
63 63 63
63 63 63
63 63 63
63 63 63
63 63 63
63 63 63
63 63 63
63 63 63
63 63 63
63 63 63
63 63 63
63 63 63
63 63 63
63 63 63
63 63 63
63 63 63
63 63 63
63 63 63
63 63 63
63 63 63
63 63 63
63 63 63
63 63 63
63 63 63
63 63 63
63 63 63
63 63 63
63 63 63
63 63 63
63 63 63
63 63 63
63 63 63
63 63 63
63 63 63
63 63 63
63 63 63
63 63 63
63 63 63
63 63 63
63 63 63
63 63 63
63 63 63
63 63 63
63 63 63
63 63 63
63 63 63
63 63 63
63 63 63
63 63 63
63 63 63
63 63 63
63 63 63
63 63 63
63 63 63
63 63 63
63 63 63
63 63 63
63 63 63
63 63 63
63 63 63
63 63 63
63 63 63
63 63 63
63 63 63
63 63 63
63 63 63
63 63 63
63 63 63
63 63 63
63 63 63
63 63 63
63 63 63
63 63 63
63 63 63
63 63 63
63 63 63
63 63 63
63 63 63
63 63 63
63 63 63
63 63 63
63 63 63
63 63 63
63 63 63
63 63 63
63 63 63
63 63 63
63 63 63
63 63 63
63 63 63
63 63 63
63 63 63
63 63 63
63 63 63
63 63 63
63 63 63
63 63 63
63 63 63
63 63 63
63 63 63
63 63 63
63 63 63
63 63 63
63 63 63
63 63 63
63 63 63
63 63 63
63 63 63
63 63 63
63 63 63
63 63 63
63 63 63
63 63 63
63 63 63
63 63 63
63 63 63
63 63 63
63 63 63
63 63 63
63 63 63
63 63 63
63 63 63
63 63 63
63 63 63
63 63 63
63 63 63
63 63 63
63 63 63
63 63 63
63 63 63
63 63 63
63 63 63
63 63 63
63 63 63
63 63 63
63 63 63
63 63 63
63 63 63
63 63 63
63 63 63
63 63 63
63 63 63
63 63 63
63 63 63
63 63 63
63 63 63
63 63 63
63 63 63
63 63 63
63 63 63
63 63 63
63 63 63
63 63 63
63 63 63
63 63 63
63 63 63
63 63 63
63 63 63
63 63 63
63 63 63
63 63 63
63 63 63
63 63 63
63 63 63
63 63 63
63 63 63
63 63 63
63 63 63
63 63 63
63 63 63
63 63 63
63 63 63
63 63 63
63 63 63
63 63 63
63 63 63
63 63 63
63 63 63
63 63 63
63 63 63
63 63 63
63 63 63
63 63 63
63 63 63
63 63 63
63 63 63
63 63 63
63 63 63
63 63 63
63 63 63
63 63 63
63 63 63
63 63 63
63 63 63
63 63 63
63 63 63
63 63 63
63 63 63
63 63 63
63 63 63
63 63 63
63 63 63
63 63 63
63 63 63
63 63 63
63 63 63
63 63 63
63 63 63
63 63 63
63 63 63
63 63 63
63 63 63
63 63 63
63 63 63
63 63 63
63 63 63
63 63 63
63 63 63
63 63 63
63 63 63
63 63 63
63 63 63
63 63 63
63 63 63
63 63 63
63 63 63
63 63 63
63 63 63
63 63 63
63 63 63
63 63 63
63 63 63
63 63 63
63 63 63
63 63 63
63 63 63
63 63 63
63 63 63
63 63 63
63 63 63
63 63 63
63 63 63
63 63 63
63 63 63
63 63 63
63 63 63
63 63 63
63 63 63
63 63 63
63 63 63
63 63 63
63 63 63
63 63 63
63 63 63
63 63 63
63 63 63
63 63 63
63 63 63
63 63 63
63 63 63
63 63 63
63 63 63
63 63 63
63 63 63
63 63 63
63 63 63
63 63 63
63 63 63
63 63 63
63 63 63
63 63 63
63 63 63
63 63 63
63 63 63
63 63 63
63 63 63
63 63 63
63 63 63
63 63 63
63 63 63
63 63 63
63 63 63
63 63 63
63 63 63
63 63 63
63 63 63
63 63 63
63 63 63
63 63 63
63 63 63
63 63 63
63 63 63
63 63 63
63 63 63
63 63 63
63 63 63
63 63 63
63 63 63
63 63 63
63 63 63
63 63 63
63 63 63
63 63 63
63 63 63
63 63 63
63 63 63
63 63 63
63 63 63
63 63 63
63 63 63
63 63 63
63 63 63
63 63 63
63 63 63
63 63 63
63 63 63
63 63 63
63 63 63
63 63 63
63 63 63
63 63 63
63 63 63
63 63 63
63 63 63
63 63 63
63 63 63
63 63 63
63 63 63
63 63 63
63 63 63
63 63 63
63 63 63
63 63 63
63 63 63
63 63 63
63 63 63
63 63 63
63 63 63
63 63 63
63 63 63
63 63 63
63 63 63
63 63 63
63 63 63
63 63 63
63 63 63
63 63 63
63 63 63
63 63 63
63 63 63
63 63 63
63 63 63
63 63 63
63 63 63
63 63 63
63 63 63
63 63 63
63 63 63
63 63 63
63 63 63
63 63 63
63 63 63
63 63 63
63 63 63
63 63 63
63 63 63
63 63 63
63 63 63
63 63 63
63 63 63
63 63 63
63 63 63
63 63 63
63 63 63
63 63 63
63 63 63
63 63 63
63 63 63
63 63 63
63 63 63
63 63 63
63 63 63
63 63 63
63 63 63
63 63 63
63 63 63
63 63 63
63 63 63
63 63 63
63 63 63
63 63 63
63 63 63
63 63 63
63 63 63
63 63 63
63 63 63
63 63 63
63 63 63
63 63 63
63 63 63
63 63 63
63 63 63
63 63 63
63 63 63
63 63 63
63 63 63
63 63 63
63 63 63
63 63 63
63 63 63
63 63 63
63 63 63
63 63 63
63 63 63
63 63 63
63 63 63
63 63 63
63 63 63
63 63 63
63 63 63
63 63 63
63 63 63
63 63 63
63 63 63
63 63 63
63 63 63
63 63 63
63 63 63
63 63 63
63 63 63
63 63 63
63 63 63
63 63 63
63 63 63
63 63 63
63 63 63
63 63 63
63 63 63
63 63 63
63 63 63
63 63 63
63 63 63
63 63 63
63 63 63
63 63 63
63 63 63
63 63 63
63 63 63
63 63 63
63 63 63
63 63 63
63 63 63
63 63 63
63 63 63
63 63 63
63 63 63
63 63 63
63 63 63
63 63 63
63 63 63
63 63 63
63 63 63
63 63 63
63 63 63
63 63 63
63 63 63
63 63 63
63 63 63
63 63 63
63 63 63
63 63 63
63 63 63
63 63 63
63 63 63
63 63 63
63 63 63
63 63 63
63 63 63
63 63 63
63 63 63
63 63 63
63 63 63
63 63 63
63 63 63
63 63 63
63 63 63
63 63 63
63 63 63
63 63 63
63 63 63
63 63 63
63 63 63
63 63 63
63 63 63
63 63 63
63 63 63
63 63 63
63 63 63
63 63 63
63 63 63
63 63 63
63 63 63
63 63 63
63 63 63
63 63 63
63 63 63
63 63 63
63 63 63
63 63 63
63 63 63
63 63 63
63 63 63
63 63 63
63 63 63
63 63 63
63 63 63
63 63 63
63 63 63
63 63 63
63 63 63
63 63 63
63 63 63
63 63 63
63 63 63
63 63 63
63 63 63
63 63 63
63 63 63
63 63 63
63 63 63
63 63 63
63 63 63
63 63 63
63 63 63
63 63 63
63 63 63
63 63 63
63 63 63
63 63 63
63 63 63
63 63 63
63 63 63
63 63 63
63 63 63
63 63 63
63 63 63
63 63 63
63 63 63
63 63 63
63 63 63
63 63 63
63 63 63
63 63 63
63 63 63
63 63 63
63 63 63
63 63 63
63 63 63
63 63 63
63 63 63
63 63 63
63 63 63
63 63 63
63 63 63
63 63 63
63 63 63
63 63 63
63 63 63
63 63 63
63 63 63
63 63 63
63 63 63
63 63 63
63 63 63
63 63 63
63 63 63
63 63 63
63 63 63
63 63 63
63 63 63
63 63 63
63 63 63
63 63 63
63 63 63
63 63 63
63 63 63
63 63 63
63 63 63
63 63 63
63 63 63
63 63 63
63 63 63
63 63 63
63 63 63
63 63 63
63 63 63
63 63 63
63 63 63
63 63 63
63 63 63
63 63 63
63 63 63
63 63 63
63 63 63
63 63 63
63 63 63
63 63 63
63 63 63
63 63 63
63 63 63
63 63 63
63 63 63
63 63 63
63 63 63
63 63 63
63 63 63
63 63 63
63 63 63
63 63 63
63 63 63
63 63 63
63 63 63
63 63 63
63 63 63
63 63 63
63 63 63
63 63 63
63 63 63
63 63 63
63 63 63
63 63 63
63 63 63
63 63 63
63 63 63
63 63 63
63 63 63
63 63 63
63 63 63
63 63 63
63 63 63
63 63 63
63 63 63
63 63 63
63 63 63
63 63 63
63 63 63
63 63 63
63 63 63
63 63 63
63 63 63
63 63 63
63 63 63
63 63 63
63 63 63
63 63 63
63 63 63
63 63 63
63 63 63
63 63 63
63 63 63
63 63 63
63 63 63
63 63 63
63 63 63
63 63 63
63 63 63
63 63 63
63 63 63
63 63 63
63 63 63
63 63 63
63 63 63
63 63 63
63 63 63
63 63 63
63 63 63
63 63 63
63 63 63
63 63 63
63 63 63
63 63 63
63 63 63
63 63 63
63 63 63
63 63 63
63 63 63
63 63 63
63 63 63
63 63 63
63 63 63
63 63 63
63 63 63
63 63 63
63 63 63
63 63 63
63 63 63
63 63 63
63 63 63
63 63 63
63 63 63
63 63 63
63 63 63
63 63 63
63 63 63
63 63 63
63 63 63
63 63 63
63 63 63
63 63 63
63 63 63
63 63 63
63 63 63
63 63 63
63 63 63
63 63 63
63 63 63
63 63 63
63 63 63
63 63 63
63 63 63
63 63 63
63 63 63
63 63 63
63 63 63
63 63 63
63 63 63
63 63 63
63 63 63
63 63 63
63 63 63
63 63 63
63 63 63
63 63 63
63 63 63
63 63 63
63 63 63
63 63 63
63 63 63
63 63 63
63 63 63
63 63 63
63 63 63
63 63 63
63 63 63
63 63 63
63 63 63
63 63 63
63 63 63
63 63 63
63 63 63
63 63 63
63 63 63
63 63 63
63 63 63
63 63 63
63 63 63
63 63 63
63 63 63
63 63 63
63 63 63
63 63 63
63 63 63
63 63 63
63 63 63
63 63 63
63 63 63
63 63 63
63 63 63
63 63 63
63 63 63
63 63 63
63 63 63
63 63 63
63 63 63
63 63 63
63 63 63
63 63 63
63 63 63
63 63 63
63 63 63
63 63 63
63 63 63
63 63 63
63 63 63
63 63 63
63 63 63
63 63 63
63 63 63
63 63 63
63 63 63
63 63 63
63 63 63
63 63 63
63 63 63
63 63 63
63 63 63
63 63 63
63 63 63
63 63 63
63 63 63
63 63 63
63 63 63
63 63 63
63 63 63
63 63 63
63 63 63
63 63 63
63 63 63
63 63 63
63 63 63
63 63 63
63 63 63
63 63 63
63 63 63
63 63 63
63 63 63
63 63 63
63 63 63
63 63 63
63 63 63
63 63 63
63 63 63
63 63 63
63 63 63
63 63 63
63 63 63
63 63 63
63 63 63
63 63 63
63 63 63
63 63 63
63 63 63
63 63 63
63 63 63
63 63 63
63 63 63
63 63 63
63 63 63
63 63 63
63 63 63
63 63 63
63 63 63
63 63 63
63 63 63
63 63 63
63 63 63
63 63 63
63 63 63
63 63 63
63 63 63
63 63 63
63 63 63
63 63 63
63 63 63
63 63 63
63 63 63
63 63 63
63 63 63
63 63 63
63 63 63
63 63 63
63 63 63
63 63 63
63 63 63
63 63 63
63 63 63
63 63 63
63 63 63
63 63 63
63 63 63
63 63 63
63 63 63
63 63 63
63 63 63
63 63 63
63 63 63
63 63 63
63 63 63
63 63 63
63 63 63
63 63 63
63 63 63
63 63 63
63 63 63
63 63 63
63 63 63
63 63 63
63 63 63
63 63 63
63 63 63
63 63 63
63 63 63
63 63 63
63 63 63
63 63 63
63 63 63
63 63 63
63 63 63
63 63 63
63 63 63
63 63 63
63 63 63
63 63 63
63 63 63
63 63 63
63 63 63
63 63 63
63 63 63
63 63 63
63 63 63
63 63 63
63 63 63
63 63 63
63 63 63
63 63 63
63 63 63
63 63 63
63 63 63
63 63 63
63 63 63
63 63 63
63 63 63
63 63 63
63 63 63
63 63 63
63 63 63
63 63 63
63 63 63
63 63 63
63 63 63
63 63 63
63 63 63
63 63 63
63 63 63
63 63 63
63 63 63
63 63 63
63 63 63
63 63 63
63 63 63
63 63 63
63 63 63
63 63 63
63 63 63
63 63 63
63 63 63
63 63 63
63 63 63
63 63 63
63 63 63
63 63 63
63 63 63
63 63 63
63 63 63
63 63 63
63 63 63
63 63 63
63 63 63
63 63 63
63 63 63
63 63 63
63 63 63
63 63 63
63 63 63
63 63 63
63 63 63
63 63 63
63 63 63
63 63 63
63 63 63
63 63 63
63 63 63
63 63 63
63 63 63
63 63 63
63 63 63
63 63 63
63 63 63
63 63 63
63 63 63
63 63 63
63 63 63
63 63 63
63 63 63
63 63 63
63 63 63
63 63 63
63 63 63
63 63 63
63 63 63
63 63 63
63 63 63
63 63 63
63 63 63
63 63 63
63 63 63
63 63 63
63 63 63
63 63 63
63 63 63
63 63 63
63 63 63
63 63 63
63 63 63
63 63 63
63 63 63
63 63 63
63 63 63
63 63 63
63 63 63
63 63 63
63 63 63
63 63 63
63 63 63
63 63 63
63 63 63
63 63 63
63 63 63
63 63 63
63 63 63
63 63 63
63 63 63
63 63 63
63 63 63
63 63 63
63 63 63
63 63 63
63 63 63
63 63 63
63 63 63
63 63 63
63 63 63
63 63 63
63 63 63
63 63 63
63 63 63
63 63 63
63 63 63
63 63 63
63 63 63
63 63 63
63 63 63
63 63 63
63 63 63
63 63 63
63 63 63
63 63 63
63 63 63
63 63 63
63 63 63
63 63 63
63 63 63
63 63 63
63 63 63
63 63 63
63 63 63
63 63 63
63 63 63
63 63 63
63 63 63
63 63 63
63 63 63
63 63 63
63 63 63
63 63 63
63 63 63
63 63 63
63 63 63
63 63 63
63 63 63
63 63 63
63 63 63
63 63 63
63 63 63
63 63 63
63 63 63
63 63 63
63 63 63
63 63 63
63 63 63
63 63 63
63 63 63
63 63 63
63 63 63
63 63 63
63 63 63
63 63 63
63 63 63
63 63 63
63 63 63
63 63 63
63 63 63
63 63 63
63 63 63
63 63 63
63 63 63
63 63 63
63 63 63
63 63 63
63 63 63
63 63 63
63 63 63
63 63 63
63 63 63
63 63 63
63 63 63
63 63 63
63 63 63
63 63 63
63 63 63
63 63 63
63 63 63
63 63 63
63 63 63
63 63 63
63 63 63
63 63 63
63 63 63
63 63 63
63 63 63
63 63 63
63 63 63
63 63 63
63 63 63
63 63 63
63 63 63
63 63 63
63 63 63
63 63 63
63 63 63
63 63 63
63 63 63
63 63 63
63 63 63
63 63 63
63 63 63
63 63 63
63 63 63
63 63 63
63 63 63
63 63 63
63 63 63
63 63 63
63 63 63
63 63 63
63 63 63
63 63 63
63 63 63
63 63 63
63 63 63
63 63 63
63 63 63
63 63 63
63 63 63
63 63 63
63 63 63
63 63 63
63 63 63
63 63 63
63 63 63
63 63 63
63 63 63
63 63 63
63 63 63
63 63 63
63 63 63
63 63 63
63 63 63
63 63 63
63 63 63
63 63 63
63 63 63
63 63 63
63 63 63
63 63 63
63 63 63
63 63 63
63 63 63
63 63 63
63 63 63
63 63 63
63 63 63
63 63 63
63 63 63
63 63 63
63 63 63
63 63 63
63 63 63
63 63 63
63 63 63
63 63 63
63 63 63
63 63 63
63 63 63
63 63 63
63 63 63
63 63 63
63 63 63
63 63 63
63 63 63
63 63 63
63 63 63
63 63 63
63 63 63
63 63 63
63 63 63
63 63 63
63 63 63
63 63 63
63 63 63
63 63 63
63 63 63
63 63 63
63 63 63
63 63 63
63 63 63
63 63 63
63 63 63
63 63 63
63 63 63
63 63 63
63 63 63
63 63 63
63 63 63
63 63 63
63 63 63
63 63 63
63 63 63
63 63 63
63 63 63
63 63 63
63 63 63
63 63 63
63 63 63
63 63 63
63 63 63
63 63 63
63 63 63
63 63 63
63 63 63
63 63 63
63 63 63
63 63 63
63 63 63
63 63 63
63 63 63
63 63 63
63 63 63
63 63 63
63 63 63
63 63 63
63 63 63
63 63 63
63 63 63
63 63 63
63 63 63
63 63 63
63 63 63
63 63 63
63 63 63
63 63 63
63 63 63
63 63 63
63 63 63
63 63 63
63 63 63
63 63 63
63 63 63
63 63 63
63 63 63
63 63 63
63 63 63
63 63 63
63 63 63
63 63 63
63 63 63
63 63 63
63 63 63
63 63 63
63 63 63
63 63 63
63 63 63
63 63 63
63 63 63
63 63 63
63 63 63
63 63 63
63 63 63
63 63 63
63 63 63
63 63 63
63 63 63
63 63 63
63 63 63
63 63 63
63 63 63
63 63 63
63 63 63
63 63 63
63 63 63
63 63 63
63 63 63
63 63 63
63 63 63
63 63 63
63 63 63
63 63 63
63 63 63
63 63 63
63 63 63
63 63 63
63 63 63
63 63 63
63 63 63
63 63 63
63 63 63
63 63 63
63 63 63
63 63 63
63 63 63
63 63 63
63 63 63
63 63 63
63 63 63
63 63 63
63 63 63
63 63 63
63 63 63
63 63 63
63 63 63
63 63 63
63 63 63
63 63 63
63 63 63
63 63 63
63 63 63
63 63 63
63 63 63
63 63 63
63 63 63
63 63 63
63 63 63
63 63 63
63 63 63
63 63 63
63 63 63
63 63 63
63 63 63
63 63 63
63 63 63
63 63 63
63 63 63
63 63 63
63 63 63
63 63 63
63 63 63
63 63 63
63 63 63
63 63 63
63 63 63
63 63 63
63 63 63
63 63 63
63 63 63
63 63 63
63 63 63
63 63 63
63 63 63
63 63 63
63 63 63
63 63 63
63 63 63
63 63 63
63 63 63
63 63 63
63 63 63
63 63 63
63 63 63
63 63 63
63 63 63
63 63 63
63 63 63
63 63 63
63 63 63
63 63 63
63 63 63
63 63 63
63 63 63
63 63 63
63 63 63
63 63 63
63 63 63
63 63 63
63 63 63
63 63 63
63 63 63
63 63 63
63 63 63
63 63 63
63 63 63
63 63 63
63 63 63
63 63 63
63 63 63
63 63 63
63 63 63
63 63 63
63 63 63
63 63 63
63 63 63
63 63 63
63 63 63
63 63 63
63 63 63
63 63 63
63 63 63
63 63 63
63 63 63
63 63 63
63 63 63
63 63 63
63 63 63
63 63 63
63 63 63
63 63 63
63 63 63
63 63 63
63 63 63
63 63 63
63 63 63
63 63 63
63 63 63
63 63 63
63 63 63
63 63 63
63 63 63
63 63 63
63 63 63
63 63 63
63 63 63
63 63 63
63 63 63
63 63 63
63 63 63
63 63 63
63 63 63
63 63 63
63 63 63
63 63 63
63 63 63
63 63 63
63 63 63
63 63 63
63 63 63
63 63 63
63 63 63
63 63 63
63 63 63
63 63 63
63 63 63
63 63 63
63 63 63
63 63 63
63 63 63
63 63 63
63 63 63
63 63 63
63 63 63
63 63 63
63 63 63
63 63 63
63 63 63
63 63 63
63 63 63
63 63 63
63 63 63
63 63 63
63 63 63
63 63 63
63 63 63
63 63 63
63 63 63
63 63 63
63 63 63
63 63 63
63 63 63
63 63 63
63 63 63
63 63 63
63 63 63
63 63 63
63 63 63
63 63 63
63 63 63
63 63 63
63 63 63
63 63 63
63 63 63
63 63 63
63 63 63
63 63 63
63 63 63
63 63 63
63 63 63
63 63 63
63 63 63
63 63 63
63 63 63
63 63 63
63 63 63
63 63 63
63 63 63
63 63 63
63 63 63
63 63 63
63 63 63
63 63 63
63 63 63
63 63 63
63 63 63
63 63 63
63 63 63
63 63 63
63 63 63
63 63 63
63 63 63
63 63 63
63 63 63
63 63 63
63 63 63
63 63 63
63 63 63
63 63 63
63 63 63
63 63 63
63 63 63
63 63 63
63 63 63
63 63 63
63 63 63
63 63 63
63 63 63
63 63 63
63 63 63
63 63 63
63 63 63
63 63 63
63 63 63
63 63 63
63 63 63
63 63 63
63 63 63
63 63 63
63 63 63
63 63 63
63 63 63
63 63 63
63 63 63
63 63 63
63 63 63
63 63 63
63 63 63
63 63 63
63 63 63
63 63 63
63 63 63
63 63 63
63 63 63
63 63 63
63 63 63
63 63 63
63 63 63
63 63 63
63 63 63
63 63 63
63 63 63
63 63 63
63 63 63
63 63 63
63 63 63
63 63 63
63 63 63
63 63 63
63 63 63
63 63 63
63 63 63
63 63 63
63 63 63
63 63 63
63 63 63
63 63 63
63 63 63
63 63 63
63 63 63
63 63 63
63 63 63
63 63 63
63 63 63
63 63 63
63 63 63
63 63 63
63 63 63
63 63 63
63 63 63
63 63 63
63 63 63
63 63 63
63 63 63
63 63 63
63 63 63
63 63 63
63 63 63
63 63 63
63 63 63
63 63 63
63 63 63
63 63 63
63 63 63
63 63 63
63 63 63
63 63 63
63 63 63
63 63 63
63 63 63
63 63 63
63 63 63
63 63 63
63 63 63
63 63 63
63 63 63
63 63 63
63 63 63
63 63 63
63 63 63
63 63 63
63 63 63
63 63 63
63 63 63
63 63 63
63 63 63
63 63 63
63 63 63
63 63 63
63 63 63
63 63 63
63 63 63
63 63 63
63 63 63
63 63 63
63 63 63
63 63 63
63 63 63
63 63 63
63 63 63
63 63 63
63 63 63
63 63 63
63 63 63
63 63 63
63 63 63
63 63 63
63 63 63
63 63 63
63 63 63
63 63 63
63 63 63
63 63 63
63 63 63
63 63 63
63 63 63
63 63 63
63 63 63
63 63 63
63 63 63
63 63 63
63 63 63
63 63 63
63 63 63
63 63 63
63 63 63
63 63 63
63 63 63
63 63 63
63 63 63
63 63 63
63 63 63
63 63 63
63 63 63
63 63 63
63 63 63
63 63 63
63 63 63
63 63 63
63 63 63
63 63 63
63 63 63
63 63 63
63 63 63
63 63 63
63 63 63
63 63 63
63 63 63
63 63 63
63 63 63
63 63 63
63 63 63
63 63 63
63 63 63
63 63 63
63 63 63
63 63 63
63 63 63
63 63 63
63 63 63
63 63 63
63 63 63
63 63 63
63 63 63
63 63 63
63 63 63
63 63 63
63 63 63
63 63 63
63 63 63
63 63 63
63 63 63
63 63 63
63 63 63
63 63 63
63 63 63
63 63 63
63 63 63
63 63 63
63 63 63
63 63 63
63 63 63
63 63 63
63 63 63
63 63 63
63 63 63
63 63 63
63 63 63
63 63 63
63 63 63
63 63 63
63 63 63
63 63 63
63 63 63
63 63 63
63 63 63
63 63 63
63 63 63
63 63 63
63 63 63
63 63 63
63 63 63
63 63 63
63 63 63
63 63 63
63 63 63
63 63 63
63 63 63
63 63 63
63 63 63
63 63 63
63 63 63
63 63 63
63 63 63
63 63 63
63 63 63
63 63 63
63 63 63
63 63 63
63 63 63
63 63 63
63 63 63
63 63 63
63 63 63
63 63 63
63 63 63
63 63 63
63 63 63
63 63 63
63 63 63
63 63 63
63 63 63
63 63 63
63 63 63
63 63 63
63 63 63
63 63 63
63 63 63
63 63 63
63 63 63
63 63 63
63 63 63
63 63 63
63 63 63
63 63 63
63 63 63
63 63 63
63 63 63
63 63 63
63 63 63
63 63 63
63 63 63
63 63 63
63 63 63
63 63 63
63 63 63
63 63 63
63 63 63
63 63 63
63 63 63
63 63 63
63 63 63
63 63 63
63 63 63
63 63 63
63 63 63
63 63 63
63 63 63
63 63 63
63 63 63
63 63 63
63 63 63
63 63 63
63 63 63
63 63 63
63 63 63
63 63 63
63 63 63
63 63 63
63 63 63
63 63 63
63 63 63
63 63 63
63 63 63
63 63 63
63 63 63
63 63 63
63 63 63
63 63 63
63 63 63
63 63 63
63 63 63
63 63 63
63 63 63
63 63 63
63 63 63
63 63 63
63 63 63
63 63 63
63 63 63
63 63 63
63 63 63
63 63 63
63 63 63
63 63 63
63 63 63
63 63 63
63 63 63
63 63 63
63 63 63
63 63 63
63 63 63
63 63 63
63 63 63
63 63 63
63 63 63
63 63 63
63 63 63
63 63 63
63 63 63
63 63 63
63 63 63
63 63 63
63 63 63
63 63 63
63 63 63
63 63 63
63 63 63
63 63 63
63 63 63
63 63 63
63 63 63
63 63 63
63 63 63
63 63 63
63 63 63
63 63 63
63 63 63
63 63 63
63 63 63
63 63 63
63 63 63
63 63 63
63 63 63
63 63 63
63 63 63
63 63 63
63 63 63
63 63 63
63 63 63
63 63 63
63 63 63
63 63 63
63 63 63
63 63 63
63 63 63
63 63 63
63 63 63
63 63 63
63 63 63
63 63 63
63 63 63
63 63 63
63 63 63
63 63 63
63 63 63
63 63 63
63 63 63
63 63 63
63 63 63
63 63 63
63 63 63
63 63 63
63 63 63
63 63 63
63 63 63
63 63 63
63 63 63
63 63 63
63 63 63
63 63 63
63 63 63
63 63 63
63 63 63
63 63 63
63 63 63
63 63 63
63 63 63
63 63 63
63 63 63
63 63 63
63 63 63
63 63 63
63 63 63
63 63 63
63 63 63
63 63 63
63 63 63
63 63 63
63 63 63
63 63 63
63 63 63
63 63 63
63 63 63
63 63 63
63 63 63
63 63 63
63 63 63
63 63 63
63 63 63
63 63 63
63 63 63
63 63 63
63 63 63
63 63 63
63 63 63
63 63 63
63 63 63
63 63 63
63 63 63
63 63 63
63 63 63
63 63 63
63 63 63
63 63 63
63 63 63
63 63 63
63 63 63
63 63 63
63 63 63
63 63 63
63 63 63
63 63 63
63 63 63
63 63 63
63 63 63
63 63 63
63 63 63
63 63 63
63 63 63
63 63 63
63 63 63
63 63 63
63 63 63
63 63 63
63 63 63
63 63 63
63 63 63
63 63 63
63 63 63
63 63 63
63 63 63
63 63 63
63 63 63
63 63 63
63 63 63
63 63 63
63 63 63
63 63 63
63 63 63
63 63 63
63 63 63
63 63 63
63 63 63
63 63 63
63 63 63
63 63 63
63 63 63
63 63 63
63 63 63
63 63 63
63 63 63
63 63 63
63 63 63
63 63 63
63 63 63
63 63 63
63 63 63
63 63 63
63 63 63
63 63 63
63 63 63
63 63 63
63 63 63
63 63 63
63 63 63
63 63 63
63 63 63
63 63 63
63 63 63
63 63 63
63 63 63
63 63 63
63 63 63
63 63 63
63 63 63
63 63 63
63 63 63
63 63 63
63 63 63
63 63 63
63 63 63
63 63 63
63 63 63
63 63 63
63 63 63
63 63 63
63 63 63
63 63 63
63 63 63
63 63 63
63 63 63
63 63 63
63 63 63
63 63 63
63 63 63
63 63 63
63 63 63
63 63 63
63 63 63
63 63 63
63 63 63
63 63 63
63 63 63
63 63 63
63 63 63
63 63 63
63 63 63
63 63 63
63 63 63
63 63 63
63 63 63
63 63 63
63 63 63
63 63 63
63 63 63
63 63 63
63 63 63
63 63 63
63 63 63
63 63 63
63 63 63
63 63 63
63 63 63
63 63 63
63 63 63
63 63 63
63 63 63
63 63 63
63 63 63
63 63 63
63 63 63
63 63 63
63 63 63
63 63 63
63 63 63
63 63 63
63 63 63
63 63 63
63 63 63
63 63 63
63 63 63
63 63 63
63 63 63
63 63 63
63 63 63
63 63 63
63 63 63
63 63 63
63 63 63
63 63 63
63 63 63
63 63 63
63 63 63
63 63 63
63 63 63
63 63 63
63 63 63
63 63 63
63 63 63
63 63 63
63 63 63
63 63 63
63 63 63
63 63 63
63 63 63
63 63 63
63 63 63
63 63 63
63 63 63
63 63 63
63 63 63
63 63 63
63 63 63
63 63 63
63 63 63
63 63 63
63 63 63
63 63 63
63 63 63
63 63 63
63 63 63
63 63 63
63 63 63
63 63 63
63 63 63
63 63 63
63 63 63
63 63 63
63 63 63
63 63 63
63 63 63
63 63 63
63 63 63
63 63 63
63 63 63
63 63 63
63 63 63
63 63 63
63 63 63
63 63 63
63 63 63
63 63 63
63 63 63
63 63 63
63 63 63
63 63 63
63 63 63
63 63 63
63 63 63
63 63 63
63 63 63
63 63 63
63 63 63
63 63 63
63 63 63
63 63 63
63 63 63
63 63 63
63 63 63
63 63 63
63 63 63
63 63 63
63 63 63
63 63 63
63 63 63
63 63 63
63 63 63
63 63 63
63 63 63
63 63 63
63 63 63
63 63 63
63 63 63
63 63 63
63 63 63
63 63 63
63 63 63
63 63 63
63 63 63
63 63 63
63 63 63
63 63 63
63 63 63
63 63 63
63 63 63
63 63 63
63 63 63
63 63 63
63 63 63
63 63 63
63 63 63
63 63 63
63 63 63
63 63 63
63 63 63
63 63 63
63 63 63
63 63 63
63 63 63
63 63 63
63 63 63
63 63 63
63 63 63
63 63 63
63 63 63
63 63 63
63 63 63
63 63 63
63 63 63
63 63 63
63 63 63
63 63 63
63 63 63
63 63 63
63 63 63
63 63 63
63 63 63
63 63 63
63 63 63
63 63 63
63 63 63
63 63 63
63 63 63
63 63 63
63 63 63
63 63 63
63 63 63
63 63 63
63 63 63
63 63 63
63 63 63
63 63 63
63 63 63
63 63 63
63 63 63
63 63 63
63 63 63
63 63 63
63 63 63
63 63 63
63 63 63
63 63 63
63 63 63
63 63 63
63 63 63
63 63 63
63 63 63
63 63 63
63 63 63
63 63 63
63 63 63
63 63 63
63 63 63
63 63 63
63 63 63
63 63 63
63 63 63
63 63 63
63 63 63
63 63 63
63 63 63
63 63 63
63 63 63
63 63 63
63 63 63
63 63 63
63 63 63
63 63 63
63 63 63
63 63 63
63 63 63
63 63 63
63 63 63
63 63 63
63 63 63
63 63 63
63 63 63
63 63 63
63 63 63
63 63 63
63 63 63
63 63 63
63 63 63
63 63 63
63 63 63
63 63 63
63 63 63
63 63 63
63 63 63
63 63 63
63 63 63
63 63 63
63 63 63
63 63 63
63 63 63
63 63 63
63 63 63
63 63 63
63 63 63
63 63 63
63 63 63
63 63 63
63 63 63
63 63 63
63 63 63
63 63 63
63 63 63
63 63 63
63 63 63
63 63 63
63 63 63
63 63 63
63 63 63
63 63 63
63 63 63
63 63 63
63 63 63
63 63 63
63 63 63
63 63 63
63 63 63
63 63 63
63 63 63
63 63 63
63 63 63
63 63 63
63 63 63
63 63 63
63 63 63
63 63 63
63 63 63
63 63 63
63 63 63
63 63 63
63 63 63
63 63 63
63 63 63
63 63 63
63 63 63
63 63 63
63 63 63
63 63 63
63 63 63
63 63 63
63 63 63
63 63 63
63 63 63
63 63 63
63 63 63
63 63 63
63 63 63
63 63 63
63 63 63
63 63 63
63 63 63
63 63 63
63 63 63
63 63 63
63 63 63
63 63 63
63 63 63
63 63 63
63 63 63
63 63 63
63 63 63
63 63 63
63 63 63
63 63 63
63 63 63
63 63 63
63 63 63
63 63 63
63 63 63
63 63 63
63 63 63
63 63 63
63 63 63
63 63 63
63 63 63
63 63 63
63 63 63
63 63 63
63 63 63
63 63 63
63 63 63
63 63 63
63 63 63
63 63 63
63 63 63
63 63 63
63 63 63
63 63 63
63 63 63
63 63 63
63 63 63
63 63 63
63 63 63
63 63 63
63 63 63
63 63 63
63 63 63
63 63 63
63 63 63
63 63 63
63 63 63
63 63 63
63 63 63
63 63 63
63 63 63
63 63 63
63 63 63
63 63 63
63 63 63
63 63 63
63 63 63
63 63 63
63 63 63
63 63 63
63 63 63
63 63 63
63 63 63
63 63 63
63 63 63
63 63 63
63 63 63
63 63 63
63 63 63
63 63 63
63 63 63
63 63 63
63 63 63
63 63 63
63 63 63
63 63 63
63 63 63
63 63 63
63 63 63
63 63 63
63 63 63
63 63 63
63 63 63
63 63 63
63 63 63
63 63 63
63 63 63
63 63 63
63 63 63
63 63 63
63 63 63
63 63 63
63 63 63
63 63 63
63 63 63
63 63 63
63 63 63
63 63 63
63 63 63
63 63 63
63 63 63
63 63 63
63 63 63
63 63 63
63 63 63
63 63 63
63 63 63
63 63 63
63 63 63
63 63 63
63 63 63
63 63 63
63 63 63
63 63 63
63 63 63
63 63 63
63 63 63
63 63 63
63 63 63
63 63 63
63 63 63
63 63 63
63 63 63
63 63 63
63 63 63
63 63 63
63 63 63
63 63 63
63 63 63
63 63 63
63 63 63
63 63 63
63 63 63
63 63 63
63 63 63
63 63 63
63 63 63
63 63 63
63 63 63
63 63 63
63 63 63
63 63 63
63 63 63
63 63 63
63 63 63
63 63 63
63 63 63
63 63 63
63 63 63
63 63 63
63 63 63
63 63 63
63 63 63
63 63 63
63 63 63
63 63 63
63 63 63
63 63 63
63 63 63
63 63 63
63 63 63
63 63 63
63 63 63
63 63 63
63 63 63
63 63 63
63 63 63
63 63 63
63 63 63
63 63 63
63 63 63
63 63 63
63 63 63
63 63 63
63 63 63
63 63 63
63 63 63
63 63 63
63 63 63
63 63 63
63 63 63
63 63 63
63 63 63
63 63 63
63 63 63
63 63 63
63 63 63
63 63 63
63 63 63
63 63 63
63 63 63
63 63 63
63 63 63
63 63 63
63 63 63
63 63 63
63 63 63
63 63 63
63 63 63
63 63 63
63 63 63
63 63 63
63 63 63
63 63 63
63 63 63
63 63 63
63 63 63
63 63 63
63 63 63
63 63 63
63 63 63
63 63 63
63 63 63
63 63 63
63 63 63
63 63 63
63 63 63
63 63 63
63 63 63
63 63 63
63 63 63
63 63 63
63 63 63
63 63 63
63 63 63
63 63 63
63 63 63
63 63 63
63 63 63
63 63 63
63 63 63
63 63 63
63 63 63
63 63 63
63 63 63
63 63 63
63 63 63
63 63 63
63 63 63
63 63 63
63 63 63
63 63 63
63 63 63
63 63 63
63 63 63
63 63 63
63 63 63
63 63 63
63 63 63
63 63 63
63 63 63
63 63 63
63 63 63
63 63 63
63 63 63
63 63 63
63 63 63
63 63 63
63 63 63
63 63 63
63 63 63
63 63 63
63 63 63
63 63 63
63 63 63
63 63 63
63 63 63
63 63 63
63 63 63
63 63 63
63 63 63
63 63 63
63 63 63
63 63 63
63 63 63
63 63 63
63 63 63
63 63 63
63 63 63
63 63 63
63 63 63
63 63 63
63 63 63
63 63 63
63 63 63
63 63 63
63 63 63
63 63 63
63 63 63
63 63 63
63 63 63
63 63 63
63 63 63
63 63 63
63 63 63
63 63 63
63 63 63
63 63 63
63 63 63
63 63 63
63 63 63
63 63 63
63 63 63
63 63 63
63 63 63
63 63 63
63 63 63
63 63 63
63 63 63
63 63 63
63 63 63
63 63 63
63 63 63
63 63 63
63 63 63
63 63 63
63 63 63
63 63 63
63 63 63
63 63 63
63 63 63
63 63 63
63 63 63
63 63 63
63 63 63
63 63 63
63 63 63
63 63 63
63 63 63
63 63 63
63 63 63
63 63 63
63 63 63
63 63 63
63 63 63
63 63 63
63 63 63
63 63 63
63 63 63
63 63 63
63 63 63
63 63 63
63 63 63
63 63 63
63 63 63
63 63 63
63 63 63
63 63 63
63 63 63
63 63 63
63 63 63
63 63 63
63 63 63
63 63 63
63 63 63
63 63 63
63 63 63
63 63 63
63 63 63
63 63 63
63 63 63
63 63 63
63 63 63
63 63 63
63 63 63
63 63 63
63 63 63
63 63 63
63 63 63
63 63 63
63 63 63
63 63 63
63 63 63
63 63 63
63 63 63
63 63 63
63 63 63
63 63 63
63 63 63
63 63 63
63 63 63
63 63 63
63 63 63
63 63 63
63 63 63
63 63 63
63 63 63
63 63 63
63 63 63
63 63 63
63 63 63
63 63 63
63 63 63
63 63 63
63 63 63
63 63 63
63 63 63
63 63 63
63 63 63
63 63 63
63 63 63
63 63 63
63 63 63
63 63 63
63 63 63
63 63 63
63 63 63
63 63 63
63 63 63
63 63 63
63 63 63
63 63 63
63 63 63
63 63 63
63 63 63
63 63 63
63 63 63
63 63 63
63 63 63
63 63 63
63 63 63
63 63 63
63 63 63
63 63 63
63 63 63
63 63 63
63 63 63
63 63 63
63 63 63
63 63 63
63 63 63
63 63 63
63 63 63
63 63 63
63 63 63
63 63 63
63 63 63
63 63 63
63 63 63
63 63 63
63 63 63
63 63 63
63 63 63
63 63 63
63 63 63
63 63 63
63 63 63
63 63 63
63 63 63
63 63 63
63 63 63
63 63 63
63 63 63
63 63 63
63 63 63
63 63 63
63 63 63
63 63 63
63 63 63
63 63 63
63 63 63
63 63 63
63 63 63
63 63 63
63 63 63
63 63 63
63 63 63
63 63 63
63 63 63
63 63 63
63 63 63
63 63 63
63 63 63
63 63 63
63 63 63
63 63 63
63 63 63
63 63 63
63 63 63
63 63 63
63 63 63
63 63 63
63 63 63
63 63 63
63 63 63
63 63 63
63 63 63
63 63 63
63 63 63
63 63 63
63 63 63
63 63 63
63 63 63
63 63 63
63 63 63
63 63 63
63 63 63
63 63 63
63 63 63
63 63 63
63 63 63
63 63 63
63 63 63
63 63 63
63 63 63
63 63 63
63 63 63
63 63 63
63 63 63
63 63 63
63 63 63
63 63 63
63 63 63
63 63 63
63 63 63
63 63 63
63 63 63
63 63 63
63 63 63
63 63 63
63 63 63
63 63 63
63 63 63
63 63 63
63 63 63
63 63 63
63 63 63
63 63 63
63 63 63
63 63 63
63 63 63
63 63 63
63 63 63
63 63 63
63 63 63
63 63 63
63 63 63
63 63 63
63 63 63
63 63 63
63 63 63
63 63 63
63 63 63
63 63 63
63 63 63
63 63 63
63 63 63
63 63 63
63 63 63
63 63 63
63 63 63
63 63 63
63 63 63
63 63 63
63 63 63
63 63 63
63 63 63
63 63 63
63 63 63
63 63 63
63 63 63
63 63 63
63 63 63
63 63 63
63 63 63
63 63 63
63 63 63
63 63 63
63 63 63
63 63 63
63 63 63
63 63 63
63 63 63
63 63 63
63 63 63
63 63 63
63 63 63
63 63 63
63 63 63
63 63 63
63 63 63
63 63 63
63 63 63
63 63 63
63 63 63
63 63 63
63 63 63
63 63 63
63 63 63
63 63 63
63 63 63
63 63 63
63 63 63
63 63 63
63 63 63
63 63 63
63 63 63
63 63 63
63 63 63
63 63 63
63 63 63
63 63 63
63 63 63
63 63 63
63 63 63
63 63 63
63 63 63
63 63 63
63 63 63
63 63 63
63 63 63
63 63 63
63 63 63
63 63 63
63 63 63
63 63 63
63 63 63
63 63 63
63 63 63
63 63 63
63 63 63
63 63 63
63 63 63
63 63 63
63 63 63
63 63 63
63 63 63
63 63 63
63 63 63
63 63 63
63 63 63
63 63 63
63 63 63
63 63 63
63 63 63
63 63 63
63 63 63
63 63 63
63 63 63
63 63 63
63 63 63
63 63 63
63 63 63
63 63 63
63 63 63
63 63 63
63 63 63
63 63 63
63 63 63
63 63 63
63 63 63
63 63 63
63 63 63
63 63 63
63 63 63
63 63 63
63 63 63
63 63 63
63 63 63
63 63 63
63 63 63
63 63 63
63 63 63
63 63 63
63 63 63
63 63 63
63 63 63
63 63 63
63 63 63
63 63 63
63 63 63
63 63 63
63 63 63
63 63 63
63 63 63
63 63 63
63 63 63
63 63 63
63 63 63
63 63 63
63 63 63
63 63 63
63 63 63
63 63 63
63 63 63
63 63 63
63 63 63
63 63 63
63 63 63
63 63 63
63 63 63
63 63 63
63 63 63
63 63 63
63 63 63
63 63 63
63 63 63
63 63 63
63 63 63
63 63 63
63 63 63
63 63 63
63 63 63
63 63 63
63 63 63
63 63 63
63 63 63
63 63 63
63 63 63
63 63 63
63 63 63
63 63 63
63 63 63
63 63 63
63 63 63
63 63 63
63 63 63
63 63 63
63 63 63
63 63 63
63 63 63
63 63 63
63 63 63
63 63 63
63 63 63
63 63 63
63 63 63
63 63 63
63 63 63
63 63 63
63 63 63
63 63 63
63 63 63
63 63 63
63 63 63
63 63 63
63 63 63
63 63 63
63 63 63
63 63 63
63 63 63
63 63 63
63 63 63
63 63 63
63 63 63
63 63 63
63 63 63
63 63 63
63 63 63
63 63 63
63 63 63
63 63 63
63 63 63
63 63 63
63 63 63
63 63 63
63 63 63
63 63 63
63 63 63
63 63 63
63 63 63
63 63 63
63 63 63
63 63 63
63 63 63
63 63 63
63 63 63
63 63 63
63 63 63
63 63 63
63 63 63
63 63 63
63 63 63
63 63 63
63 63 63
63 63 63
63 63 63
63 63 63
63 63 63
63 63 63
63 63 63
63 63 63
63 63 63
63 63 63
63 63 63
63 63 63
63 63 63
63 63 63
63 63 63
63 63 63
63 63 63
63 63 63
63 63 63
63 63 63
63 63 63
63 63 63
63 63 63
63 63 63
63 63 63
63 63 63
63 63 63
63 63 63
63 63 63
63 63 63
63 63 63
63 63 63
63 63 63
63 63 63
63 63 63
63 63 63
63 63 63
63 63 63
63 63 63
63 63 63
63 63 63
63 63 63
63 63 63
63 63 63
63 63 63
63 63 63
63 63 63
63 63 63
63 63 63
63 63 63
63 63 63
63 63 63
63 63 63
63 63 63
63 63 63
63 63 63
63 63 63
63 63 63
63 63 63
63 63 63
63 63 63
63 63 63
63 63 63
63 63 63
63 63 63
63 63 63
63 63 63
63 63 63
63 63 63
63 63 63
63 63 63
63 63 63
63 63 63
63 63 63
63 63 63
63 63 63
63 63 63
63 63 63
63 63 63
63 63 63
63 63 63
63 63 63
63 63 63
63 63 63
63 63 63
63 63 63
63 63 63
63 63 63
63 63 63
63 63 63
63 63 63
63 63 63
63 63 63
63 63 63
63 63 63
63 63 63
63 63 63
63 63 63
63 63 63
63 63 63
63 63 63
63 63 63
63 63 63
63 63 63
63 63 63
63 63 63
63 63 63
63 63 63
63 63 63
63 63 63
63 63 63
63 63 63
63 63 63
63 63 63
63 63 63
63 63 63
63 63 63
63 63 63
63 63 63
63 63 63
63 63 63
63 63 63
63 63 63
63 63 63
63 63 63
63 63 63
63 63 63
63 63 63
63 63 63
63 63 63
63 63 63
63 63 63
63 63 63
63 63 63
63 63 63
63 63 63
63 63 63
63 63 63
63 63 63
63 63 63
63 63 63
63 63 63
63 63 63
63 63 63
63 63 63
63 63 63
63 63 63
63 63 63
63 63 63
63 63 63
63 63 63
63 63 63
63 63 63
63 63 63
63 63 63
63 63 63
63 63 63
63 63 63
63 63 63
63 63 63
63 63 63
63 63 63
63 63 63
63 63 63
63 63 63
63 63 63
63 63 63
63 63 63
63 63 63
63 63 63
63 63 63
63 63 63
63 63 63
63 63 63
63 63 63
63 63 63
63 63 63
63 63 63
63 63 63
63 63 63
63 63 63
63 63 63
63 63 63
63 63 63
63 63 63
63 63 63
63 63 63
63 63 63
63 63 63
63 63 63
63 63 63
63 63 63
63 63 63
63 63 63
63 63 63
63 63 63
63 63 63
63 63 63
63 63 63
63 63 63
63 63 63
63 63 63
63 63 63
63 63 63
63 63 63
63 63 63
63 63 63
63 63 63
63 63 63
63 63 63
63 63 63
63 63 63
63 63 63
63 63 63
63 63 63
63 63 63
63 63 63
63 63 63
63 63 63
63 63 63
63 63 63
63 63 63
63 63 63
63 63 63
63 63 63
63 63 63
63 63 63
63 63 63
63 63 63
63 63 63
63 63 63
63 63 63
63 63 63
63 63 63
63 63 63
63 63 63
63 63 63
63 63 63
63 63 63
63 63 63
63 63 63
63 63 63
63 63 63
63 63 63
63 63 63
63 63 63
63 63 63
63 63 63
63 63 63
63 63 63
63 63 63
63 63 63
63 63 63
63 63 63
63 63 63
63 63 63
63 63 63
63 63 63
63 63 63
63 63 63
63 63 63
63 63 63
63 63 63
63 63 63
63 63 63
63 63 63
63 63 63
63 63 63
63 63 63
63 63 63
63 63 63
63 63 63
63 63 63
63 63 63
63 63 63
63 63 63
63 63 63
63 63 63
63 63 63
63 63 63
63 63 63
63 63 63
63 63 63
63 63 63
63 63 63
63 63 63
63 63 63
63 63 63
63 63 63
63 63 63
63 63 63
63 63 63
63 63 63
63 63 63
63 63 63
63 63 63
63 63 63
63 63 63
63 63 63
63 63 63
63 63 63
63 63 63
63 63 63
63 63 63
63 63 63
63 63 63
63 63 63
63 63 63
63 63 63
63 63 63
63 63 63
63 63 63
63 63 63
63 63 63
63 63 63
63 63 63
63 63 63
63 63 63
63 63 63
63 63 63
63 63 63
63 63 63
63 63 63
63 63 63
63 63 63
63 63 63
63 63 63
63 63 63
63 63 63
63 63 63
63 63 63
63 63 63
63 63 63
63 63 63
63 63 63
63 63 63
63 63 63
63 63 63
63 63 63
63 63 63
63 63 63
63 63 63
63 63 63
63 63 63
63 63 63
63 63 63
63 63 63
63 63 63
63 63 63
63 63 63
63 63 63
63 63 63
63 63 63
63 63 63
63 63 63
63 63 63
63 63 63
63 63 63
63 63 63
63 63 63
63 63 63
63 63 63
63 63 63
63 63 63
63 63 63
63 63 63
63 63 63
63 63 63
63 63 63
63 63 63
63 63 63
63 63 63
63 63 63
63 63 63
63 63 63
63 63 63
63 63 63
63 63 63
63 63 63
63 63 63
63 63 63
63 63 63
63 63 63
63 63 63
63 63 63
63 63 63
63 63 63
63 63 63
63 63 63
63 63 63
63 63 63
63 63 63
63 63 63
63 63 63
63 63 63
63 63 63
63 63 63
63 63 63
63 63 63
63 63 63
63 63 63
63 63 63
63 63 63
63 63 63
63 63 63
63 63 63
63 63 63
63 63 63
63 63 63
63 63 63
63 63 63
63 63 63
63 63 63
63 63 63
63 63 63
63 63 63
63 63 63
63 63 63
63 63 63
63 63 63
63 63 63
63 63 63
63 63 63
63 63 63
63 63 63
63 63 63
63 63 63
63 63 63
63 63 63
63 63 63
63 63 63
63 63 63
63 63 63
63 63 63
63 63 63
63 63 63
63 63 63
63 63 63
63 63 63
63 63 63
63 63 63
63 63 63
63 63 63
63 63 63
63 63 63
63 63 63
63 63 63
63 63 63
63 63 63
63 63 63
63 63 63
63 63 63
63 63 63
63 63 63
63 63 63
63 63 63
63 63 63
63 63 63
63 63 63
63 63 63
63 63 63
63 63 63
63 63 63
63 63 63
63 63 63
63 63 63
63 63 63
63 63 63
63 63 63
63 63 63
63 63 63
63 63 63
63 63 63
63 63 63
63 63 63
63 63 63
63 63 63
63 63 63
63 63 63
63 63 63
63 63 63
63 63 63
63 63 63
63 63 63
63 63 63
63 63 63
63 63 63
63 63 63
63 63 63
63 63 63
63 63 63
63 63 63
63 63 63
63 63 63
63 63 63
63 63 63
63 63 63
63 63 63
63 63 63
63 63 63
63 63 63
63 63 63
63 63 63
63 63 63
63 63 63
63 63 63
63 63 63
63 63 63
63 63 63
63 63 63
63 63 63
63 63 63
63 63 63
63 63 63
63 63 63
63 63 63
63 63 63
63 63 63
63 63 63
63 63 63
63 63 63
63 63 63
63 63 63
63 63 63
63 63 63
63 63 63
63 63 63
63 63 63
63 63 63
63 63 63
63 63 63
63 63 63
63 63 63
63 63 63
63 63 63
63 63 63
63 63 63
63 63 63
63 63 63
63 63 63
63 63 63
63 63 63
63 63 63
63 63 63
63 63 63
63 63 63
63 63 63
63 63 63
63 63 63
63 63 63
63 63 63
63 63 63
63 63 63
63 63 63
63 63 63
63 63 63
63 63 63
63 63 63
63 63 63
63 63 63
63 63 63
63 63 63
63 63 63
63 63 63
63 63 63
63 63 63
63 63 63
63 63 63
63 63 63
63 63 63
63 63 63
63 63 63
63 63 63
63 63 63
63 63 63
63 63 63
63 63 63
63 63 63
63 63 63
63 63 63
63 63 63
63 63 63
63 63 63
63 63 63
63 63 63
63 63 63
63 63 63
63 63 63
63 63 63
63 63 63
63 63 63
63 63 63
63 63 63
63 63 63
63 63 63
63 63 63
63 63 63
63 63 63
63 63 63
63 63 63
63 63 63
63 63 63
63 63 63
63 63 63
63 63 63
63 63 63
63 63 63
63 63 63
63 63 63
63 63 63
63 63 63
63 63 63
63 63 63
63 63 63
63 63 63
63 63 63
63 63 63
63 63 63
63 63 63
63 63 63
63 63 63
63 63 63
63 63 63
63 63 63
63 63 63
63 63 63
63 63 63
63 63 63
63 63 63
63 63 63
63 63 63
63 63 63
63 63 63
63 63 63
63 63 63
63 63 63
63 63 63
63 63 63
63 63 63
63 63 63
63 63 63
63 63 63
63 63 63
63 63 63
63 63 63
63 63 63
63 63 63
63 63 63
63 63 63
63 63 63
63 63 63
63 63 63
63 63 63
63 63 63
63 63 63
63 63 63
63 63 63
63 63 63
63 63 63
63 63 63
63 63 63
63 63 63
63 63 63
63 63 63
63 63 63
63 63 63
63 63 63
63 63 63
63 63 63
63 63 63
63 63 63
63 63 63
63 63 63
63 63 63
63 63 63
63 63 63
63 63 63
63 63 63
63 63 63
63 63 63
63 63 63
63 63 63
63 63 63
63 63 63
63 63 63
63 63 63
63 63 63
63 63 63
63 63 63
63 63 63
63 63 63
63 63 63
63 63 63
63 63 63
63 63 63
63 63 63
63 63 63
63 63 63
63 63 63
63 63 63
63 63 63
63 63 63
63 63 63
63 63 63
63 63 63
63 63 63
63 63 63
63 63 63
63 63 63
63 63 63
63 63 63
63 63 63
63 63 63
63 63 63
63 63 63
63 63 63
63 63 63
63 63 63
63 63 63
63 63 63
63 63 63
63 63 63
63 63 63
63 63 63
63 63 63
63 63 63
63 63 63
63 63 63
63 63 63
63 63 63
63 63 63
63 63 63
63 63 63
63 63 63
63 63 63
63 63 63
63 63 63
63 63 63
63 63 63
63 63 63
63 63 63
63 63 63
63 63 63
63 63 63
63 63 63
63 63 63
63 63 63
63 63 63
63 63 63
63 63 63
63 63 63
63 63 63
63 63 63
63 63 63
63 63 63
63 63 63
63 63 63
63 63 63
63 63 63
63 63 63
63 63 63
63 63 63
63 63 63
63 63 63
63 63 63
63 63 63
63 63 63
63 63 63
63 63 63
63 63 63
63 63 63
63 63 63
63 63 63
63 63 63
63 63 63
63 63 63
63 63 63
63 63 63
63 63 63
63 63 63
63 63 63
63 63 63
63 63 63
63 63 63
63 63 63
63 63 63
63 63 63
63 63 63
63 63 63
63 63 63
63 63 63
63 63 63
63 63 63
63 63 63
63 63 63
63 63 63
63 63 63
63 63 63
63 63 63
63 63 63
63 63 63
63 63 63
63 63 63
63 63 63
63 63 63
63 63 63
63 63 63
63 63 63
63 63 63
63 63 63
63 63 63
63 63 63
63 63 63
63 63 63
63 63 63
63 63 63
63 63 63
63 63 63
63 63 63
63 63 63
63 63 63
63 63 63
63 63 63
63 63 63
63 63 63
63 63 63
63 63 63
63 63 63
63 63 63
63 63 63
63 63 63
63 63 63
63 63 63
63 63 63
63 63 63
63 63 63
63 63 63
63 63 63
63 63 63
63 63 63
63 63 63
63 63 63
63 63 63
63 63 63
63 63 63
63 63 63
63 63 63
63 63 63
63 63 63
63 63 63
63 63 63
63 63 63
63 63 63
63 63 63
63 63 63
63 63 63
63 63 63
63 63 63
63 63 63
63 63 63
63 63 63
63 63 63
63 63 63
63 63 63
63 63 63
63 63 63
63 63 63
63 63 63
63 63 63
63 63 63
63 63 63
63 63 63
63 63 63
63 63 63
63 63 63
63 63 63
63 63 63
63 63 63
63 63 63
63 63 63
63 63 63
63 63 63
63 63 63
63 63 63
63 63 63
63 63 63
63 63 63
63 63 63
63 63 63
63 63 63
63 63 63
63 63 63
63 63 63
63 63 63
63 63 63
63 63 63
63 63 63
63 63 63
63 63 63
63 63 63
63 63 63
63 63 63
63 63 63
63 63 63
63 63 63
63 63 63
63 63 63
63 63 63
63 63 63
63 63 63
63 63 63
63 63 63
63 63 63
63 63 63
63 63 63
63 63 63
63 63 63
63 63 63
63 63 63
63 63 63
63 63 63
63 63 63
63 63 63
63 63 63
63 63 63
63 63 63
63 63 63
63 63 63
63 63 63
63 63 63
63 63 63
63 63 63
63 63 63
63 63 63
63 63 63
63 63 63
63 63 63
63 63 63
63 63 63
63 63 63
63 63 63
63 63 63
63 63 63
63 63 63
63 63 63
63 63 63
63 63 63
63 63 63
63 63 63
63 63 63
63 63 63
63 63 63
63 63 63
63 63 63
63 63 63
63 63 63
63 63 63
63 63 63
63 63 63
63 63 63
63 63 63
63 63 63
63 63 63
63 63 63
63 63 63
63 63 63
63 63 63
63 63 63
63 63 63
63 63 63
63 63 63
63 63 63
63 63 63
63 63 63
63 63 63
63 63 63
63 63 63
63 63 63
63 63 63
63 63 63
63 63 63
63 63 63
63 63 63
63 63 63
63 63 63
63 63 63
63 63 63
63 63 63
63 63 63
63 63 63
63 63 63
63 63 63
63 63 63
63 63 63
63 63 63
63 63 63
63 63 63
63 63 63
63 63 63
63 63 63
63 63 63
63 63 63
63 63 63
63 63 63
63 63 63
63 63 63
63 63 63
63 63 63
63 63 63
63 63 63
63 63 63
63 63 63
63 63 63
63 63 63
63 63 63
63 63 63
63 63 63
63 63 63
63 63 63
63 63 63
63 63 63
63 63 63
63 63 63
63 63 63
63 63 63
63 63 63
63 63 63
63 63 63
63 63 63
63 63 63
63 63 63
63 63 63
63 63 63
63 63 63
63 63 63
63 63 63
63 63 63
63 63 63
63 63 63
63 63 63
63 63 63
63 63 63
63 63 63
63 63 63
63 63 63
63 63 63
63 63 63
63 63 63
63 63 63
63 63 63
63 63 63
63 63 63
63 63 63
63 63 63
63 63 63
63 63 63
63 63 63
63 63 63
63 63 63
63 63 63
63 63 63
63 63 63
63 63 63
63 63 63
63 63 63
63 63 63
63 63 63
63 63 63
63 63 63
63 63 63
63 63 63
63 63 63
63 63 63
63 63 63
63 63 63
63 63 63
63 63 63
63 63 63
63 63 63
63 63 63
63 63 63
63 63 63
63 63 63
63 63 63
63 63 63
63 63 63
63 63 63
63 63 63
63 63 63
63 63 63
63 63 63
63 63 63
63 63 63
63 63 63
63 63 63
63 63 63
63 63 63
63 63 63
63 63 63
63 63 63
63 63 63
63 63 63
63 63 63
63 63 63
63 63 63
63 63 63
63 63 63
63 63 63
63 63 63
63 63 63
63 63 63
63 63 63
63 63 63
63 63 63
63 63 63
63 63 63
63 63 63
63 63 63
63 63 63
63 63 63
63 63 63
63 63 63
63 63 63
63 63 63
63 63 63
63 63 63
63 63 63
63 63 63
63 63 63
63 63 63
63 63 63
63 63 63
63 63 63
63 63 63
63 63 63
63 63 63
63 63 63
63 63 63
63 63 63
63 63 63
63 63 63
63 63 63
63 63 63
63 63 63
63 63 63
63 63 63
63 63 63
63 63 63
63 63 63
63 63 63
63 63 63
63 63 63
63 63 63
63 63 63
63 63 63
63 63 63
63 63 63
63 63 63
63 63 63
63 63 63
63 63 63
63 63 63
63 63 63
63 63 63
63 63 63
63 63 63
63 63 63
63 63 63
63 63 63
63 63 63
63 63 63
63 63 63
63 63 63
63 63 63
63 63 63
63 63 63
63 63 63
63 63 63
63 63 63
63 63 63
63 63 63
63 63 63
63 63 63
63 63 63
63 63 63
63 63 63
63 63 63
63 63 63
63 63 63
63 63 63
63 63 63
63 63 63
63 63 63
63 63 63
63 63 63
63 63 63
63 63 63
63 63 63
63 63 63
63 63 63
63 63 63
63 63 63
63 63 63
63 63 63
63 63 63
63 63 63
63 63 63
63 63 63
63 63 63
63 63 63
63 63 63
63 63 63
63 63 63
63 63 63
63 63 63
63 63 63
63 63 63
63 63 63
63 63 63
63 63 63
63 63 63
63 63 63
63 63 63
63 63 63
63 63 63
63 63 63
63 63 63
63 63 63
63 63 63
63 63 63
63 63 63
63 63 63
63 63 63
63 63 63
63 63 63
63 63 63
63 63 63
63 63 63
63 63 63
63 63 63
63 63 63
63 63 63
63 63 63
63 63 63
63 63 63
63 63 63
63 63 63
63 63 63
63 63 63
63 63 63
63 63 63
63 63 63
63 63 63
63 63 63
63 63 63
63 63 63
63 63 63
63 63 63
63 63 63
63 63 63
63 63 63
63 63 63
63 63 63
63 63 63
63 63 63
63 63 63
63 63 63
63 63 63
63 63 63
63 63 63
63 63 63
63 63 63
63 63 63
63 63 63
63 63 63
63 63 63
63 63 63
63 63 63
63 63 63
63 63 63
63 63 63
63 63 63
63 63 63
63 63 63
63 63 63
63 63 63
63 63 63
63 63 63
63 63 63
63 63 63
63 63 63
63 63 63
63 63 63
63 63 63
63 63 63
63 63 63
63 63 63
63 63 63
63 63 63
63 63 63
63 63 63
63 63 63
63 63 63
63 63 63
63 63 63
63 63 63
63 63 63
63 63 63
63 63 63
63 63 63
63 63 63
63 63 63
63 63 63
63 63 63
63 63 63
63 63 63
63 63 63
63 63 63
63 63 63
63 63 63
63 63 63
63 63 63
63 63 63
63 63 63
63 63 63
63 63 63
63 63 63
63 63 63
63 63 63
63 63 63
63 63 63
63 63 63
63 63 63
63 63 63
63 63 63
63 63 63
63 63 63
63 63 63
63 63 63
63 63 63
63 63 63
63 63 63
63 63 63
63 63 63
63 63 63
63 63 63
63 63 63
63 63 63
63 63 63
63 63 63
63 63 63
63 63 63
63 63 63
63 63 63
63 63 63
63 63 63
63 63 63
63 63 63
63 63 63
63 63 63
63 63 63
63 63 63
63 63 63
63 63 63
63 63 63
63 63 63
63 63 63
63 63 63
63 63 63
63 63 63
63 63 63
63 63 63
63 63 63
63 63 63
63 63 63
63 63 63
63 63 63
63 63 63
63 63 63
63 63 63
63 63 63
63 63 63
63 63 63
63 63 63
63 63 63
63 63 63
63 63 63
63 63 63
63 63 63
63 63 63
63 63 63
63 63 63
63 63 63
63 63 63
63 63 63
63 63 63
63 63 63
63 63 63
63 63 63
63 63 63
63 63 63
63 63 63
63 63 63
63 63 63
63 63 63
63 63 63
63 63 63
63 63 63
63 63 63
63 63 63
63 63 63
63 63 63
63 63 63
63 63 63
63 63 63
63 63 63
63 63 63
63 63 63
63 63 63
63 63 63
63 63 63
63 63 63
63 63 63
63 63 63
63 63 63
63 63 63
63 63 63
63 63 63
63 63 63
63 63 63
63 63 63
63 63 63
63 63 63
63 63 63
63 63 63
63 63 63
63 63 63
63 63 63
63 63 63
63 63 63
63 63 63
63 63 63
63 63 63
63 63 63
63 63 63
63 63 63
63 63 63
63 63 63
63 63 63
63 63 63
63 63 63
63 63 63
63 63 63
63 63 63
63 63 63
63 63 63
63 63 63
63 63 63
63 63 63
63 63 63
63 63 63
63 63 63
63 63 63
63 63 63
63 63 63
63 63 63
63 63 63
63 63 63
63 63 63
63 63 63
63 63 63
63 63 63
63 63 63
63 63 63
63 63 63
63 63 63
63 63 63
63 63 63
63 63 63
63 63 63
63 63 63
63 63 63
63 63 63
63 63 63
63 63 63
63 63 63
63 63 63
63 63 63
63 63 63
63 63 63
63 63 63
63 63 63
63 63 63
63 63 63
63 63 63
63 63 63
63 63 63
63 63 63
63 63 63
63 63 63
63 63 63
63 63 63
63 63 63
63 63 63
63 63 63
63 63 63
63 63 63
63 63 63
63 63 63
63 63 63
63 63 63
63 63 63
63 63 63
63 63 63
63 63 63
63 63 63
63 63 63
63 63 63
63 63 63
63 63 63
63 63 63
63 63 63
63 63 63
63 63 63
63 63 63
63 63 63
63 63 63
63 63 63
63 63 63
63 63 63
63 63 63
63 63 63
63 63 63
63 63 63
63 63 63
63 63 63
63 63 63
63 63 63
63 63 63
63 63 63
63 63 63
63 63 63
63 63 63
63 63 63
63 63 63
63 63 63
63 63 63
63 63 63
63 63 63
63 63 63
63 63 63
63 63 63
63 63 63
63 63 63
63 63 63
63 63 63
63 63 63
63 63 63
63 63 63
63 63 63
63 63 63
63 63 63
63 63 63
63 63 63
63 63 63
63 63 63
63 63 63
63 63 63
63 63 63
63 63 63
63 63 63
63 63 63
63 63 63
63 63 63
63 63 63
63 63 63
63 63 63
63 63 63
63 63 63
63 63 63
63 63 63
63 63 63
63 63 63
63 63 63
63 63 63
63 63 63
63 63 63
63 63 63
63 63 63
63 63 63
63 63 63
63 63 63
63 63 63
63 63 63
63 63 63
63 63 63
63 63 63
63 63 63
63 63 63
63 63 63
63 63 63
63 63 63
63 63 63
63 63 63
63 63 63
63 63 63
63 63 63
63 63 63
63 63 63
63 63 63
63 63 63
63 63 63
63 63 63
63 63 63
63 63 63
63 63 63
63 63 63
63 63 63
63 63 63
63 63 63
63 63 63
63 63 63
63 63 63
63 63 63
63 63 63
63 63 63
63 63 63
63 63 63
63 63 63
63 63 63
63 63 63
63 63 63
63 63 63
63 63 63
63 63 63
63 63 63
63 63 63
63 63 63
63 63 63
63 63 63
63 63 63
63 63 63
63 63 63
63 63 63
63 63 63
63 63 63
63 63 63
63 63 63
63 63 63
63 63 63
63 63 63
63 63 63
63 63 63
63 63 63
63 63 63
63 63 63
63 63 63
63 63 63
63 63 63
63 63 63
63 63 63
63 63 63
63 63 63
63 63 63
63 63 63
63 63 63
63 63 63
63 63 63
63 63 63
63 63 63
63 63 63
63 63 63
63 63 63
63 63 63
63 63 63
63 63 63
63 63 63
63 63 63
63 63 63
63 63 63
63 63 63
63 63 63
63 63 63
63 63 63
63 63 63
63 63 63
63 63 63
63 63 63
63 63 63
63 63 63
63 63 63
63 63 63
63 63 63
63 63 63
63 63 63
63 63 63
63 63 63
63 63 63
63 63 63
63 63 63
63 63 63
63 63 63
63 63 63
63 63 63
63 63 63
63 63 63
63 63 63
63 63 63
63 63 63
63 63 63
63 63 63
63 63 63
63 63 63
63 63 63
63 63 63
63 63 63
63 63 63
63 63 63
63 63 63
63 63 63
63 63 63
63 63 63
63 63 63
63 63 63
63 63 63
63 63 63
63 63 63
63 63 63
63 63 63
63 63 63
63 63 63
63 63 63
63 63 63
63 63 63
63 63 63
63 63 63
63 63 63
63 63 63
63 63 63
63 63 63
63 63 63
63 63 63
63 63 63
63 63 63
63 63 63
63 63 63
63 63 63
63 63 63
63 63 63
63 63 63
63 63 63
63 63 63
63 63 63
63 63 63
63 63 63
63 63 63
63 63 63
63 63 63
63 63 63
63 63 63
63 63 63
63 63 63
63 63 63
63 63 63
63 63 63
63 63 63
63 63 63
63 63 63
63 63 63
63 63 63
63 63 63
63 63 63
63 63 63
63 63 63
63 63 63
63 63 63
63 63 63
63 63 63
63 63 63
63 63 63
63 63 63
63 63 63
63 63 63
63 63 63
63 63 63
63 63 63
63 63 63
63 63 63
63 63 63
63 63 63
63 63 63
63 63 63
63 63 63
63 63 63
63 63 63
63 63 63
63 63 63
63 63 63
63 63 63
63 63 63
63 63 63
63 63 63
63 63 63
63 63 63
63 63 63
63 63 63
63 63 63
63 63 63
63 63 63
63 63 63
63 63 63
63 63 63
63 63 63
63 63 63
63 63 63
63 63 63
63 63 63
63 63 63
63 63 63
63 63 63
63 63 63
63 63 63
63 63 63
63 63 63
63 63 63
63 63 63
63 63 63
63 63 63
63 63 63
63 63 63
63 63 63
63 63 63
63 63 63
63 63 63
63 63 63
63 63 63
63 63 63
63 63 63
63 63 63
63 63 63
63 63 63
63 63 63
63 63 63
63 63 63
63 63 63
63 63 63
63 63 63
63 63 63
63 63 63
63 63 63
63 63 63
63 63 63
63 63 63
63 63 63
63 63 63
63 63 63
63 63 63
63 63 63
63 63 63
63 63 63
63 63 63
63 63 63
63 63 63
63 63 63
63 63 63
63 63 63
63 63 63
63 63 63
63 63 63
63 63 63
63 63 63
63 63 63
63 63 63
63 63 63
63 63 63
63 63 63
63 63 63
63 63 63
63 63 63
63 63 63
63 63 63
63 63 63
63 63 63
63 63 63
63 63 63
63 63 63
63 63 63
63 63 63
63 63 63
63 63 63
63 63 63
63 63 63
63 63 63
63 63 63
63 63 63
63 63 63
63 63 63
63 63 63
63 63 63
63 63 63
63 63 63
63 63 63
63 63 63
63 63 63
63 63 63
63 63 63
63 63 63
63 63 63
63 63 63
63 63 63
63 63 63
63 63 63
63 63 63
63 63 63
63 63 63
63 63 63
63 63 63
63 63 63
63 63 63
63 63 63
63 63 63
63 63 63
63 63 63
63 63 63
63 63 63
63 63 63
63 63 63
63 63 63
63 63 63
63 63 63
63 63 63
63 63 63
63 63 63
63 63 63
63 63 63
63 63 63
63 63 63
63 63 63
63 63 63
63 63 63
63 63 63
63 63 63
63 63 63
63 63 63
63 63 63
63 63 63
63 63 63
63 63 63
63 63 63
63 63 63
63 63 63
63 63 63
63 63 63
63 63 63
63 63 63
63 63 63
63 63 63
63 63 63
63 63 63
63 63 63
63 63 63
63 63 63
63 63 63
63 63 63
63 63 63
63 63 63
63 63 63
63 63 63
63 63 63
63 63 63
63 63 63
63 63 63
63 63 63
63 63 63
63 63 63
63 63 63
63 63 63
63 63 63
63 63 63
63 63 63
63 63 63
63 63 63
63 63 63
63 63 63
63 63 63
63 63 63
63 63 63
63 63 63
63 63 63
63 63 63
63 63 63
63 63 63
63 63 63
63 63 63
63 63 63
63 63 63
63 63 63
63 63 63
63 63 63
63 63 63
63 63 63
63 63 63
63 63 63
63 63 63
63 63 63
63 63 63
63 63 63
63 63 63
63 63 63
63 63 63
63 63 63
63 63 63
63 63 63
63 63 63
63 63 63
63 63 63
63 63 63
63 63 63
63 63 63
63 63 63
63 63 63
63 63 63
63 63 63
63 63 63
63 63 63
63 63 63
63 63 63
63 63 63
63 63 63
63 63 63
63 63 63
63 63 63
63 63 63
63 63 63
63 63 63
63 63 63
63 63 63
63 63 63
63 63 63
63 63 63
63 63 63
63 63 63
63 63 63
63 63 63
63 63 63
63 63 63
63 63 63
63 63 63
63 63 63
63 63 63
63 63 63
63 63 63
63 63 63
63 63 63
63 63 63
63 63 63
63 63 63
63 63 63
63 63 63
63 63 63
63 63 63
63 63 63
63 63 63
63 63 63
63 63 63
63 63 63
63 63 63
63 63 63
63 63 63
63 63 63
63 63 63
63 63 63
63 63 63
63 63 63
63 63 63
63 63 63
63 63 63
63 63 63
63 63 63
63 63 63
63 63 63
63 63 63
63 63 63
63 63 63
63 63 63
63 63 63
63 63 63
63 63 63
63 63 63
63 63 63
63 63 63
63 63 63
63 63 63
63 63 63
63 63 63
63 63 63
63 63 63
63 63 63
63 63 63
63 63 63
63 63 63
63 63 63
63 63 63
63 63 63
63 63 63
63 63 63
63 63 63
63 63 63
63 63 63
63 63 63
63 63 63
63 63 63
63 63 63
63 63 63
63 63 63
63 63 63
63 63 63
63 63 63
63 63 63
63 63 63
63 63 63
63 63 63
63 63 63
63 63 63
63 63 63
63 63 63
63 63 63
63 63 63
63 63 63
63 63 63
63 63 63
63 63 63
63 63 63
63 63 63
63 63 63
63 63 63
63 63 63
63 63 63
63 63 63
63 63 63
63 63 63
63 63 63
63 63 63
63 63 63
63 63 63
63 63 63
63 63 63
63 63 63
63 63 63
63 63 63
63 63 63
63 63 63
63 63 63
63 63 63
63 63 63
63 63 63
63 63 63
63 63 63
63 63 63
63 63 63
63 63 63
63 63 63
63 63 63
63 63 63
63 63 63
63 63 63
63 63 63
63 63 63
63 63 63
63 63 63
63 63 63
63 63 63
63 63 63
63 63 63
63 63 63
63 63 63
63 63 63
63 63 63
63 63 63
63 63 63
63 63 63
63 63 63
63 63 63
63 63 63
63 63 63
63 63 63
63 63 63
63 63 63
63 63 63
63 63 63
63 63 63
63 63 63
63 63 63
63 63 63
63 63 63
63 63 63
63 63 63
63 63 63
63 63 63
63 63 63
63 63 63
63 63 63
63 63 63
63 63 63
63 63 63
63 63 63
63 63 63
63 63 63
63 63 63
63 63 63
63 63 63
63 63 63
63 63 63
63 63 63
63 63 63
63 63 63
63 63 63
63 63 63
63 63 63
63 63 63
63 63 63
63 63 63
63 63 63
63 63 63
63 63 63
63 63 63
63 63 63
63 63 63
63 63 63
63 63 63
63 63 63
63 63 63
63 63 63
63 63 63
63 63 63
63 63 63
63 63 63
63 63 63
63 63 63
63 63 63
63 63 63
63 63 63
63 63 63
63 63 63
63 63 63
63 63 63
63 63 63
63 63 63
63 63 63
63 63 63
63 63 63
63 63 63
63 63 63
63 63 63
63 63 63
63 63 63
63 63 63
63 63 63
63 63 63
63 63 63
63 63 63
63 63 63
63 63 63
63 63 63
63 63 63
63 63 63
63 63 63
63 63 63
63 63 63
63 63 63
63 63 63
63 63 63
63 63 63
63 63 63
63 63 63
63 63 63
63 63 63
63 63 63
63 63 63
63 63 63
63 63 63
63 63 63
63 63 63
63 63 63
63 63 63
63 63 63
63 63 63
63 63 63
63 63 63
63 63 63
63 63 63
63 63 63
63 63 63
63 63 63
63 63 63
63 63 63
63 63 63
63 63 63
63 63 63
63 63 63
63 63 63
63 63 63
63 63 63
63 63 63
63 63 63
63 63 63
63 63 63
63 63 63
63 63 63
63 63 63
63 63 63
63 63 63
63 63 63
63 63 63
63 63 63
63 63 63
63 63 63
63 63 63
63 63 63
63 63 63
63 63 63
63 63 63
63 63 63
63 63 63
63 63 63
63 63 63
63 63 63
63 63 63
63 63 63
63 63 63
63 63 63
63 63 63
63 63 63
63 63 63
63 63 63
63 63 63
63 63 63
63 63 63
63 63 63
63 63 63
63 63 63
63 63 63
63 63 63
63 63 63
63 63 63
63 63 63
63 63 63
63 63 63
63 63 63
63 63 63
63 63 63
63 63 63
63 63 63
63 63 63
63 63 63
63 63 63
63 63 63
63 63 63
63 63 63
63 63 63
63 63 63
63 63 63
63 63 63
63 63 63
63 63 63
63 63 63
63 63 63
63 63 63
63 63 63
63 63 63
63 63 63
63 63 63
63 63 63
63 63 63
63 63 63
63 63 63
63 63 63
63 63 63
63 63 63
63 63 63
63 63 63
63 63 63
63 63 63
63 63 63
63 63 63
63 63 63
63 63 63
63 63 63
63 63 63
63 63 63
63 63 63
63 63 63
63 63 63
63 63 63
63 63 63
63 63 63
63 63 63
63 63 63
63 63 63
63 63 63
63 63 63
63 63 63
63 63 63
63 63 63
63 63 63
63 63 63
63 63 63
63 63 63
63 63 63
63 63 63
63 63 63
63 63 63
63 63 63
63 63 63
63 63 63
63 63 63
63 63 63
63 63 63
63 63 63
63 63 63
63 63 63
63 63 63
63 63 63
63 63 63
63 63 63
63 63 63
63 63 63
63 63 63
63 63 63
63 63 63
63 63 63
63 63 63
63 63 63
63 63 63
63 63 63
63 63 63
63 63 63
63 63 63
63 63 63
63 63 63
63 63 63
63 63 63
63 63 63
63 63 63
63 63 63
63 63 63
63 63 63
63 63 63
63 63 63
63 63 63
63 63 63
63 63 63
63 63 63
63 63 63
63 63 63
63 63 63
63 63 63
63 63 63
63 63 63
63 63 63
63 63 63
63 63 63
63 63 63
63 63 63
63 63 63
63 63 63
63 63 63
63 63 63
63 63 63
63 63 63
63 63 63
63 63 63
63 63 63
63 63 63
63 63 63
63 63 63
63 63 63
63 63 63
63 63 63
63 63 63
63 63 63
63 63 63
63 63 63
63 63 63
63 63 63
63 63 63
63 63 63
63 63 63
63 63 63
63 63 63
63 63 63
63 63 63
63 63 63
63 63 63
63 63 63
63 63 63
63 63 63
63 63 63
63 63 63
63 63 63
63 63 63
63 63 63
63 63 63
63 63 63
63 63 63
63 63 63
63 63 63
63 63 63
63 63 63
63 63 63
63 63 63
63 63 63
63 63 63
63 63 63
63 63 63
63 63 63
63 63 63
63 63 63
63 63 63
63 63 63
63 63 63
63 63 63
63 63 63
63 63 63
63 63 63
63 63 63
63 63 63
63 63 63
63 63 63
63 63 63
63 63 63
63 63 63
63 63 63
63 63 63
63 63 63
63 63 63
63 63 63
63 63 63
63 63 63
63 63 63
63 63 63
63 63 63
63 63 63
63 63 63
63 63 63
63 63 63
63 63 63
63 63 63
63 63 63
63 63 63
63 63 63
63 63 63
63 63 63
63 63 63
63 63 63
63 63 63
63 63 63
63 63 63
63 63 63
63 63 63
63 63 63
63 63 63
63 63 63
63 63 63
63 63 63
63 63 63
63 63 63
63 63 63
63 63 63
63 63 63
63 63 63
63 63 63
63 63 63
63 63 63
63 63 63
63 63 63
63 63 63
63 63 63
63 63 63
63 63 63
63 63 63
63 63 63
63 63 63
63 63 63
63 63 63
63 63 63
63 63 63
63 63 63
63 63 63
63 63 63
63 63 63
63 63 63
63 63 63
63 63 63
63 63 63
63 63 63
63 63 63
63 63 63
63 63 63
63 63 63
63 63 63
63 63 63
63 63 63
63 63 63
63 63 63
63 63 63
63 63 63
63 63 63
63 63 63
63 63 63
63 63 63
63 63 63
63 63 63
63 63 63
63 63 63
63 63 63
63 63 63
63 63 63
63 63 63
63 63 63
63 63 63
63 63 63
63 63 63
63 63 63
63 63 63
63 63 63
63 63 63
63 63 63
63 63 63
63 63 63
63 63 63
63 63 63
63 63 63
63 63 63
63 63 63
63 63 63
63 63 63
63 63 63
63 63 63
63 63 63
63 63 63
63 63 63
63 63 63
63 63 63
63 63 63
63 63 63
63 63 63
63 63 63
63 63 63
63 63 63
63 63 63
63 63 63
63 63 63
63 63 63
63 63 63
63 63 63
63 63 63
63 63 63
63 63 63
63 63 63
63 63 63
63 63 63
63 63 63
63 63 63
63 63 63
63 63 63
63 63 63
63 63 63
63 63 63
63 63 63
63 63 63
63 63 63
63 63 63
63 63 63
63 63 63
63 63 63
63 63 63
63 63 63
63 63 63
63 63 63
63 63 63
63 63 63
63 63 63
63 63 63
63 63 63
63 63 63
63 63 63
63 63 63
63 63 63
63 63 63
63 63 63
63 63 63
63 63 63
63 63 63
63 63 63
63 63 63
63 63 63
63 63 63
63 63 63
63 63 63
63 63 63
63 63 63
63 63 63
63 63 63
63 63 63
63 63 63
63 63 63
63 63 63
63 63 63
63 63 63
63 63 63
63 63 63
63 63 63
63 63 63
63 63 63
63 63 63
63 63 63
63 63 63
63 63 63
63 63 63
63 63 63
63 63 63
63 63 63
63 63 63
63 63 63
63 63 63
63 63 63
63 63 63
63 63 63
63 63 63
63 63 63
63 63 63
63 63 63
63 63 63
63 63 63
63 63 63
63 63 63
63 63 63
63 63 63
63 63 63
63 63 63
63 63 63
63 63 63
63 63 63
63 63 63
63 63 63
63 63 63
63 63 63
63 63 63
63 63 63
63 63 63
63 63 63
63 63 63
63 63 63
63 63 63
63 63 63
63 63 63
63 63 63
63 63 63
63 63 63
63 63 63
63 63 63
63 63 63
63 63 63
63 63 63
63 63 63
63 63 63
63 63 63
63 63 63
63 63 63
63 63 63
63 63 63
63 63 63
63 63 63
63 63 63
63 63 63
63 63 63
63 63 63
63 63 63
63 63 63
63 63 63
63 63 63
63 63 63
63 63 63
63 63 63
63 63 63
63 63 63
63 63 63
63 63 63
63 63 63
63 63 63
63 63 63
63 63 63
63 63 63
63 63 63
63 63 63
63 63 63
63 63 63
63 63 63
63 63 63
63 63 63
63 63 63
63 63 63
63 63 63
63 63 63
63 63 63
63 63 63
63 63 63
63 63 63
63 63 63
63 63 63
63 63 63
63 63 63
63 63 63
63 63 63
63 63 63
63 63 63
63 63 63
63 63 63
63 63 63
63 63 63
63 63 63
63 63 63
63 63 63
63 63 63
63 63 63
63 63 63
63 63 63
63 63 63
63 63 63
63 63 63
63 63 63
63 63 63
63 63 63
63 63 63
63 63 63
63 63 63
63 63 63
63 63 63
63 63 63
63 63 63
63 63 63
63 63 63
63 63 63
63 63 63
63 63 63
63 63 63
63 63 63
63 63 63
63 63 63
63 63 63
63 63 63
63 63 63
63 63 63
63 63 63
63 63 63
63 63 63
63 63 63
63 63 63
63 63 63
63 63 63
63 63 63
63 63 63
63 63 63
63 63 63
63 63 63
63 63 63
63 63 63
63 63 63
63 63 63
63 63 63
63 63 63
63 63 63
63 63 63
63 63 63
63 63 63
63 63 63
63 63 63
63 63 63
63 63 63
63 63 63
63 63 63
63 63 63
63 63 63
63 63 63
63 63 63
63 63 63
63 63 63
63 63 63
63 63 63
63 63 63
63 63 63
63 63 63
63 63 63
63 63 63
63 63 63
63 63 63
63 63 63
63 63 63
63 63 63
63 63 63
63 63 63
63 63 63
63 63 63
63 63 63
63 63 63
63 63 63
63 63 63
63 63 63
63 63 63
63 63 63
63 63 63
63 63 63
63 63 63
63 63 63
63 63 63
63 63 63
63 63 63
63 63 63
63 63 63
63 63 63
63 63 63
63 63 63
63 63 63
63 63 63
63 63 63
63 63 63
63 63 63
63 63 63
63 63 63
63 63 63
63 63 63
63 63 63
63 63 63
63 63 63
63 63 63
63 63 63
63 63 63
63 63 63
63 63 63
63 63 63
63 63 63
63 63 63
63 63 63
63 63 63
63 63 63
63 63 63
63 63 63
63 63 63
63 63 63
63 63 63
63 63 63
63 63 63
63 63 63
63 63 63
63 63 63
63 63 63
63 63 63
63 63 63
63 63 63
63 63 63
63 63 63
63 63 63
63 63 63
63 63 63
63 63 63
63 63 63
63 63 63
63 63 63
63 63 63
63 63 63
63 63 63
63 63 63
63 63 63
63 63 63
63 63 63
63 63 63
63 63 63
63 63 63
63 63 63
63 63 63
63 63 63
63 63 63
63 63 63
63 63 63
63 63 63
63 63 63
63 63 63
63 63 63
63 63 63
63 63 63
63 63 63
63 63 63
63 63 63
63 63 63
63 63 63
63 63 63
63 63 63
63 63 63
63 63 63
63 63 63
63 63 63
63 63 63
63 63 63
63 63 63
63 63 63
63 63 63
63 63 63
63 63 63
63 63 63
63 63 63
63 63 63
63 63 63
63 63 63
63 63 63
63 63 63
63 63 63
63 63 63
63 63 63
63 63 63
63 63 63
63 63 63
63 63 63
63 63 63
63 63 63
63 63 63
63 63 63
63 63 63
63 63 63
63 63 63
63 63 63
63 63 63
63 63 63
63 63 63
63 63 63
63 63 63
63 63 63
63 63 63
63 63 63
63 63 63
63 63 63
63 63 63
63 63 63
63 63 63
63 63 63
63 63 63
63 63 63
63 63 63
63 63 63
63 63 63
63 63 63
63 63 63
63 63 63
63 63 63
63 63 63
63 63 63
63 63 63
63 63 63
63 63 63
63 63 63
63 63 63
63 63 63
63 63 63
63 63 63
63 63 63
63 63 63
63 63 63
63 63 63
63 63 63
63 63 63
63 63 63
63 63 63
63 63 63
63 63 63
63 63 63
63 63 63
63 63 63
63 63 63
63 63 63
63 63 63
63 63 63
63 63 63
63 63 63
63 63 63
63 63 63
63 63 63
63 63 63
63 63 63
63 63 63
63 63 63
63 63 63
63 63 63
63 63 63
63 63 63
63 63 63
63 63 63
63 63 63
63 63 63
63 63 63
63 63 63
63 63 63
63 63 63
63 63 63
63 63 63
63 63 63
63 63 63
63 63 63
63 63 63
63 63 63
63 63 63
63 63 63
63 63 63
63 63 63
63 63 63
63 63 63
63 63 63
63 63 63
63 63 63
63 63 63
63 63 63
63 63 63
63 63 63
63 63 63
63 63 63
63 63 63
63 63 63
63 63 63
63 63 63
63 63 63
63 63 63
63 63 63
63 63 63
63 63 63
63 63 63
63 63 63
63 63 63
63 63 63
63 63 63
63 63 63
63 63 63
63 63 63
63 63 63
63 63 63
63 63 63
63 63 63
63 63 63
63 63 63
63 63 63
63 63 63
63 63 63
63 63 63
63 63 63
63 63 63
63 63 63
63 63 63
63 63 63
63 63 63
63 63 63
63 63 63
63 63 63
63 63 63
63 63 63
63 63 63
63 63 63
63 63 63
63 63 63
63 63 63
63 63 63
63 63 63
63 63 63
63 63 63
63 63 63
63 63 63
63 63 63
63 63 63
63 63 63
63 63 63
63 63 63
63 63 63
63 63 63
63 63 63
63 63 63
63 63 63
63 63 63
63 63 63
63 63 63
63 63 63
63 63 63
63 63 63
63 63 63
63 63 63
63 63 63
63 63 63
63 63 63
63 63 63
63 63 63
63 63 63
63 63 63
63 63 63
63 63 63
63 63 63
63 63 63
63 63 63
63 63 63
63 63 63
63 63 63
63 63 63
63 63 63
63 63 63
63 63 63
63 63 63
63 63 63
63 63 63
63 63 63
63 63 63
63 63 63
63 63 63
63 63 63
63 63 63
63 63 63
63 63 63
63 63 63
63 63 63
63 63 63
63 63 63
63 63 63
63 63 63
63 63 63
63 63 63
63 63 63
63 63 63
63 63 63
63 63 63
63 63 63
63 63 63
63 63 63
63 63 63
63 63 63
63 63 63
63 63 63
63 63 63
63 63 63
63 63 63
63 63 63
63 63 63
63 63 63
63 63 63
63 63 63
63 63 63
63 63 63
63 63 63
63 63 63
63 63 63
63 63 63
63 63 63
63 63 63
63 63 63
63 63 63
63 63 63
63 63 63
63 63 63
63 63 63
63 63 63
63 63 63
63 63 63
63 63 63
63 63 63
63 63 63
63 63 63
63 63 63
63 63 63
63 63 63
63 63 63
63 63 63
63 63 63
63 63 63
63 63 63
63 63 63
63 63 63
63 63 63
63 63 63
63 63 63
63 63 63
63 63 63
63 63 63
63 63 63
63 63 63
63 63 63
63 63 63
63 63 63
63 63 63
63 63 63
63 63 63
63 63 63
63 63 63
63 63 63
63 63 63
63 63 63
63 63 63
63 63 63
63 63 63
63 63 63
63 63 63
63 63 63
63 63 63
63 63 63
63 63 63
63 63 63
63 63 63
63 63 63
63 63 63
63 63 63
63 63 63
63 63 63
63 63 63
63 63 63
63 63 63
63 63 63
63 63 63
63 63 63
63 63 63
63 63 63
63 63 63
63 63 63
63 63 63
63 63 63
63 63 63
63 63 63
63 63 63
63 63 63
63 63 63
63 63 63
63 63 63
63 63 63
63 63 63
63 63 63
63 63 63
63 63 63
63 63 63
63 63 63
63 63 63
63 63 63
63 63 63
63 63 63
63 63 63
63 63 63
63 63 63
63 63 63
63 63 63
63 63 63
63 63 63
63 63 63
63 63 63
63 63 63
63 63 63
63 63 63
63 63 63
63 63 63
63 63 63
63 63 63
63 63 63
63 63 63
63 63 63
63 63 63
63 63 63
63 63 63
63 63 63
63 63 63
63 63 63
63 63 63
63 63 63
63 63 63
63 63 63
63 63 63
63 63 63
63 63 63
63 63 63
63 63 63
63 63 63
63 63 63
63 63 63
63 63 63
63 63 63
63 63 63
63 63 63
63 63 63
63 63 63
63 63 63
63 63 63
63 63 63
63 63 63
63 63 63
63 63 63
63 63 63
63 63 63
63 63 63
63 63 63
63 63 63
63 63 63
63 63 63
63 63 63
63 63 63
63 63 63
63 63 63
63 63 63
63 63 63
63 63 63
63 63 63
63 63 63
63 63 63
63 63 63
63 63 63
63 63 63
63 63 63
63 63 63
63 63 63
63 63 63
63 63 63
63 63 63
63 63 63
63 63 63
63 63 63
63 63 63
63 63 63
63 63 63
63 63 63
63 63 63
63 63 63
63 63 63
63 63 63
63 63 63
63 63 63
63 63 63
63 63 63
63 63 63
63 63 63
63 63 63
63 63 63
63 63 63
63 63 63
63 63 63
63 63 63
63 63 63
63 63 63
63 63 63
63 63 63
63 63 63
63 63 63
63 63 63
63 63 63
63 63 63
63 63 63
63 63 63
63 63 63
63 63 63
63 63 63
63 63 63
63 63 63
63 63 63
63 63 63
63 63 63
63 63 63
63 63 63
63 63 63
63 63 63
63 63 63
63 63 63
63 63 63
63 63 63
63 63 63
63 63 63
63 63 63
63 63 63
63 63 63
63 63 63
63 63 63
63 63 63
63 63 63
63 63 63
63 63 63
63 63 63
63 63 63
63 63 63
63 63 63
63 63 63
63 63 63
63 63 63
63 63 63
63 63 63
63 63 63
63 63 63
63 63 63
63 63 63
63 63 63
63 63 63
63 63 63
63 63 63
63 63 63
63 63 63
63 63 63
63 63 63
63 63 63
63 63 63
63 63 63
63 63 63
63 63 63
63 63 63
63 63 63
63 63 63
63 63 63
63 63 63
63 63 63
63 63 63
63 63 63
63 63 63
63 63 63
63 63 63
63 63 63
63 63 63
63 63 63
63 63 63
63 63 63
63 63 63
63 63 63
63 63 63
63 63 63
63 63 63
63 63 63
63 63 63
63 63 63
63 63 63
63 63 63
63 63 63
63 63 63
63 63 63
63 63 63
63 63 63
63 63 63
63 63 63
63 63 63
63 63 63
63 63 63
63 63 63
63 63 63
63 63 63
63 63 63
63 63 63
63 63 63
63 63 63
63 63 63
63 63 63
63 63 63
63 63 63
63 63 63
63 63 63
63 63 63
63 63 63
63 63 63
63 63 63
63 63 63
63 63 63
63 63 63
63 63 63
63 63 63
63 63 63
63 63 63
63 63 63
63 63 63
63 63 63
63 63 63
63 63 63
63 63 63
63 63 63
63 63 63
63 63 63
63 63 63
63 63 63
63 63 63
63 63 63
63 63 63
63 63 63
63 63 63
63 63 63
63 63 63
63 63 63
63 63 63
63 63 63
63 63 63
63 63 63
63 63 63
63 63 63
63 63 63
63 63 63
63 63 63
63 63 63
63 63 63
63 63 63
63 63 63
63 63 63
63 63 63
63 63 63
63 63 63
63 63 63
63 63 63
63 63 63
63 63 63
63 63 63
63 63 63
63 63 63
63 63 63
63 63 63
63 63 63
63 63 63
63 63 63
63 63 63
63 63 63
63 63 63
63 63 63
63 63 63
63 63 63
63 63 63
63 63 63
63 63 63
63 63 63
63 63 63
63 63 63
63 63 63
63 63 63
63 63 63
63 63 63
63 63 63
63 63 63
63 63 63
63 63 63
63 63 63
63 63 63
63 63 63
63 63 63
63 63 63
63 63 63
63 63 63
63 63 63
63 63 63
63 63 63
63 63 63
63 63 63
63 63 63
63 63 63
63 63 63
63 63 63
63 63 63
63 63 63
63 63 63
63 63 63
63 63 63
63 63 63
63 63 63
63 63 63
63 63 63
63 63 63
63 63 63
63 63 63
63 63 63
63 63 63
63 63 63
63 63 63
63 63 63
63 63 63
63 63 63
63 63 63
63 63 63
63 63 63
63 63 63
63 63 63
63 63 63
63 63 63
63 63 63
63 63 63
63 63 63
63 63 63
63 63 63
63 63 63
63 63 63
63 63 63
63 63 63
63 63 63
63 63 63
63 63 63
63 63 63
63 63 63
63 63 63
63 63 63
63 63 63
63 63 63
63 63 63
63 63 63
63 63 63
63 63 63
63 63 63
63 63 63
63 63 63
63 63 63
63 63 63
63 63 63
63 63 63
63 63 63
63 63 63
63 63 63
63 63 63
63 63 63
63 63 63
63 63 63
63 63 63
63 63 63
63 63 63
63 63 63
63 63 63
63 63 63
63 63 63
63 63 63
63 63 63
63 63 63
63 63 63
63 63 63
63 63 63
63 63 63
63 63 63
63 63 63
63 63 63
63 63 63
63 63 63
63 63 63
63 63 63
63 63 63
63 63 63
63 63 63
63 63 63
63 63 63
63 63 63
63 63 63
63 63 63
63 63 63
63 63 63
63 63 63
63 63 63
63 63 63
63 63 63
63 63 63
63 63 63
63 63 63
63 63 63
63 63 63
63 63 63
63 63 63
63 63 63
63 63 63
63 63 63
63 63 63
63 63 63
63 63 63
63 63 63
63 63 63
63 63 63
63 63 63
63 63 63
63 63 63
63 63 63
63 63 63
63 63 63
63 63 63
63 63 63
63 63 63
63 63 63
63 63 63
63 63 63
63 63 63
63 63 63
63 63 63
63 63 63
63 63 63
63 63 63
63 63 63
63 63 63
63 63 63
63 63 63
63 63 63
63 63 63
63 63 63
63 63 63
63 63 63
63 63 63
63 63 63
63 63 63
63 63 63
63 63 63
63 63 63
63 63 63
63 63 63
63 63 63
63 63 63
63 63 63
63 63 63
63 63 63
63 63 63
63 63 63
63 63 63
63 63 63
63 63 63
63 63 63
63 63 63
63 63 63
63 63 63
63 63 63
63 63 63
63 63 63
63 63 63
63 63 63
63 63 63
63 63 63
63 63 63
63 63 63
63 63 63
63 63 63
63 63 63
63 63 63
63 63 63
63 63 63
63 63 63
63 63 63
63 63 63
63 63 63
63 63 63
63 63 63
63 63 63
63 63 63
63 63 63
63 63 63
63 63 63
63 63 63
63 63 63
63 63 63
63 63 63
63 63 63
63 63 63
63 63 63
63 63 63
63 63 63
63 63 63
63 63 63
63 63 63
63 63 63
63 63 63
63 63 63
63 63 63
63 63 63
63 63 63
63 63 63
63 63 63
63 63 63
63 63 63
63 63 63
63 63 63
63 63 63
63 63 63
63 63 63
63 63 63
63 63 63
63 63 63
63 63 63
63 63 63
63 63 63
63 63 63
63 63 63
63 63 63
63 63 63
63 63 63
63 63 63
63 63 63
63 63 63
63 63 63
63 63 63
63 63 63
63 63 63
63 63 63
63 63 63
63 63 63
63 63 63
63 63 63
63 63 63
63 63 63
63 63 63
63 63 63
63 63 63
63 63 63
63 63 63
63 63 63
63 63 63
63 63 63
63 63 63
63 63 63
63 63 63
63 63 63
63 63 63
63 63 63
63 63 63
63 63 63
63 63 63
63 63 63
63 63 63
63 63 63
63 63 63
63 63 63
63 63 63
63 63 63
63 63 63
63 63 63
63 63 63
63 63 63
63 63 63
63 63 63
63 63 63
63 63 63
63 63 63
63 63 63
63 63 63
63 63 63
63 63 63
63 63 63
63 63 63
63 63 63
63 63 63
63 63 63
63 63 63
63 63 63
63 63 63
63 63 63
63 63 63
63 63 63
63 63 63
63 63 63
63 63 63
63 63 63
63 63 63
63 63 63
63 63 63
63 63 63
63 63 63
63 63 63
63 63 63
63 63 63
63 63 63
63 63 63
63 63 63
63 63 63
63 63 63
63 63 63
63 63 63
63 63 63
63 63 63
63 63 63
63 63 63
63 63 63
63 63 63
63 63 63
63 63 63
63 63 63
63 63 63
63 63 63
63 63 63
63 63 63
63 63 63
63 63 63
63 63 63
63 63 63
63 63 63
63 63 63
63 63 63
63 63 63
63 63 63
63 63 63
63 63 63
63 63 63
63 63 63
63 63 63
63 63 63
63 63 63
63 63 63
63 63 63
63 63 63
63 63 63
63 63 63
63 63 63
63 63 63
63 63 63
63 63 63
63 63 63
63 63 63
63 63 63
63 63 63
63 63 63
63 63 63
63 63 63
63 63 63
63 63 63
63 63 63
63 63 63
63 63 63
63 63 63
63 63 63
63 63 63
63 63 63
63 63 63
63 63 63
63 63 63
63 63 63
63 63 63
63 63 63
63 63 63
63 63 63
63 63 63
63 63 63
63 63 63
63 63 63
63 63 63
63 63 63
63 63 63
63 63 63
63 63 63
63 63 63
63 63 63
63 63 63
63 63 63
63 63 63
63 63 63
63 63 63
63 63 63
63 63 63
63 63 63
63 63 63
63 63 63
63 63 63
63 63 63
63 63 63
63 63 63
63 63 63
63 63 63
63 63 63
63 63 63
63 63 63
63 63 63
63 63 63
63 63 63
63 63 63
63 63 63
63 63 63
63 63 63
63 63 63
63 63 63
63 63 63
63 63 63
63 63 63
63 63 63
63 63 63
63 63 63
63 63 63
63 63 63
63 63 63
63 63 63
63 63 63
63 63 63
63 63 63
63 63 63
63 63 63
63 63 63
63 63 63
63 63 63
63 63 63
63 63 63
63 63 63
63 63 63
63 63 63
63 63 63
63 63 63
63 63 63
63 63 63
63 63 63
63 63 63
63 63 63
63 63 63
63 63 63
63 63 63
63 63 63
63 63 63
63 63 63
63 63 63
63 63 63
63 63 63
63 63 63
63 63 63
63 63 63
63 63 63
63 63 63
63 63 63
63 63 63
63 63 63
63 63 63
63 63 63
63 63 63
63 63 63
63 63 63
63 63 63
63 63 63
63 63 63
63 63 63
63 63 63
63 63 63
63 63 63
63 63 63
63 63 63
63 63 63
63 63 63
63 63 63
63 63 63
63 63 63
63 63 63
63 63 63
63 63 63
63 63 63
63 63 63
63 63 63
63 63 63
63 63 63
63 63 63
63 63 63
63 63 63
63 63 63
63 63 63
63 63 63
63 63 63
63 63 63
63 63 63
63 63 63
63 63 63
63 63 63
63 63 63
63 63 63
63 63 63
63 63 63
63 63 63
63 63 63
63 63 63
63 63 63
63 63 63
63 63 63
63 63 63
63 63 63
63 63 63
63 63 63
63 63 63
63 63 63
63 63 63
63 63 63
63 63 63
63 63 63
63 63 63
63 63 63
63 63 63
63 63 63
63 63 63
63 63 63
63 63 63
63 63 63
63 63 63
63 63 63
63 63 63
63 63 63
63 63 63
63 63 63
63 63 63
63 63 63
63 63 63
63 63 63
63 63 63
63 63 63
63 63 63
63 63 63
63 63 63
63 63 63
63 63 63
63 63 63
63 63 63
63 63 63
63 63 63
63 63 63
63 63 63
63 63 63
63 63 63
63 63 63
63 63 63
63 63 63
63 63 63
63 63 63
63 63 63
63 63 63
63 63 63
63 63 63
63 63 63
63 63 63
63 63 63
63 63 63
63 63 63
63 63 63
63 63 63
63 63 63
63 63 63
63 63 63
63 63 63
63 63 63
63 63 63
63 63 63
63 63 63
63 63 63
63 63 63
63 63 63
63 63 63
63 63 63
63 63 63
63 63 63
63 63 63
63 63 63
63 63 63
63 63 63
63 63 63
63 63 63
63 63 63
63 63 63
63 63 63
63 63 63
63 63 63
63 63 63
63 63 63
63 63 63
63 63 63
63 63 63
63 63 63
63 63 63
63 63 63
63 63 63
63 63 63
63 63 63
63 63 63
63 63 63
63 63 63
63 63 63
63 63 63
63 63 63
63 63 63
63 63 63
63 63 63
63 63 63
63 63 63
63 63 63
63 63 63
63 63 63
63 63 63
63 63 63
63 63 63
63 63 63
63 63 63
63 63 63
63 63 63
63 63 63
63 63 63
63 63 63
63 63 63
63 63 63
63 63 63
63 63 63
63 63 63
63 63 63
63 63 63
63 63 63
63 63 63
63 63 63
63 63 63
63 63 63
63 63 63
63 63 63
63 63 63
63 63 63
63 63 63
63 63 63
63 63 63
63 63 63
63 63 63
63 63 63
63 63 63
63 63 63
63 63 63
63 63 63
63 63 63
63 63 63
63 63 63
63 63 63
63 63 63
63 63 63
63 63 63
63 63 63
63 63 63
63 63 63
63 63 63
63 63 63
63 63 63
63 63 63
63 63 63
63 63 63
63 63 63
63 63 63
63 63 63
63 63 63
63 63 63
63 63 63
63 63 63
63 63 63
63 63 63
63 63 63
63 63 63
63 63 63
63 63 63
63 63 63
63 63 63
63 63 63
63 63 63
63 63 63
63 63 63
63 63 63
63 63 63
63 63 63
63 63 63
63 63 63
63 63 63
63 63 63
63 63 63
63 63 63
63 63 63
63 63 63
63 63 63
63 63 63
63 63 63
63 63 63
63 63 63
63 63 63
63 63 63
63 63 63
63 63 63
63 63 63
63 63 63
63 63 63
63 63 63
63 63 63
63 63 63
63 63 63
63 63 63
63 63 63
63 63 63
63 63 63
63 63 63
63 63 63
63 63 63
63 63 63
63 63 63
63 63 63
63 63 63
63 63 63
63 63 63
63 63 63
63 63 63
63 63 63
63 63 63
63 63 63
63 63 63
63 63 63
63 63 63
63 63 63
63 63 63
63 63 63
63 63 63
63 63 63
63 63 63
63 63 63
63 63 63
63 63 63
63 63 63
63 63 63
63 63 63
63 63 63
63 63 63
63 63 63
63 63 63
63 63 63
63 63 63
63 63 63
63 63 63
63 63 63
63 63 63
63 63 63
63 63 63
63 63 63
63 63 63
63 63 63
63 63 63
63 63 63
63 63 63
63 63 63
63 63 63
63 63 63
63 63 63
63 63 63
63 63 63
63 63 63
63 63 63
63 63 63
63 63 63
63 63 63
63 63 63
63 63 63
63 63 63
63 63 63
63 63 63
63 63 63
63 63 63
63 63 63
63 63 63
63 63 63
63 63 63
63 63 63
63 63 63
63 63 63
63 63 63
63 63 63
63 63 63
63 63 63
63 63 63
63 63 63
63 63 63
63 63 63
63 63 63
63 63 63
63 63 63
63 63 63
63 63 63
63 63 63
63 63 63
63 63 63
63 63 63
63 63 63
63 63 63
63 63 63
63 63 63
63 63 63
63 63 63
63 63 63
63 63 63
63 63 63
63 63 63
63 63 63
63 63 63
63 63 63
63 63 63
63 63 63
63 63 63
63 63 63
63 63 63
63 63 63
63 63 63
63 63 63
63 63 63
63 63 63
63 63 63
63 63 63
63 63 63
63 63 63
63 63 63
63 63 63
63 63 63
63 63 63
63 63 63
63 63 63
63 63 63
63 63 63
63 63 63
63 63 63
63 63 63
63 63 63
63 63 63
63 63 63
63 63 63
63 63 63
63 63 63
63 63 63
63 63 63
63 63 63
63 63 63
63 63 63
63 63 63
63 63 63
63 63 63
63 63 63
63 63 63
63 63 63
63 63 63
63 63 63
63 63 63
63 63 63
63 63 63
63 63 63
63 63 63
63 63 63
63 63 63
63 63 63
63 63 63
63 63 63
63 63 63
63 63 63
63 63 63
63 63 63
63 63 63
63 63 63
63 63 63
63 63 63
63 63 63
63 63 63
63 63 63
63 63 63
63 63 63
63 63 63
63 63 63
63 63 63
63 63 63
63 63 63
63 63 63
63 63 63
63 63 63
63 63 63
63 63 63
63 63 63
63 63 63
63 63 63
63 63 63
63 63 63
63 63 63
63 63 63
63 63 63
63 63 63
63 63 63
63 63 63
63 63 63
63 63 63
63 63 63
63 63 63
63 63 63
63 63 63
63 63 63
63 63 63
63 63 63
63 63 63
63 63 63
63 63 63
63 63 63
63 63 63
63 63 63
63 63 63
63 63 63
63 63 63
63 63 63
63 63 63
63 63 63
63 63 63
63 63 63
63 63 63
63 63 63
63 63 63
63 63 63
63 63 63
63 63 63
63 63 63
63 63 63
63 63 63
63 63 63
63 63 63
63 63 63
63 63 63
63 63 63
63 63 63
63 63 63
63 63 63
63 63 63
63 63 63
63 63 63
63 63 63
63 63 63
63 63 63
63 63 63
63 63 63
63 63 63
63 63 63
63 63 63
63 63 63
63 63 63
63 63 63
63 63 63
63 63 63
63 63 63
63 63 63
63 63 63
63 63 63
63 63 63
63 63 63
63 63 63
63 63 63
63 63 63
63 63 63
63 63 63
63 63 63
63 63 63
63 63 63
63 63 63
63 63 63
63 63 63
63 63 63
63 63 63
63 63 63
63 63 63
63 63 63
63 63 63
63 63 63
63 63 63
63 63 63
63 63 63
63 63 63
63 63 63
63 63 63
63 63 63
63 63 63
63 63 63
63 63 63
63 63 63
63 63 63
63 63 63
63 63 63
63 63 63
63 63 63
63 63 63
63 63 63
63 63 63
63 63 63
63 63 63
63 63 63
63 63 63
63 63 63
63 63 63
63 63 63
63 63 63
63 63 63
63 63 63
63 63 63
63 63 63
63 63 63
63 63 63
63 63 63
63 63 63
63 63 63
63 63 63
63 63 63
63 63 63
63 63 63
63 63 63
63 63 63
63 63 63
63 63 63
63 63 63
63 63 63
63 63 63
63 63 63
63 63 63
63 63 63
63 63 63
63 63 63
63 63 63
63 63 63
63 63 63
63 63 63
63 63 63
63 63 63
63 63 63
63 63 63
63 63 63
63 63 63
63 63 63
63 63 63
63 63 63
63 63 63
63 63 63
63 63 63
63 63 63
63 63 63
63 63 63
63 63 63
63 63 63
63 63 63
63 63 63
63 63 63
63 63 63
63 63 63
63 63 63
63 63 63
63 63 63
63 63 63
63 63 63
63 63 63
63 63 63
63 63 63
63 63 63
63 63 63
63 63 63
63 63 63
63 63 63
63 63 63
63 63 63
63 63 63
63 63 63
63 63 63
63 63 63
63 63 63
63 63 63
63 63 63
63 63 63
63 63 63
63 63 63
63 63 63
63 63 63
63 63 63
63 63 63
63 63 63
63 63 63
63 63 63
63 63 63
63 63 63
63 63 63
63 63 63
63 63 63
63 63 63
63 63 63
63 63 63
63 63 63
63 63 63
63 63 63
63 63 63
63 63 63
63 63 63
63 63 63
63 63 63
63 63 63
63 63 63
63 63 63
63 63 63
63 63 63
63 63 63
63 63 63
63 63 63
63 63 63
63 63 63
63 63 63
63 63 63
63 63 63
63 63 63
63 63 63
63 63 63
63 63 63
63 63 63
63 63 63
63 63 63
63 63 63
63 63 63
63 63 63
63 63 63
63 63 63
63 63 63
63 63 63
63 63 63
63 63 63
63 63 63
63 63 63
63 63 63
63 63 63
63 63 63
63 63 63
63 63 63
63 63 63
63 63 63
63 63 63
63 63 63
63 63 63
63 63 63
63 63 63
63 63 63
63 63 63
63 63 63
63 63 63
63 63 63
63 63 63
63 63 63
63 63 63
63 63 63
63 63 63
63 63 63
63 63 63
63 63 63
63 63 63
63 63 63
63 63 63
63 63 63
63 63 63
63 63 63
63 63 63
63 63 63
63 63 63
63 63 63
63 63 63
63 63 63
63 63 63
63 63 63
63 63 63
63 63 63
63 63 63
63 63 63
63 63 63
63 63 63
63 63 63
63 63 63
63 63 63
63 63 63
63 63 63
63 63 63
63 63 63
63 63 63
63 63 63
63 63 63
63 63 63
63 63 63
63 63 63
63 63 63
63 63 63
63 63 63
63 63 63
63 63 63
63 63 63
63 63 63
63 63 63
63 63 63
63 63 63
63 63 63
63 63 63
63 63 63
63 63 63
63 63 63
63 63 63
63 63 63
63 63 63
63 63 63
63 63 63
63 63 63
63 63 63
63 63 63
63 63 63
63 63 63
63 63 63
63 63 63
63 63 63
63 63 63
63 63 63
63 63 63
63 63 63
63 63 63
63 63 63
63 63 63
63 63 63
63 63 63
63 63 63
63 63 63
63 63 63
63 63 63
63 63 63
63 63 63
63 63 63
63 63 63
63 63 63
63 63 63
63 63 63
63 63 63
63 63 63
63 63 63
63 63 63
63 63 63
63 63 63
63 63 63
63 63 63
63 63 63
63 63 63
63 63 63
63 63 63
63 63 63
63 63 63
63 63 63
63 63 63
63 63 63
63 63 63
63 63 63
63 63 63
63 63 63
63 63 63
63 63 63
63 63 63
63 63 63
63 63 63
63 63 63
63 63 63
63 63 63
63 63 63
63 63 63
63 63 63
63 63 63
63 63 63
63 63 63
63 63 63
63 63 63
63 63 63
63 63 63
63 63 63
63 63 63
63 63 63
63 63 63
63 63 63
63 63 63
63 63 63
63 63 63
63 63 63
63 63 63
63 63 63
63 63 63
63 63 63
63 63 63
63 63 63
63 63 63
63 63 63
63 63 63
63 63 63
63 63 63
63 63 63
63 63 63
63 63 63
63 63 63
63 63 63
63 63 63
63 63 63
63 63 63
63 63 63
63 63 63
63 63 63
63 63 63
63 63 63
63 63 63
63 63 63
63 63 63
63 63 63
63 63 63
63 63 63
63 63 63
63 63 63
63 63 63
63 63 63
63 63 63
63 63 63
63 63 63
63 63 63
63 63 63
63 63 63
63 63 63
63 63 63
63 63 63
63 63 63
63 63 63
63 63 63
63 63 63
63 63 63
63 63 63
63 63 63
63 63 63
63 63 63
63 63 63
63 63 63
63 63 63
63 63 63
63 63 63
63 63 63
63 63 63
63 63 63
63 63 63
63 63 63
63 63 63
63 63 63
63 63 63
63 63 63
63 63 63
63 63 63
63 63 63
63 63 63
63 63 63
63 63 63
63 63 63
63 63 63
63 63 63
63 63 63
63 63 63
63 63 63
63 63 63
63 63 63
63 63 63
63 63 63
63 63 63
63 63 63
63 63 63
63 63 63
63 63 63
63 63 63
63 63 63
63 63 63
63 63 63
63 63 63
63 63 63
63 63 63
63 63 63
63 63 63
63 63 63
63 63 63
63 63 63
63 63 63
63 63 63
63 63 63
63 63 63
63 63 63
63 63 63
63 63 63
63 63 63
63 63 63
63 63 63
63 63 63
63 63 63
63 63 63
63 63 63
63 63 63
63 63 63
63 63 63
63 63 63
63 63 63
63 63 63
63 63 63
63 63 63
63 63 63
63 63 63
63 63 63
63 63 63
63 63 63
63 63 63
63 63 63
63 63 63
63 63 63
63 63 63
63 63 63
63 63 63
63 63 63
63 63 63
63 63 63
63 63 63
63 63 63
63 63 63
63 63 63
63 63 63
63 63 63
63 63 63
63 63 63
63 63 63
63 63 63
63 63 63
63 63 63
63 63 63
63 63 63
63 63 63
63 63 63
63 63 63
63 63 63
63 63 63
63 63 63
63 63 63
63 63 63
63 63 63
63 63 63
63 63 63
63 63 63
63 63 63
63 63 63
63 63 63
63 63 63
63 63 63
63 63 63
63 63 63
63 63 63
63 63 63
63 63 63
63 63 63
63 63 63
63 63 63
63 63 63
63 63 63
63 63 63
63 63 63
63 63 63
63 63 63
63 63 63
63 63 63
63 63 63
63 63 63
63 63 63
63 63 63
63 63 63
63 63 63
63 63 63
63 63 63
63 63 63
63 63 63
63 63 63
63 63 63
63 63 63
63 63 63
63 63 63
63 63 63
63 63 63
63 63 63
63 63 63
63 63 63
63 63 63
63 63 63
63 63 63
63 63 63
63 63 63
63 63 63
63 63 63
63 63 63
63 63 63
63 63 63
63 63 63
63 63 63
63 63 63
63 63 63
63 63 63
63 63 63
63 63 63
63 63 63
63 63 63
63 63 63
63 63 63
63 63 63
63 63 63
63 63 63
63 63 63
63 63 63
63 63 63
63 63 63
63 63 63
63 63 63
63 63 63
63 63 63
63 63 63
63 63 63
63 63 63
63 63 63
63 63 63
63 63 63
63 63 63
63 63 63
63 63 63
63 63 63
63 63 63
63 63 63
63 63 63
63 63 63
63 63 63
63 63 63
63 63 63
63 63 63
63 63 63
63 63 63
63 63 63
63 63 63
63 63 63
63 63 63
63 63 63
63 63 63
63 63 63
63 63 63
63 63 63
63 63 63
63 63 63
63 63 63
63 63 63
63 63 63
63 63 63
63 63 63
63 63 63
63 63 63
63 63 63
63 63 63
63 63 63
63 63 63
63 63 63
63 63 63
63 63 63
63 63 63
63 63 63
63 63 63
63 63 63
63 63 63
63 63 63
63 63 63
63 63 63
63 63 63
63 63 63
63 63 63
63 63 63
63 63 63
63 63 63
63 63 63
63 63 63
63 63 63
63 63 63
63 63 63
63 63 63
63 63 63
63 63 63
63 63 63
63 63 63
63 63 63
63 63 63
63 63 63
63 63 63
63 63 63
63 63 63
63 63 63
63 63 63
63 63 63
63 63 63
63 63 63
63 63 63
63 63 63
63 63 63
63 63 63
63 63 63
63 63 63
63 63 63
63 63 63
63 63 63
63 63 63
63 63 63
63 63 63
63 63 63
63 63 63
63 63 63
63 63 63
63 63 63
63 63 63
63 63 63
63 63 63
63 63 63
63 63 63
63 63 63
63 63 63
63 63 63
63 63 63
63 63 63
63 63 63
63 63 63
63 63 63
63 63 63
63 63 63
63 63 63
63 63 63
63 63 63
63 63 63
63 63 63
63 63 63
63 63 63
63 63 63
63 63 63
63 63 63
63 63 63
63 63 63
63 63 63
63 63 63
63 63 63
63 63 63
63 63 63
63 63 63
63 63 63
63 63 63
63 63 63
63 63 63
63 63 63
63 63 63
63 63 63
63 63 63
63 63 63
63 63 63
63 63 63
63 63 63
63 63 63
63 63 63
63 63 63
63 63 63
63 63 63
63 63 63
63 63 63
63 63 63
63 63 63
63 63 63
63 63 63
63 63 63
63 63 63
63 63 63
63 63 63
63 63 63
63 63 63
63 63 63
63 63 63
63 63 63
63 63 63
63 63 63
63 63 63
63 63 63
63 63 63
63 63 63
63 63 63
63 63 63
63 63 63
63 63 63
63 63 63
63 63 63
63 63 63
63 63 63
63 63 63
63 63 63
63 63 63
63 63 63
63 63 63
63 63 63
63 63 63
63 63 63
63 63 63
63 63 63
63 63 63
63 63 63
63 63 63
63 63 63
63 63 63
63 63 63
63 63 63
63 63 63
63 63 63
63 63 63
63 63 63
63 63 63
63 63 63
63 63 63
63 63 63
63 63 63
63 63 63
63 63 63
63 63 63
63 63 63
63 63 63
63 63 63
63 63 63
63 63 63
63 63 63
63 63 63
63 63 63
63 63 63
63 63 63
63 63 63
63 63 63
63 63 63
63 63 63
63 63 63
63 63 63
63 63 63
63 63 63
63 63 63
63 63 63
63 63 63
63 63 63
63 63 63
63 63 63
63 63 63
63 63 63
63 63 63
63 63 63
63 63 63
63 63 63
63 63 63
63 63 63
63 63 63
63 63 63
63 63 63
63 63 63
63 63 63
63 63 63
63 63 63
63 63 63
63 63 63
63 63 63
63 63 63
63 63 63
63 63 63
63 63 63
63 63 63
63 63 63
63 63 63
63 63 63
63 63 63
63 63 63
63 63 63
63 63 63
63 63 63
63 63 63
63 63 63
63 63 63
63 63 63
63 63 63
63 63 63
63 63 63
63 63 63
63 63 63
63 63 63
63 63 63
63 63 63
63 63 63
63 63 63
63 63 63
63 63 63
63 63 63
63 63 63
63 63 63
63 63 63
63 63 63
63 63 63
63 63 63
63 63 63
63 63 63
63 63 63
63 63 63
63 63 63
63 63 63
63 63 63
63 63 63
63 63 63
63 63 63
63 63 63
63 63 63
63 63 63
63 63 63
63 63 63
63 63 63
63 63 63
63 63 63
63 63 63
63 63 63
63 63 63
63 63 63
63 63 63
63 63 63
63 63 63
63 63 63
63 63 63
63 63 63
63 63 63
63 63 63
63 63 63
63 63 63
63 63 63
63 63 63
63 63 63
63 63 63
63 63 63
63 63 63
63 63 63
63 63 63
63 63 63
63 63 63
63 63 63
63 63 63
63 63 63
63 63 63
63 63 63
63 63 63
63 63 63
63 63 63
63 63 63
63 63 63
63 63 63
63 63 63
63 63 63
63 63 63
63 63 63
63 63 63
63 63 63
63 63 63
63 63 63
63 63 63
63 63 63
63 63 63
63 63 63
63 63 63
63 63 63
63 63 63
63 63 63
63 63 63
63 63 63
63 63 63
63 63 63
63 63 63
63 63 63
63 63 63
63 63 63
63 63 63
63 63 63
63 63 63
63 63 63
63 63 63
63 63 63
63 63 63
63 63 63
63 63 63
63 63 63
63 63 63
63 63 63
63 63 63
63 63 63
63 63 63
63 63 63
63 63 63
63 63 63
63 63 63
63 63 63
63 63 63
63 63 63
63 63 63
63 63 63
63 63 63
63 63 63
63 63 63
63 63 63
63 63 63
63 63 63
63 63 63
63 63 63
63 63 63
63 63 63
63 63 63
63 63 63
63 63 63
63 63 63
63 63 63
63 63 63
63 63 63
63 63 63
63 63 63
63 63 63
63 63 63
63 63 63
63 63 63
63 63 63
63 63 63
63 63 63
63 63 63
63 63 63
63 63 63
63 63 63
63 63 63
63 63 63
63 63 63
63 63 63
63 63 63
63 63 63
63 63 63
63 63 63
63 63 63
63 63 63
63 63 63
63 63 63
63 63 63
63 63 63
63 63 63
63 63 63
63 63 63
63 63 63
63 63 63
63 63 63
63 63 63
63 63 63
63 63 63
63 63 63
63 63 63
63 63 63
63 63 63
63 63 63
63 63 63
63 63 63
63 63 63
63 63 63
63 63 63
63 63 63
63 63 63
63 63 63
63 63 63
63 63 63
63 63 63
63 63 63
63 63 63
63 63 63
63 63 63
63 63 63
63 63 63
63 63 63
63 63 63
63 63 63
63 63 63
63 63 63
63 63 63
63 63 63
63 63 63
63 63 63
63 63 63
63 63 63
63 63 63
63 63 63
63 63 63
63 63 63
63 63 63
63 63 63
63 63 63
63 63 63
63 63 63
63 63 63
63 63 63
63 63 63
63 63 63
63 63 63
63 63 63
63 63 63
63 63 63
63 63 63
63 63 63
63 63 63
63 63 63
63 63 63
63 63 63
63 63 63
63 63 63
63 63 63
63 63 63
63 63 63
63 63 63
63 63 63
63 63 63
63 63 63
63 63 63
63 63 63
63 63 63
63 63 63
63 63 63
63 63 63
63 63 63
63 63 63
63 63 63
63 63 63
63 63 63
63 63 63
63 63 63
63 63 63
63 63 63
63 63 63
63 63 63
63 63 63
63 63 63
63 63 63
63 63 63
63 63 63
63 63 63
63 63 63
63 63 63
63 63 63
63 63 63
63 63 63
63 63 63
63 63 63
63 63 63
63 63 63
63 63 63
63 63 63
63 63 63
63 63 63
63 63 63
63 63 63
63 63 63
63 63 63
63 63 63
63 63 63
63 63 63
63 63 63
63 63 63
63 63 63
63 63 63
63 63 63
63 63 63
63 63 63
63 63 63
63 63 63
63 63 63
63 63 63
63 63 63
63 63 63
63 63 63
63 63 63
63 63 63
63 63 63
63 63 63
63 63 63
63 63 63
63 63 63
63 63 63
63 63 63
63 63 63
63 63 63
63 63 63
63 63 63
63 63 63
63 63 63
63 63 63
63 63 63
63 63 63
63 63 63
63 63 63
63 63 63
63 63 63
63 63 63
63 63 63
63 63 63
63 63 63
63 63 63
63 63 63
63 63 63
63 63 63
63 63 63
63 63 63
63 63 63
63 63 63
63 63 63
63 63 63
63 63 63
63 63 63
63 63 63
63 63 63
63 63 63
63 63 63
63 63 63
63 63 63
63 63 63
63 63 63
63 63 63
63 63 63
63 63 63
63 63 63
63 63 63
63 63 63
63 63 63
63 63 63
63 63 63
63 63 63
63 63 63
63 63 63
63 63 63
63 63 63
63 63 63
63 63 63
63 63 63
63 63 63
63 63 63
63 63 63
63 63 63
63 63 63
63 63 63
63 63 63
63 63 63
63 63 63
63 63 63
63 63 63
63 63 63
63 63 63
63 63 63
63 63 63
63 63 63
63 63 63
63 63 63
63 63 63
63 63 63
63 63 63
63 63 63
63 63 63
63 63 63
63 63 63
63 63 63
63 63 63
63 63 63
63 63 63
63 63 63
63 63 63
63 63 63
63 63 63
63 63 63
63 63 63
63 63 63
63 63 63
63 63 63
63 63 63
63 63 63
63 63 63
63 63 63
63 63 63
63 63 63
63 63 63
63 63 63
63 63 63
63 63 63
63 63 63
63 63 63
63 63 63
63 63 63
63 63 63
63 63 63
63 63 63
63 63 63
63 63 63
63 63 63
63 63 63
63 63 63
63 63 63
63 63 63
63 63 63
63 63 63
63 63 63
63 63 63
63 63 63
63 63 63
63 63 63
63 63 63
63 63 63
63 63 63
63 63 63
63 63 63
63 63 63
63 63 63
63 63 63
63 63 63
63 63 63
63 63 63
63 63 63
63 63 63
63 63 63
63 63 63
63 63 63
63 63 63
63 63 63
63 63 63
63 63 63
63 63 63
63 63 63
63 63 63
63 63 63
63 63 63
63 63 63
63 63 63
63 63 63
63 63 63
63 63 63
63 63 63
63 63 63
63 63 63
63 63 63
63 63 63
63 63 63
63 63 63
63 63 63
63 63 63
63 63 63
63 63 63
63 63 63
63 63 63
63 63 63
63 63 63
63 63 63
63 63 63
63 63 63
63 63 63
63 63 63
63 63 63
63 63 63
63 63 63
63 63 63
63 63 63
63 63 63
63 63 63
63 63 63
63 63 63
63 63 63
63 63 63
63 63 63
63 63 63
63 63 63
63 63 63
63 63 63
63 63 63
63 63 63
63 63 63
63 63 63
63 63 63
63 63 63
63 63 63
63 63 63
63 63 63
63 63 63
63 63 63
63 63 63
63 63 63
63 63 63
63 63 63
63 63 63
63 63 63
63 63 63
63 63 63
63 63 63
63 63 63
63 63 63
63 63 63
63 63 63
63 63 63
63 63 63
63 63 63
63 63 63
63 63 63
63 63 63
63 63 63
63 63 63
63 63 63
63 63 63
63 63 63
63 63 63
63 63 63
63 63 63
63 63 63
63 63 63
63 63 63
63 63 63
63 63 63
63 63 63
63 63 63
63 63 63
63 63 63
63 63 63
63 63 63
63 63 63
63 63 63
63 63 63
63 63 63
63 63 63
63 63 63
63 63 63
63 63 63
63 63 63
63 63 63
63 63 63
63 63 63
63 63 63
63 63 63
63 63 63
63 63 63
63 63 63
63 63 63
63 63 63
63 63 63
63 63 63
63 63 63
63 63 63
63 63 63
63 63 63
63 63 63
63 63 63
63 63 63
63 63 63
63 63 63
63 63 63
63 63 63
63 63 63
63 63 63
63 63 63
63 63 63
63 63 63
63 63 63
63 63 63
63 63 63
63 63 63
63 63 63
63 63 63
63 63 63
63 63 63
63 63 63
63 63 63
63 63 63
63 63 63
63 63 63
63 63 63
63 63 63
63 63 63
63 63 63
63 63 63
63 63 63
63 63 63
63 63 63
63 63 63
63 63 63
63 63 63
63 63 63
63 63 63
63 63 63
63 63 63
63 63 63
63 63 63
63 63 63
63 63 63
63 63 63
63 63 63
63 63 63
63 63 63
63 63 63
63 63 63
63 63 63
63 63 63
63 63 63
63 63 63
63 63 63
63 63 63
63 63 63
63 63 63
63 63 63
63 63 63
63 63 63
63 63 63
63 63 63
63 63 63
63 63 63
63 63 63
63 63 63
63 63 63
63 63 63
63 63 63
63 63 63
63 63 63
63 63 63
63 63 63
63 63 63
63 63 63
63 63 63
63 63 63
63 63 63
63 63 63
63 63 63
63 63 63
63 63 63
63 63 63
63 63 63
63 63 63
63 63 63
63 63 63
63 63 63
63 63 63
63 63 63
63 63 63
63 63 63
63 63 63
63 63 63
63 63 63
63 63 63
63 63 63
63 63 63
63 63 63
63 63 63
63 63 63
63 63 63
63 63 63
63 63 63
63 63 63
63 63 63
63 63 63
63 63 63
63 63 63
63 63 63
63 63 63
63 63 63
63 63 63
63 63 63
63 63 63
63 63 63
63 63 63
63 63 63
63 63 63
63 63 63
63 63 63
63 63 63
63 63 63
63 63 63
63 63 63
63 63 63
63 63 63
63 63 63
63 63 63
63 63 63
63 63 63
63 63 63
63 63 63
63 63 63
63 63 63
63 63 63
63 63 63
63 63 63
63 63 63
63 63 63
63 63 63
63 63 63
63 63 63
63 63 63
63 63 63
63 63 63
63 63 63
63 63 63
63 63 63
63 63 63
63 63 63
63 63 63
63 63 63
63 63 63
63 63 63
63 63 63
63 63 63
63 63 63
63 63 63
63 63 63
63 63 63
63 63 63
63 63 63
63 63 63
63 63 63
63 63 63
63 63 63
63 63 63
63 63 63
63 63 63
63 63 63
63 63 63
63 63 63
63 63 63
63 63 63
63 63 63
63 63 63
63 63 63
63 63 63
63 63 63
63 63 63
63 63 63
63 63 63
63 63 63
63 63 63
63 63 63
63 63 63
63 63 63
63 63 63
63 63 63
63 63 63
63 63 63
63 63 63
63 63 63
63 63 63
63 63 63
63 63 63
63 63 63
63 63 63
63 63 63
63 63 63
63 63 63
63 63 63
63 63 63
63 63 63
63 63 63
63 63 63
63 63 63
63 63 63
63 63 63
63 63 63
63 63 63
63 63 63
63 63 63
63 63 63
63 63 63
63 63 63
63 63 63
63 63 63
63 63 63
63 63 63
63 63 63
63 63 63
63 63 63
63 63 63
63 63 63
63 63 63
63 63 63
63 63 63
63 63 63
63 63 63
63 63 63
63 63 63
63 63 63
63 63 63
63 63 63
63 63 63
63 63 63
63 63 63
63 63 63
63 63 63
63 63 63
63 63 63
63 63 63
63 63 63
63 63 63
63 63 63
63 63 63
63 63 63
63 63 63
63 63 63
63 63 63
63 63 63
63 63 63
63 63 63
63 63 63
63 63 63
63 63 63
63 63 63
63 63 63
63 63 63
63 63 63
63 63 63
63 63 63
63 63 63
63 63 63
63 63 63
63 63 63
63 63 63
63 63 63
63 63 63
63 63 63
63 63 63
63 63 63
63 63 63
63 63 63
63 63 63
63 63 63
63 63 63
63 63 63
63 63 63
63 63 63
63 63 63
63 63 63
63 63 63
63 63 63
63 63 63
63 63 63
63 63 63
63 63 63
63 63 63
63 63 63
63 63 63
63 63 63
63 63 63
63 63 63
63 63 63
63 63 63
63 63 63
63 63 63
63 63 63
63 63 63
63 63 63
63 63 63
63 63 63
63 63 63
63 63 63
63 63 63
63 63 63
63 63 63
63 63 63
63 63 63
63 63 63
63 63 63
63 63 63
63 63 63
63 63 63
63 63 63
63 63 63
63 63 63
63 63 63
63 63 63
63 63 63
63 63 63
63 63 63
63 63 63
63 63 63
63 63 63
63 63 63
63 63 63
63 63 63
63 63 63
63 63 63
63 63 63
63 63 63
63 63 63
63 63 63
63 63 63
63 63 63
63 63 63
63 63 63
63 63 63
63 63 63
63 63 63
63 63 63
63 63 63
63 63 63
63 63 63
63 63 63
63 63 63
63 63 63
63 63 63
63 63 63
63 63 63
63 63 63
63 63 63
63 63 63
63 63 63
63 63 63
63 63 63
63 63 63
63 63 63
63 63 63
63 63 63
63 63 63
63 63 63
63 63 63
63 63 63
63 63 63
63 63 63
63 63 63
63 63 63
63 63 63
63 63 63
63 63 63
63 63 63
63 63 63
63 63 63
63 63 63
63 63 63
63 63 63
63 63 63
63 63 63
63 63 63
63 63 63
63 63 63
63 63 63
63 63 63
63 63 63
63 63 63
63 63 63
63 63 63
63 63 63
63 63 63
63 63 63
63 63 63
63 63 63
63 63 63
63 63 63
63 63 63
63 63 63
63 63 63
63 63 63
63 63 63
63 63 63
63 63 63
63 63 63
63 63 63
63 63 63
63 63 63
63 63 63
63 63 63
63 63 63
63 63 63
63 63 63
63 63 63
63 63 63
63 63 63
63 63 63
63 63 63
63 63 63
63 63 63
63 63 63
63 63 63
63 63 63
63 63 63
63 63 63
63 63 63
63 63 63
63 63 63
63 63 63
63 63 63
63 63 63
63 63 63
63 63 63
63 63 63
63 63 63
63 63 63
63 63 63
63 63 63
63 63 63
63 63 63
63 63 63
63 63 63
63 63 63
63 63 63
63 63 63
63 63 63
63 63 63
63 63 63
63 63 63
63 63 63
63 63 63
63 63 63
63 63 63
63 63 63
63 63 63
63 63 63
63 63 63
63 63 63
63 63 63
63 63 63
63 63 63
63 63 63
63 63 63
63 63 63
63 63 63
63 63 63
63 63 63
63 63 63
63 63 63
63 63 63
63 63 63
63 63 63
63 63 63
63 63 63
63 63 63
63 63 63
63 63 63
63 63 63
63 63 63
63 63 63
63 63 63
63 63 63
63 63 63
63 63 63
63 63 63
63 63 63
63 63 63
63 63 63
63 63 63
63 63 63
63 63 63
63 63 63
63 63 63
63 63 63
63 63 63
63 63 63
63 63 63
63 63 63
63 63 63
63 63 63
63 63 63
63 63 63
63 63 63
63 63 63
63 63 63
63 63 63
63 63 63
63 63 63
63 63 63
63 63 63
63 63 63
63 63 63
63 63 63
63 63 63
63 63 63
63 63 63
63 63 63
63 63 63
63 63 63
63 63 63
63 63 63
63 63 63
63 63 63
63 63 63
63 63 63
63 63 63
63 63 63
63 63 63
63 63 63
63 63 63
63 63 63
63 63 63
63 63 63
63 63 63
63 63 63
63 63 63
63 63 63
63 63 63
63 63 63
63 63 63
63 63 63
63 63 63
63 63 63
63 63 63
63 63 63
63 63 63
63 63 63
63 63 63
63 63 63
63 63 63
63 63 63
63 63 63
63 63 63
63 63 63
63 63 63
63 63 63
63 63 63
63 63 63
63 63 63
63 63 63
63 63 63
63 63 63
63 63 63
63 63 63
63 63 63
63 63 63
63 63 63
63 63 63
63 63 63
63 63 63
63 63 63
63 63 63
63 63 63
63 63 63
63 63 63
63 63 63
63 63 63
63 63 63
63 63 63
63 63 63
63 63 63
63 63 63
63 63 63
63 63 63
63 63 63
63 63 63
63 63 63
63 63 63
63 63 63
63 63 63
63 63 63
63 63 63
63 63 63
63 63 63
63 63 63
63 63 63
63 63 63
63 63 63
63 63 63
63 63 63
63 63 63
63 63 63
63 63 63
63 63 63
63 63 63
63 63 63
63 63 63
63 63 63
63 63 63
63 63 63
63 63 63
63 63 63
63 63 63
63 63 63
63 63 63
63 63 63
63 63 63
63 63 63
63 63 63
63 63 63
63 63 63
63 63 63
63 63 63
63 63 63
63 63 63
63 63 63
63 63 63
63 63 63
63 63 63
63 63 63
63 63 63
63 63 63
63 63 63
63 63 63
63 63 63
63 63 63
63 63 63
63 63 63
63 63 63
63 63 63
63 63 63
63 63 63
63 63 63
63 63 63
63 63 63
63 63 63
63 63 63
63 63 63
63 63 63
63 63 63
63 63 63
63 63 63
63 63 63
63 63 63
63 63 63
63 63 63
63 63 63
63 63 63
63 63 63
63 63 63
63 63 63
63 63 63
63 63 63
63 63 63
63 63 63
63 63 63
63 63 63
63 63 63
63 63 63
63 63 63
63 63 63
63 63 63
63 63 63
63 63 63
63 63 63
63 63 63
63 63 63
63 63 63
63 63 63
63 63 63
63 63 63
63 63 63
63 63 63
63 63 63
63 63 63
63 63 63
63 63 63
63 63 63
63 63 63
63 63 63
63 63 63
63 63 63
63 63 63
63 63 63
63 63 63
63 63 63
63 63 63
63 63 63
63 63 63
63 63 63
63 63 63
63 63 63
63 63 63
63 63 63
63 63 63
63 63 63
63 63 63
63 63 63
63 63 63
63 63 63
63 63 63
63 63 63
63 63 63
63 63 63
63 63 63
63 63 63
63 63 63
63 63 63
63 63 63
63 63 63
63 63 63
63 63 63
63 63 63
63 63 63
63 63 63
63 63 63
63 63 63
63 63 63
63 63 63
63 63 63
63 63 63
63 63 63
63 63 63
63 63 63
63 63 63
63 63 63
63 63 63
63 63 63
63 63 63
63 63 63
63 63 63
63 63 63
63 63 63
63 63 63
63 63 63
63 63 63
63 63 63
63 63 63
63 63 63
63 63 63
63 63 63
63 63 63
63 63 63
63 63 63
63 63 63
63 63 63
63 63 63
63 63 63
63 63 63
63 63 63
63 63 63
63 63 63
63 63 63
63 63 63
63 63 63
63 63 63
63 63 63
63 63 63
63 63 63
63 63 63
63 63 63
63 63 63
63 63 63
63 63 63
63 63 63
63 63 63
63 63 63
63 63 63
63 63 63
63 63 63
63 63 63
63 63 63
63 63 63
63 63 63
63 63 63
63 63 63
63 63 63
63 63 63
63 63 63
63 63 63
63 63 63
63 63 63
63 63 63
63 63 63
63 63 63
63 63 63
63 63 63
63 63 63
63 63 63
63 63 63
63 63 63
63 63 63
63 63 63
63 63 63
63 63 63
63 63 63
63 63 63
63 63 63
63 63 63
63 63 63
63 63 63
63 63 63
63 63 63
63 63 63
63 63 63
63 63 63
63 63 63
63 63 63
63 63 63
63 63 63
63 63 63
63 63 63
63 63 63
63 63 63
63 63 63
63 63 63
63 63 63
63 63 63
63 63 63
63 63 63
63 63 63
63 63 63
63 63 63
63 63 63
63 63 63
63 63 63
63 63 63
63 63 63
63 63 63
63 63 63
63 63 63
63 63 63
63 63 63
63 63 63
63 63 63
63 63 63
63 63 63
63 63 63
63 63 63
63 63 63
63 63 63
63 63 63
63 63 63
63 63 63
63 63 63
63 63 63
63 63 63
63 63 63
63 63 63
63 63 63
63 63 63
63 63 63
63 63 63
63 63 63
63 63 63
63 63 63
63 63 63
63 63 63
63 63 63
63 63 63
63 63 63
63 63 63
63 63 63
63 63 63
63 63 63
63 63 63
63 63 63
63 63 63
63 63 63
63 63 63
63 63 63
63 63 63
63 63 63
63 63 63
63 63 63
63 63 63
63 63 63
63 63 63
63 63 63
63 63 63
63 63 63
63 63 63
63 63 63
63 63 63
63 63 63
63 63 63
63 63 63
63 63 63
63 63 63
63 63 63
63 63 63
63 63 63
63 63 63
63 63 63
63 63 63
63 63 63
63 63 63
63 63 63
63 63 63
63 63 63
63 63 63
63 63 63
63 63 63
63 63 63
63 63 63
63 63 63
63 63 63
63 63 63
63 63 63
63 63 63
63 63 63
63 63 63
63 63 63
63 63 63
63 63 63
63 63 63
63 63 63
63 63 63
63 63 63
63 63 63
63 63 63
63 63 63
63 63 63
63 63 63
63 63 63
63 63 63
63 63 63
63 63 63
63 63 63
63 63 63
63 63 63
63 63 63
63 63 63
63 63 63
63 63 63
63 63 63
63 63 63
63 63 63
63 63 63
63 63 63
63 63 63
63 63 63
63 63 63
63 63 63
63 63 63
63 63 63
63 63 63
63 63 63
63 63 63
63 63 63
63 63 63
63 63 63
63 63 63
63 63 63
63 63 63
63 63 63
63 63 63
63 63 63
63 63 63
63 63 63
63 63 63
63 63 63
63 63 63
63 63 63
63 63 63
63 63 63
63 63 63
63 63 63
63 63 63
63 63 63
63 63 63
63 63 63
63 63 63
63 63 63
63 63 63
63 63 63
63 63 63
63 63 63
63 63 63
63 63 63
63 63 63
63 63 63
63 63 63
63 63 63
63 63 63
63 63 63
63 63 63
63 63 63
63 63 63
63 63 63
63 63 63
63 63 63
63 63 63
63 63 63
63 63 63
63 63 63
63 63 63
63 63 63
63 63 63
63 63 63
63 63 63
63 63 63
63 63 63
63 63 63
63 63 63
63 63 63
63 63 63
63 63 63
63 63 63
63 63 63
63 63 63
63 63 63
63 63 63
63 63 63
63 63 63
63 63 63
63 63 63
63 63 63
63 63 63
63 63 63
63 63 63
63 63 63
63 63 63
63 63 63
63 63 63
63 63 63
63 63 63
63 63 63
63 63 63
63 63 63
63 63 63
63 63 63
63 63 63
63 63 63
63 63 63
63 63 63
63 63 63
63 63 63
63 63 63
63 63 63
63 63 63
63 63 63
63 63 63
63 63 63
63 63 63
63 63 63
63 63 63
63 63 63
63 63 63
63 63 63
63 63 63
63 63 63
63 63 63
63 63 63
63 63 63
63 63 63
63 63 63
63 63 63
63 63 63
63 63 63
63 63 63
63 63 63
63 63 63
63 63 63
63 63 63
63 63 63
63 63 63
63 63 63
63 63 63
63 63 63
63 63 63
63 63 63
63 63 63
63 63 63
63 63 63
63 63 63
63 63 63
63 63 63
63 63 63
63 63 63
63 63 63
63 63 63
63 63 63
63 63 63
63 63 63
63 63 63
63 63 63
63 63 63
63 63 63
63 63 63
63 63 63
63 63 63
63 63 63
63 63 63
63 63 63
63 63 63
63 63 63
63 63 63
63 63 63
63 63 63
63 63 63
63 63 63
63 63 63
63 63 63
63 63 63
63 63 63
63 63 63
63 63 63
63 63 63
63 63 63
63 63 63
63 63 63
63 63 63
63 63 63
63 63 63
63 63 63
63 63 63
63 63 63
63 63 63
63 63 63
63 63 63
63 63 63
63 63 63
63 63 63
63 63 63
63 63 63
63 63 63
63 63 63
63 63 63
63 63 63
63 63 63
63 63 63
63 63 63
63 63 63
63 63 63
63 63 63
63 63 63
63 63 63
63 63 63
63 63 63
63 63 63
63 63 63
63 63 63
63 63 63
63 63 63
63 63 63
63 63 63
63 63 63
63 63 63
63 63 63
63 63 63
63 63 63
63 63 63
63 63 63
63 63 63
63 63 63
63 63 63
63 63 63
63 63 63
63 63 63
63 63 63
63 63 63
63 63 63
63 63 63
63 63 63
63 63 63
63 63 63
63 63 63
63 63 63
63 63 63
63 63 63
63 63 63
63 63 63
63 63 63
63 63 63
63 63 63
63 63 63
63 63 63
63 63 63
63 63 63
63 63 63
63 63 63
63 63 63
63 63 63
63 63 63
63 63 63
63 63 63
63 63 63
63 63 63
63 63 63
63 63 63
63 63 63
63 63 63
63 63 63
63 63 63
63 63 63
63 63 63
63 63 63
63 63 63
63 63 63
63 63 63
63 63 63
63 63 63
63 63 63
63 63 63
63 63 63
63 63 63
63 63 63
63 63 63
63 63 63
63 63 63
63 63 63
63 63 63
63 63 63
63 63 63
63 63 63
63 63 63
63 63 63
63 63 63
63 63 63
63 63 63
63 63 63
63 63 63
63 63 63
63 63 63
63 63 63
63 63 63
63 63 63
63 63 63
63 63 63
63 63 63
63 63 63
63 63 63
63 63 63
63 63 63
63 63 63
63 63 63
63 63 63
63 63 63
63 63 63
63 63 63
63 63 63
63 63 63
63 63 63
63 63 63
63 63 63
63 63 63
63 63 63
63 63 63
63 63 63
63 63 63
63 63 63
63 63 63
63 63 63
63 63 63
63 63 63
63 63 63
63 63 63
63 63 63
63 63 63
63 63 63
63 63 63
63 63 63
63 63 63
63 63 63
63 63 63
63 63 63
63 63 63
63 63 63
63 63 63
63 63 63
63 63 63
63 63 63
63 63 63
63 63 63
63 63 63
63 63 63
63 63 63
63 63 63
63 63 63
63 63 63
63 63 63
63 63 63
63 63 63
63 63 63
63 63 63
63 63 63
63 63 63
63 63 63
63 63 63
63 63 63
63 63 63
63 63 63
63 63 63
63 63 63
63 63 63
63 63 63
63 63 63
63 63 63
63 63 63
63 63 63
63 63 63
63 63 63
63 63 63
63 63 63
63 63 63
63 63 63
63 63 63
63 63 63
63 63 63
63 63 63
63 63 63
63 63 63
63 63 63
63 63 63
63 63 63
63 63 63
63 63 63
63 63 63
63 63 63
63 63 63
63 63 63
63 63 63
63 63 63
63 63 63
63 63 63
63 63 63
63 63 63
63 63 63
63 63 63
63 63 63
63 63 63
63 63 63
63 63 63
63 63 63
63 63 63
63 63 63
63 63 63
63 63 63
63 63 63
63 63 63
63 63 63
63 63 63
63 63 63
63 63 63
63 63 63
63 63 63
63 63 63
63 63 63
63 63 63
63 63 63
63 63 63
63 63 63
63 63 63
63 63 63
63 63 63
63 63 63
63 63 63
63 63 63
63 63 63
63 63 63
63 63 63
63 63 63
63 63 63
63 63 63
63 63 63
63 63 63
63 63 63
63 63 63
63 63 63
63 63 63
63 63 63
63 63 63
63 63 63
63 63 63
63 63 63
63 63 63
63 63 63
63 63 63
63 63 63
63 63 63
63 63 63
63 63 63
63 63 63
63 63 63
63 63 63
63 63 63
63 63 63
63 63 63
63 63 63
63 63 63
63 63 63
63 63 63
63 63 63
63 63 63
63 63 63
63 63 63
63 63 63
63 63 63
63 63 63
63 63 63
63 63 63
63 63 63
63 63 63
63 63 63
63 63 63
63 63 63
63 63 63
63 63 63
63 63 63
63 63 63
63 63 63
63 63 63
63 63 63
63 63 63
63 63 63
63 63 63
63 63 63
63 63 63
63 63 63
63 63 63
63 63 63
63 63 63
63 63 63
63 63 63
63 63 63
63 63 63
63 63 63
63 63 63
63 63 63
63 63 63
63 63 63
63 63 63
63 63 63
63 63 63
63 63 63
63 63 63
63 63 63
63 63 63
63 63 63
63 63 63
63 63 63
63 63 63
63 63 63
63 63 63
63 63 63
63 63 63
63 63 63
63 63 63
63 63 63
63 63 63
63 63 63
63 63 63
63 63 63
63 63 63
63 63 63
63 63 63
63 63 63
63 63 63
63 63 63
63 63 63
63 63 63
63 63 63
63 63 63
63 63 63
63 63 63
63 63 63
63 63 63
63 63 63
63 63 63
63 63 63
63 63 63
63 63 63
63 63 63
63 63 63
63 63 63
63 63 63
63 63 63
63 63 63
63 63 63
63 63 63
63 63 63
63 63 63
63 63 63
63 63 63
63 63 63
63 63 63
63 63 63
63 63 63
63 63 63
63 63 63
63 63 63
63 63 63
63 63 63
63 63 63
63 63 63
63 63 63
63 63 63
63 63 63
63 63 63
63 63 63
63 63 63
63 63 63
63 63 63
63 63 63
63 63 63
63 63 63
63 63 63
63 63 63
63 63 63
63 63 63
63 63 63
63 63 63
63 63 63
63 63 63
63 63 63
63 63 63
63 63 63
63 63 63
63 63 63
63 63 63
63 63 63
63 63 63
63 63 63
63 63 63
63 63 63
63 63 63
63 63 63
63 63 63
63 63 63
63 63 63
63 63 63
63 63 63
63 63 63
63 63 63
63 63 63
63 63 63
63 63 63
63 63 63
63 63 63
63 63 63
63 63 63
63 63 63
63 63 63
63 63 63
63 63 63
63 63 63
63 63 63
63 63 63
63 63 63
63 63 63
63 63 63
63 63 63
63 63 63
63 63 63
63 63 63
63 63 63
63 63 63
63 63 63
63 63 63
63 63 63
63 63 63
63 63 63
63 63 63
63 63 63
63 63 63
63 63 63
63 63 63
63 63 63
63 63 63
63 63 63
63 63 63
63 63 63
63 63 63
63 63 63
63 63 63
63 63 63
63 63 63
63 63 63
63 63 63
63 63 63
63 63 63
63 63 63
63 63 63
63 63 63
63 63 63
63 63 63
63 63 63
63 63 63
63 63 63
63 63 63
63 63 63
63 63 63
63 63 63
63 63 63
63 63 63
63 63 63
63 63 63
63 63 63
63 63 63
63 63 63
63 63 63
63 63 63
63 63 63
63 63 63
63 63 63
63 63 63
63 63 63
63 63 63
63 63 63
63 63 63
63 63 63
63 63 63
63 63 63
63 63 63
63 63 63
63 63 63
63 63 63
63 63 63
63 63 63
63 63 63
63 63 63
63 63 63
63 63 63
63 63 63
63 63 63
63 63 63
63 63 63
63 63 63
63 63 63
63 63 63
63 63 63
63 63 63
63 63 63
63 63 63
63 63 63
63 63 63
63 63 63
63 63 63
63 63 63
63 63 63
63 63 63
63 63 63
63 63 63
63 63 63
63 63 63
63 63 63
63 63 63
63 63 63
63 63 63
63 63 63
63 63 63
63 63 63
63 63 63
63 63 63
63 63 63
63 63 63
63 63 63
63 63 63
63 63 63
63 63 63
63 63 63
63 63 63
63 63 63
63 63 63
63 63 63
63 63 63
63 63 63
63 63 63
63 63 63
63 63 63
63 63 63
63 63 63
63 63 63
63 63 63
63 63 63
63 63 63
63 63 63
63 63 63
63 63 63
63 63 63
63 63 63
63 63 63
63 63 63
63 63 63
63 63 63
63 63 63
63 63 63
63 63 63
63 63 63
63 63 63
63 63 63
63 63 63
63 63 63
63 63 63
63 63 63
63 63 63
63 63 63
63 63 63
63 63 63
63 63 63
63 63 63
63 63 63
63 63 63
63 63 63
63 63 63
63 63 63
63 63 63
63 63 63
63 63 63
63 63 63
63 63 63
63 63 63
63 63 63
63 63 63
63 63 63
63 63 63
63 63 63
63 63 63
63 63 63
63 63 63
63 63 63
63 63 63
63 63 63
63 63 63
63 63 63
63 63 63
63 63 63
63 63 63
63 63 63
63 63 63
63 63 63
63 63 63
63 63 63
63 63 63
63 63 63
63 63 63
63 63 63
63 63 63
63 63 63
63 63 63
63 63 63
63 63 63
63 63 63
63 63 63
63 63 63
63 63 63
63 63 63
63 63 63
63 63 63
63 63 63
63 63 63
63 63 63
63 63 63
63 63 63
63 63 63
63 63 63
63 63 63
63 63 63
63 63 63
63 63 63
63 63 63
63 63 63
63 63 63
63 63 63
63 63 63
63 63 63
63 63 63
63 63 63
63 63 63
63 63 63
63 63 63
63 63 63
63 63 63
63 63 63
63 63 63
63 63 63
63 63 63
63 63 63
63 63 63
63 63 63
63 63 63
63 63 63
63 63 63
63 63 63
63 63 63
63 63 63
63 63 63
63 63 63
63 63 63
63 63 63
63 63 63
63 63 63
63 63 63
63 63 63
63 63 63
63 63 63
63 63 63
63 63 63
63 63 63
63 63 63
63 63 63
63 63 63
63 63 63
63 63 63
63 63 63
63 63 63
63 63 63
63 63 63
63 63 63
63 63 63
63 63 63
63 63 63
63 63 63
63 63 63
63 63 63
63 63 63
63 63 63
63 63 63
63 63 63
63 63 63
63 63 63
63 63 63
63 63 63
63 63 63
63 63 63
63 63 63
63 63 63
63 63 63
63 63 63
63 63 63
63 63 63
63 63 63
63 63 63
63 63 63
63 63 63
63 63 63
63 63 63
63 63 63
63 63 63
63 63 63
63 63 63
63 63 63
63 63 63
63 63 63
63 63 63
63 63 63
63 63 63
63 63 63
63 63 63
63 63 63
63 63 63
63 63 63
63 63 63
63 63 63
63 63 63
63 63 63
63 63 63
63 63 63
63 63 63
63 63 63
63 63 63
63 63 63
63 63 63
63 63 63
63 63 63
63 63 63
63 63 63
63 63 63
63 63 63
63 63 63
63 63 63
63 63 63
63 63 63
63 63 63
63 63 63
63 63 63
63 63 63
63 63 63
63 63 63
63 63 63
63 63 63
63 63 63
63 63 63
63 63 63
63 63 63
63 63 63
63 63 63
63 63 63
63 63 63
63 63 63
63 63 63
63 63 63
63 63 63
63 63 63
63 63 63
63 63 63
63 63 63
63 63 63
63 63 63
63 63 63
63 63 63
63 63 63
63 63 63
63 63 63
63 63 63
63 63 63
63 63 63
63 63 63
63 63 63
63 63 63
63 63 63
63 63 63
63 63 63
63 63 63
63 63 63
63 63 63
63 63 63
63 63 63
63 63 63
63 63 63
63 63 63
63 63 63
63 63 63
63 63 63
63 63 63
63 63 63
63 63 63
63 63 63
63 63 63
63 63 63
63 63 63
63 63 63
63 63 63
63 63 63
63 63 63
63 63 63
63 63 63
63 63 63
63 63 63
63 63 63
63 63 63
63 63 63
63 63 63
63 63 63
63 63 63
63 63 63
63 63 63
63 63 63
63 63 63
63 63 63
63 63 63
63 63 63
63 63 63
63 63 63
63 63 63
63 63 63
63 63 63
63 63 63
63 63 63
63 63 63
63 63 63
63 63 63
63 63 63
63 63 63
63 63 63
63 63 63
63 63 63
63 63 63
63 63 63
63 63 63
63 63 63
63 63 63
63 63 63
63 63 63
63 63 63
63 63 63
63 63 63
63 63 63
63 63 63
63 63 63
63 63 63
63 63 63
63 63 63
63 63 63
63 63 63
63 63 63
63 63 63
63 63 63
63 63 63
63 63 63
63 63 63
63 63 63
63 63 63
63 63 63
63 63 63
63 63 63
63 63 63
63 63 63
63 63 63
63 63 63
63 63 63
63 63 63
63 63 63
63 63 63
63 63 63
63 63 63
63 63 63
63 63 63
63 63 63
63 63 63
63 63 63
63 63 63
63 63 63
63 63 63
63 63 63
63 63 63
63 63 63
63 63 63
63 63 63
63 63 63
63 63 63
63 63 63
63 63 63
63 63 63
63 63 63
63 63 63
63 63 63
63 63 63
63 63 63
63 63 63
63 63 63
63 63 63
63 63 63
63 63 63
63 63 63
63 63 63
63 63 63
63 63 63
63 63 63
63 63 63
63 63 63
63 63 63
63 63 63
63 63 63
63 63 63
63 63 63
63 63 63
63 63 63
63 63 63
63 63 63
63 63 63
63 63 63
63 63 63
63 63 63
63 63 63
63 63 63
63 63 63
63 63 63
63 63 63
63 63 63
63 63 63
63 63 63
63 63 63
63 63 63
63 63 63
63 63 63
63 63 63
63 63 63
63 63 63
63 63 63
63 63 63
63 63 63
63 63 63
63 63 63
63 63 63
63 63 63
63 63 63
63 63 63
63 63 63
63 63 63
63 63 63
63 63 63
63 63 63
63 63 63
63 63 63
63 63 63
63 63 63
63 63 63
63 63 63
63 63 63
63 63 63
63 63 63
63 63 63
63 63 63
63 63 63
63 63 63
63 63 63
63 63 63
63 63 63
63 63 63
63 63 63
63 63 63
63 63 63
63 63 63
63 63 63
63 63 63
63 63 63
63 63 63
63 63 63
63 63 63
63 63 63
63 63 63
63 63 63
63 63 63
63 63 63
63 63 63
63 63 63
63 63 63
63 63 63
63 63 63
63 63 63
63 63 63
63 63 63
63 63 63
63 63 63
63 63 63
63 63 63
63 63 63
63 63 63
63 63 63
63 63 63
63 63 63
63 63 63
63 63 63
63 63 63
63 63 63
63 63 63
63 63 63
63 63 63
63 63 63
63 63 63
63 63 63
63 63 63
63 63 63
63 63 63
63 63 63
63 63 63
63 63 63
63 63 63
63 63 63
63 63 63
63 63 63
63 63 63
63 63 63
63 63 63
63 63 63
63 63 63
63 63 63
63 63 63
63 63 63
63 63 63
63 63 63
63 63 63
63 63 63
63 63 63
63 63 63
63 63 63
63 63 63
63 63 63
63 63 63
63 63 63
63 63 63
63 63 63
63 63 63
63 63 63
63 63 63
63 63 63
63 63 63
63 63 63
63 63 63
63 63 63
63 63 63
63 63 63
63 63 63
63 63 63
63 63 63
63 63 63
63 63 63
63 63 63
63 63 63
63 63 63
63 63 63
63 63 63
63 63 63
63 63 63
63 63 63
63 63 63
63 63 63
63 63 63
63 63 63
63 63 63
63 63 63
63 63 63
63 63 63
63 63 63
63 63 63
63 63 63
63 63 63
63 63 63
63 63 63
63 63 63
63 63 63
63 63 63
63 63 63
63 63 63
63 63 63
63 63 63
63 63 63
63 63 63
63 63 63
63 63 63
63 63 63
63 63 63
63 63 63
63 63 63
63 63 63
63 63 63
63 63 63
63 63 63
63 63 63
63 63 63
63 63 63
63 63 63
63 63 63
63 63 63
63 63 63
63 63 63
63 63 63
63 63 63
63 63 63
63 63 63
63 63 63
63 63 63
63 63 63
63 63 63
63 63 63
63 63 63
63 63 63
63 63 63
63 63 63
63 63 63
63 63 63
63 63 63
63 63 63
63 63 63
63 63 63
63 63 63
63 63 63
63 63 63
63 63 63
63 63 63
63 63 63
63 63 63
63 63 63
63 63 63
63 63 63
63 63 63
63 63 63
63 63 63
63 63 63
63 63 63
63 63 63
63 63 63
63 63 63
63 63 63
63 63 63
63 63 63
63 63 63
63 63 63
63 63 63
63 63 63
63 63 63
63 63 63
63 63 63
63 63 63
63 63 63
63 63 63
63 63 63
63 63 63
63 63 63
63 63 63
63 63 63
63 63 63
63 63 63
63 63 63
63 63 63
63 63 63
63 63 63
63 63 63
63 63 63
63 63 63
63 63 63
63 63 63
63 63 63
63 63 63
63 63 63
63 63 63
63 63 63
63 63 63
63 63 63
63 63 63
63 63 63
63 63 63
63 63 63
63 63 63
63 63 63
63 63 63
63 63 63
63 63 63
63 63 63
63 63 63
63 63 63
63 63 63
63 63 63
63 63 63
63 63 63
63 63 63
63 63 63
63 63 63
63 63 63
63 63 63
63 63 63
63 63 63
63 63 63
63 63 63
63 63 63
63 63 63
63 63 63
63 63 63
63 63 63
63 63 63
63 63 63
63 63 63
63 63 63
63 63 63
63 63 63
63 63 63
63 63 63
63 63 63
63 63 63
63 63 63
63 63 63
63 63 63
63 63 63
63 63 63
63 63 63
63 63 63
63 63 63
63 63 63
63 63 63
63 63 63
63 63 63
63 63 63
63 63 63
63 63 63
63 63 63
63 63 63
63 63 63
63 63 63
63 63 63
63 63 63
63 63 63
63 63 63
63 63 63
63 63 63
63 63 63
63 63 63
63 63 63
63 63 63
63 63 63
63 63 63
63 63 63
63 63 63
63 63 63
63 63 63
63 63 63
63 63 63
63 63 63
63 63 63
63 63 63
63 63 63
63 63 63
63 63 63
63 63 63
63 63 63
63 63 63
63 63 63
63 63 63
63 63 63
63 63 63
63 63 63
63 63 63
63 63 63
63 63 63
63 63 63
63 63 63
63 63 63
63 63 63
63 63 63
63 63 63
63 63 63
63 63 63
63 63 63
63 63 63
63 63 63
63 63 63
63 63 63
63 63 63
63 63 63
63 63 63
63 63 63
63 63 63
63 63 63
63 63 63
63 63 63
63 63 63
63 63 63
63 63 63
63 63 63
63 63 63
63 63 63
63 63 63
63 63 63
63 63 63
63 63 63
63 63 63
63 63 63
63 63 63
63 63 63
63 63 63
63 63 63
63 63 63
63 63 63
63 63 63
63 63 63
63 63 63
63 63 63
63 63 63
63 63 63
63 63 63
63 63 63
63 63 63
63 63 63
63 63 63
63 63 63
63 63 63
63 63 63
63 63 63
63 63 63
63 63 63
63 63 63
63 63 63
63 63 63
63 63 63
63 63 63
63 63 63
63 63 63
63 63 63
63 63 63
63 63 63
63 63 63
63 63 63
63 63 63
63 63 63
63 63 63
63 63 63
63 63 63
63 63 63
63 63 63
63 63 63
63 63 63
63 63 63
63 63 63
63 63 63
63 63 63
63 63 63
63 63 63
63 63 63
63 63 63
63 63 63
63 63 63
63 63 63
63 63 63
63 63 63
63 63 63
63 63 63
63 63 63
63 63 63
63 63 63
63 63 63
63 63 63
63 63 63
63 63 63
63 63 63
63 63 63
63 63 63
63 63 63
63 63 63
63 63 63
63 63 63
63 63 63
63 63 63
63 63 63
63 63 63
63 63 63
63 63 63
63 63 63
63 63 63
63 63 63
63 63 63
63 63 63
63 63 63
63 63 63
63 63 63
63 63 63
63 63 63
63 63 63
63 63 63
63 63 63
63 63 63
63 63 63
63 63 63
63 63 63
63 63 63
63 63 63
63 63 63
63 63 63
63 63 63
63 63 63
63 63 63
63 63 63
63 63 63
63 63 63
63 63 63
63 63 63
63 63 63
63 63 63
63 63 63
63 63 63
63 63 63
63 63 63
63 63 63
63 63 63
63 63 63
63 63 63
63 63 63
63 63 63
63 63 63
63 63 63
63 63 63
63 63 63
63 63 63
63 63 63
63 63 63
63 63 63
63 63 63
63 63 63
63 63 63
63 63 63
63 63 63
63 63 63
63 63 63
63 63 63
63 63 63
63 63 63
63 63 63
63 63 63
63 63 63
63 63 63
63 63 63
63 63 63
63 63 63
63 63 63
63 63 63
63 63 63
63 63 63
63 63 63
63 63 63
63 63 63
63 63 63
63 63 63
63 63 63
63 63 63
63 63 63
63 63 63
63 63 63
63 63 63
63 63 63
63 63 63
63 63 63
63 63 63
63 63 63
63 63 63
63 63 63
63 63 63
63 63 63
63 63 63
63 63 63
63 63 63
63 63 63
63 63 63
63 63 63
63 63 63
63 63 63
63 63 63
63 63 63
63 63 63
63 63 63
63 63 63
63 63 63
63 63 63
63 63 63
63 63 63
63 63 63
63 63 63
63 63 63
63 63 63
63 63 63
63 63 63
63 63 63
63 63 63
63 63 63
63 63 63
63 63 63
63 63 63
63 63 63
63 63 63
63 63 63
63 63 63
63 63 63
63 63 63
63 63 63
63 63 63
63 63 63
63 63 63
63 63 63
63 63 63
63 63 63
63 63 63
63 63 63
63 63 63
63 63 63
63 63 63
63 63 63
63 63 63
63 63 63
63 63 63
63 63 63
63 63 63
63 63 63
63 63 63
63 63 63
63 63 63
63 63 63
63 63 63
63 63 63
63 63 63
63 63 63
63 63 63
63 63 63
63 63 63
63 63 63
63 63 63
63 63 63
63 63 63
63 63 63
63 63 63
63 63 63
63 63 63
63 63 63
63 63 63
63 63 63
63 63 63
63 63 63
63 63 63
63 63 63
63 63 63
63 63 63
63 63 63
63 63 63
63 63 63
63 63 63
63 63 63
63 63 63
63 63 63
63 63 63
63 63 63
63 63 63
63 63 63
63 63 63
63 63 63
63 63 63
63 63 63
63 63 63
63 63 63
63 63 63
63 63 63
63 63 63
63 63 63
63 63 63
63 63 63
63 63 63
63 63 63
63 63 63
63 63 63
63 63 63
63 63 63
63 63 63
63 63 63
63 63 63
63 63 63
63 63 63
63 63 63
63 63 63
63 63 63
63 63 63
63 63 63
63 63 63
63 63 63
63 63 63
63 63 63
63 63 63
63 63 63
63 63 63
63 63 63
63 63 63
63 63 63
63 63 63
63 63 63
63 63 63
63 63 63
63 63 63
63 63 63
63 63 63
63 63 63
63 63 63
63 63 63
63 63 63
63 63 63
63 63 63
63 63 63
63 63 63
63 63 63
63 63 63
63 63 63
63 63 63
63 63 63
63 63 63
63 63 63
63 63 63
63 63 63
63 63 63
63 63 63
63 63 63
63 63 63
63 63 63
63 63 63
63 63 63
63 63 63
63 63 63
63 63 63
63 63 63
63 63 63
63 63 63
63 63 63
63 63 63
63 63 63
63 63 63
63 63 63
63 63 63
63 63 63
63 63 63
63 63 63
63 63 63
63 63 63
63 63 63
63 63 63
63 63 63
63 63 63
63 63 63
63 63 63
63 63 63
63 63 63
63 63 63
63 63 63
63 63 63
63 63 63
63 63 63
63 63 63
63 63 63
63 63 63
63 63 63
63 63 63
63 63 63
63 63 63
63 63 63
63 63 63
63 63 63
63 63 63
63 63 63
63 63 63
63 63 63
63 63 63
63 63 63
63 63 63
63 63 63
63 63 63
63 63 63
63 63 63
63 63 63
63 63 63
63 63 63
63 63 63
63 63 63
63 63 63
63 63 63
63 63 63
63 63 63
63 63 63
63 63 63
63 63 63
63 63 63
63 63 63
63 63 63
63 63 63
63 63 63
63 63 63
63 63 63
63 63 63
63 63 63
63 63 63
63 63 63
63 63 63
63 63 63
63 63 63
63 63 63
63 63 63
63 63 63
63 63 63
63 63 63
63 63 63
63 63 63
63 63 63
63 63 63
63 63 63
63 63 63
63 63 63
63 63 63
63 63 63
63 63 63
63 63 63
63 63 63
63 63 63
63 63 63
63 63 63
63 63 63
63 63 63
63 63 63
63 63 63
63 63 63
63 63 63
63 63 63
63 63 63
63 63 63
63 63 63
63 63 63
63 63 63
63 63 63
63 63 63
63 63 63
63 63 63
63 63 63
63 63 63
63 63 63
63 63 63
63 63 63
63 63 63
63 63 63
63 63 63
63 63 63
63 63 63
63 63 63
63 63 63
63 63 63
63 63 63
63 63 63
63 63 63
63 63 63
63 63 63
63 63 63
63 63 63
63 63 63
63 63 63
63 63 63
63 63 63
63 63 63
63 63 63
63 63 63
63 63 63
63 63 63
63 63 63
63 63 63
63 63 63
63 63 63
63 63 63
63 63 63
63 63 63
63 63 63
63 63 63
63 63 63
63 63 63
63 63 63
63 63 63
63 63 63
63 63 63
63 63 63
63 63 63
63 63 63
63 63 63
63 63 63
63 63 63
63 63 63
63 63 63
63 63 63
63 63 63
63 63 63
63 63 63
63 63 63
63 63 63
63 63 63
63 63 63
63 63 63
63 63 63
63 63 63
63 63 63
63 63 63
63 63 63
63 63 63
63 63 63
63 63 63
63 63 63
63 63 63
63 63 63
63 63 63
63 63 63
63 63 63
63 63 63
63 63 63
63 63 63
63 63 63
63 63 63
63 63 63
63 63 63
63 63 63
63 63 63
63 63 63
63 63 63
63 63 63
63 63 63
63 63 63
63 63 63
63 63 63
63 63 63
63 63 63
63 63 63
63 63 63
63 63 63
63 63 63
63 63 63
63 63 63
63 63 63
63 63 63
63 63 63
63 63 63
63 63 63
63 63 63
63 63 63
63 63 63
63 63 63
63 63 63
63 63 63
63 63 63
63 63 63
63 63 63
63 63 63
63 63 63
63 63 63
63 63 63
63 63 63
63 63 63
63 63 63
63 63 63
63 63 63
63 63 63
63 63 63
63 63 63
63 63 63
63 63 63
63 63 63
63 63 63
63 63 63
63 63 63
63 63 63
63 63 63
63 63 63
63 63 63
63 63 63
63 63 63
63 63 63
63 63 63
63 63 63
63 63 63
63 63 63
63 63 63
63 63 63
63 63 63
63 63 63
63 63 63
63 63 63
63 63 63
63 63 63
63 63 63
63 63 63
63 63 63
63 63 63
63 63 63
63 63 63
63 63 63
63 63 63
63 63 63
63 63 63
63 63 63
63 63 63
63 63 63
63 63 63
63 63 63
63 63 63
63 63 63
63 63 63
63 63 63
63 63 63
63 63 63
63 63 63
63 63 63
63 63 63
63 63 63
63 63 63
63 63 63
63 63 63
63 63 63
63 63 63
63 63 63
63 63 63
63 63 63
63 63 63
63 63 63
63 63 63
63 63 63
63 63 63
63 63 63
63 63 63
63 63 63
63 63 63
63 63 63
63 63 63
63 63 63
63 63 63
63 63 63
63 63 63
63 63 63
63 63 63
63 63 63
63 63 63
63 63 63
63 63 63
63 63 63
63 63 63
63 63 63
63 63 63
63 63 63
63 63 63
63 63 63
63 63 63
63 63 63
63 63 63
63 63 63
63 63 63
63 63 63
63 63 63
63 63 63
63 63 63
63 63 63
63 63 63
63 63 63
63 63 63
63 63 63
63 63 63
63 63 63
63 63 63
63 63 63
63 63 63
63 63 63
63 63 63
63 63 63
63 63 63
63 63 63
63 63 63
63 63 63
63 63 63
63 63 63
63 63 63
63 63 63
63 63 63
63 63 63
63 63 63
63 63 63
63 63 63
63 63 63
63 63 63
63 63 63
63 63 63
63 63 63
63 63 63
63 63 63
63 63 63
63 63 63
63 63 63
63 63 63
63 63 63
63 63 63
63 63 63
63 63 63
63 63 63
63 63 63
63 63 63
63 63 63
63 63 63
63 63 63
63 63 63
63 63 63
63 63 63
63 63 63
63 63 63
63 63 63
63 63 63
63 63 63
63 63 63
63 63 63
63 63 63
63 63 63
63 63 63
63 63 63
63 63 63
63 63 63
63 63 63
63 63 63
63 63 63
63 63 63
63 63 63
63 63 63
63 63 63
63 63 63
63 63 63
63 63 63
63 63 63
63 63 63
63 63 63
63 63 63
63 63 63
63 63 63
63 63 63
63 63 63
63 63 63
63 63 63
63 63 63
63 63 63
63 63 63
63 63 63
63 63 63
63 63 63
63 63 63
63 63 63
63 63 63
63 63 63
63 63 63
63 63 63
63 63 63
63 63 63
63 63 63
63 63 63
63 63 63
63 63 63
63 63 63
63 63 63
63 63 63
63 63 63
63 63 63
63 63 63
63 63 63
63 63 63
63 63 63
63 63 63
63 63 63
63 63 63
63 63 63
63 63 63
63 63 63
63 63 63
63 63 63
63 63 63
63 63 63
63 63 63
63 63 63
63 63 63
63 63 63
63 63 63
63 63 63
63 63 63
63 63 63
63 63 63
63 63 63
63 63 63
63 63 63
63 63 63
63 63 63
63 63 63
63 63 63
63 63 63
63 63 63
63 63 63
63 63 63
63 63 63
63 63 63
63 63 63
63 63 63
63 63 63
63 63 63
63 63 63
63 63 63
63 63 63
63 63 63
63 63 63
63 63 63
63 63 63
63 63 63
63 63 63
63 63 63
63 63 63
63 63 63
63 63 63
63 63 63
63 63 63
63 63 63
63 63 63
63 63 63
63 63 63
63 63 63
63 63 63
63 63 63
63 63 63
63 63 63
63 63 63
63 63 63
63 63 63
63 63 63
63 63 63
63 63 63
63 63 63
63 63 63
63 63 63
63 63 63
63 63 63
63 63 63
63 63 63
63 63 63
63 63 63
63 63 63
63 63 63
63 63 63
63 63 63
63 63 63
63 63 63
63 63 63
63 63 63
63 63 63
63 63 63
63 63 63
63 63 63
63 63 63
63 63 63
63 63 63
63 63 63
63 63 63
63 63 63
63 63 63
63 63 63
63 63 63
63 63 63
63 63 63
63 63 63
63 63 63
63 63 63
63 63 63
63 63 63
63 63 63
63 63 63
63 63 63
63 63 63
63 63 63
63 63 63
63 63 63
63 63 63
63 63 63
63 63 63
63 63 63
63 63 63
63 63 63
63 63 63
63 63 63
63 63 63
63 63 63
63 63 63
63 63 63
63 63 63
63 63 63
63 63 63
63 63 63
63 63 63
63 63 63
63 63 63
63 63 63
63 63 63
63 63 63
63 63 63
63 63 63
63 63 63
63 63 63
63 63 63
63 63 63
63 63 63
63 63 63
63 63 63
63 63 63
63 63 63
63 63 63
63 63 63
63 63 63
63 63 63
63 63 63
63 63 63
63 63 63
63 63 63
63 63 63
63 63 63
63 63 63
63 63 63
63 63 63
63 63 63
63 63 63
63 63 63
63 63 63
63 63 63
63 63 63
63 63 63
63 63 63
63 63 63
63 63 63
63 63 63
63 63 63
63 63 63
63 63 63
63 63 63
63 63 63
63 63 63
63 63 63
63 63 63
63 63 63
63 63 63
63 63 63
63 63 63
63 63 63
63 63 63
63 63 63
63 63 63
63 63 63
63 63 63
63 63 63
63 63 63
63 63 63
63 63 63
63 63 63
63 63 63
63 63 63
63 63 63
63 63 63
63 63 63
63 63 63
63 63 63
63 63 63
63 63 63
63 63 63
63 63 63
63 63 63
63 63 63
63 63 63
63 63 63
63 63 63
63 63 63
63 63 63
63 63 63
63 63 63
63 63 63
63 63 63
63 63 63
63 63 63
63 63 63
63 63 63
63 63 63
63 63 63
63 63 63
63 63 63
63 63 63
63 63 63
63 63 63
63 63 63
63 63 63
63 63 63
63 63 63
63 63 63
63 63 63
63 63 63
63 63 63
63 63 63
63 63 63
63 63 63
63 63 63
63 63 63
63 63 63
63 63 63
63 63 63
63 63 63
63 63 63
63 63 63
63 63 63
63 63 63
63 63 63
63 63 63
63 63 63
63 63 63
63 63 63
63 63 63
63 63 63
63 63 63
63 63 63
63 63 63
63 63 63
63 63 63
63 63 63
63 63 63
63 63 63
63 63 63
63 63 63
63 63 63
63 63 63
63 63 63
63 63 63
63 63 63
63 63 63
63 63 63
63 63 63
63 63 63
63 63 63
63 63 63
63 63 63
63 63 63
63 63 63
63 63 63
63 63 63
63 63 63
63 63 63
63 63 63
63 63 63
63 63 63
63 63 63
63 63 63
63 63 63
63 63 63
63 63 63
63 63 63
63 63 63
63 63 63
63 63 63
63 63 63
63 63 63
63 63 63
63 63 63
63 63 63
63 63 63
63 63 63
63 63 63
63 63 63
63 63 63
63 63 63
63 63 63
63 63 63
63 63 63
63 63 63
63 63 63
63 63 63
63 63 63
63 63 63
63 63 63
63 63 63
63 63 63
63 63 63
63 63 63
63 63 63
63 63 63
63 63 63
63 63 63
63 63 63
63 63 63
63 63 63
63 63 63
63 63 63
63 63 63
63 63 63
63 63 63
63 63 63
63 63 63
63 63 63
63 63 63
63 63 63
63 63 63
63 63 63
63 63 63
63 63 63
63 63 63
63 63 63
63 63 63
63 63 63
63 63 63
63 63 63
63 63 63
63 63 63
63 63 63
63 63 63
63 63 63
63 63 63
63 63 63
63 63 63
63 63 63
63 63 63
63 63 63
63 63 63
63 63 63
63 63 63
63 63 63
63 63 63
63 63 63
63 63 63
63 63 63
63 63 63
63 63 63
63 63 63
63 63 63
63 63 63
63 63 63
63 63 63
63 63 63
63 63 63
63 63 63
63 63 63
63 63 63
63 63 63
63 63 63
63 63 63
63 63 63
63 63 63
63 63 63
63 63 63
63 63 63
63 63 63
63 63 63
63 63 63
63 63 63
63 63 63
63 63 63
63 63 63
63 63 63
63 63 63
63 63 63
63 63 63
63 63 63
63 63 63
63 63 63
63 63 63
63 63 63
63 63 63
63 63 63
63 63 63
63 63 63
63 63 63
63 63 63
63 63 63
63 63 63
63 63 63
63 63 63
63 63 63
63 63 63
63 63 63
63 63 63
63 63 63
63 63 63
63 63 63
63 63 63
63 63 63
63 63 63
63 63 63
63 63 63
63 63 63
63 63 63
63 63 63
63 63 63
63 63 63
63 63 63
63 63 63
63 63 63
63 63 63
63 63 63
63 63 63
63 63 63
63 63 63
63 63 63
63 63 63
63 63 63
63 63 63
63 63 63
63 63 63
63 63 63
63 63 63
63 63 63
63 63 63
63 63 63
63 63 63
63 63 63
63 63 63
63 63 63
63 63 63
63 63 63
63 63 63
63 63 63
63 63 63
63 63 63
63 63 63
63 63 63
63 63 63
63 63 63
63 63 63
63 63 63
63 63 63
63 63 63
63 63 63
63 63 63
63 63 63
63 63 63
63 63 63
63 63 63
63 63 63
63 63 63
63 63 63
63 63 63
63 63 63
63 63 63
63 63 63
63 63 63
63 63 63
63 63 63
63 63 63
63 63 63
63 63 63
63 63 63
63 63 63
63 63 63
63 63 63
63 63 63
63 63 63
63 63 63
63 63 63
63 63 63
63 63 63
63 63 63
63 63 63
63 63 63
63 63 63
63 63 63
63 63 63
63 63 63
63 63 63
63 63 63
63 63 63
63 63 63
63 63 63
63 63 63
63 63 63
63 63 63
63 63 63
63 63 63
63 63 63
63 63 63
63 63 63
63 63 63
63 63 63
63 63 63
63 63 63
63 63 63
63 63 63
63 63 63
63 63 63
63 63 63
63 63 63
63 63 63
63 63 63
63 63 63
63 63 63
63 63 63
63 63 63
63 63 63
63 63 63
63 63 63
63 63 63
63 63 63
63 63 63
63 63 63
63 63 63
63 63 63
63 63 63
63 63 63
63 63 63
63 63 63
63 63 63
63 63 63
63 63 63
63 63 63
63 63 63
63 63 63
63 63 63
63 63 63
63 63 63
63 63 63
63 63 63
63 63 63
63 63 63
63 63 63
63 63 63
63 63 63
63 63 63
63 63 63
63 63 63
63 63 63
63 63 63
63 63 63
63 63 63
63 63 63
63 63 63
63 63 63
63 63 63
63 63 63
63 63 63
63 63 63
63 63 63
63 63 63
63 63 63
63 63 63
63 63 63
63 63 63
63 63 63
63 63 63
63 63 63
63 63 63
63 63 63
63 63 63
63 63 63
63 63 63
63 63 63
63 63 63
63 63 63
63 63 63
63 63 63
63 63 63
63 63 63
63 63 63
63 63 63
63 63 63
63 63 63
63 63 63
63 63 63
63 63 63
63 63 63
63 63 63
63 63 63
63 63 63
63 63 63
63 63 63
63 63 63
63 63 63
63 63 63
63 63 63
63 63 63
63 63 63
63 63 63
63 63 63
63 63 63
63 63 63
63 63 63
63 63 63
63 63 63
63 63 63
63 63 63
63 63 63
63 63 63
63 63 63
63 63 63
63 63 63
63 63 63
63 63 63
63 63 63
63 63 63
63 63 63
63 63 63
63 63 63
63 63 63
63 63 63
63 63 63
63 63 63
63 63 63
63 63 63
63 63 63
63 63 63
63 63 63
63 63 63
63 63 63
63 63 63
63 63 63
63 63 63
63 63 63
63 63 63
63 63 63
63 63 63
63 63 63
63 63 63
63 63 63
63 63 63
63 63 63
63 63 63
63 63 63
63 63 63
63 63 63
63 63 63
63 63 63
63 63 63
63 63 63
63 63 63
63 63 63
63 63 63
63 63 63
63 63 63
63 63 63
63 63 63
63 63 63
63 63 63
63 63 63
63 63 63
63 63 63
63 63 63
63 63 63
63 63 63
63 63 63
63 63 63
63 63 63
63 63 63
63 63 63
63 63 63
63 63 63
63 63 63
63 63 63
63 63 63
63 63 63
63 63 63
63 63 63
63 63 63
63 63 63
63 63 63
63 63 63
63 63 63
63 63 63
63 63 63
63 63 63
63 63 63
63 63 63
63 63 63
63 63 63
63 63 63
63 63 63
63 63 63
63 63 63
63 63 63
63 63 63
63 63 63
63 63 63
63 63 63
63 63 63
63 63 63
63 63 63
63 63 63
63 63 63
63 63 63
63 63 63
63 63 63
63 63 63
63 63 63
63 63 63
63 63 63
63 63 63
63 63 63
63 63 63
63 63 63
63 63 63
63 63 63
63 63 63
63 63 63
63 63 63
63 63 63
63 63 63
63 63 63
63 63 63
63 63 63
63 63 63
63 63 63
63 63 63
63 63 63
63 63 63
63 63 63
63 63 63
63 63 63
63 63 63
63 63 63
63 63 63
63 63 63
63 63 63
63 63 63
63 63 63
63 63 63
63 63 63
63 63 63
63 63 63
63 63 63
63 63 63
63 63 63
63 63 63
63 63 63
63 63 63
63 63 63
63 63 63
63 63 63
63 63 63
63 63 63
63 63 63
63 63 63
63 63 63
63 63 63
63 63 63
63 63 63
63 63 63
63 63 63
63 63 63
63 63 63
63 63 63
63 63 63
63 63 63
63 63 63
63 63 63
63 63 63
63 63 63
63 63 63
63 63 63
63 63 63
63 63 63
63 63 63
63 63 63
63 63 63
63 63 63
63 63 63
63 63 63
63 63 63
63 63 63
63 63 63
63 63 63
63 63 63
63 63 63
63 63 63
63 63 63
63 63 63
63 63 63
63 63 63
63 63 63
63 63 63
63 63 63
63 63 63
63 63 63
63 63 63
63 63 63
63 63 63
63 63 63
63 63 63
63 63 63
63 63 63
63 63 63
63 63 63
63 63 63
63 63 63
63 63 63
63 63 63
63 63 63
63 63 63
63 63 63
63 63 63
63 63 63
63 63 63
63 63 63
63 63 63
63 63 63
63 63 63
63 63 63
63 63 63
63 63 63
63 63 63
63 63 63
63 63 63
63 63 63
63 63 63
63 63 63
63 63 63
63 63 63
63 63 63
63 63 63
63 63 63
63 63 63
63 63 63
63 63 63
63 63 63
63 63 63
63 63 63
63 63 63
63 63 63
63 63 63
63 63 63
63 63 63
63 63 63
63 63 63
63 63 63
63 63 63
63 63 63
63 63 63
63 63 63
63 63 63
63 63 63
63 63 63
63 63 63
63 63 63
63 63 63
63 63 63
63 63 63
63 63 63
63 63 63
63 63 63
63 63 63
63 63 63
63 63 63
63 63 63
63 63 63
63 63 63
63 63 63
63 63 63
63 63 63
63 63 63
63 63 63
63 63 63
63 63 63
63 63 63
63 63 63
63 63 63
63 63 63
63 63 63
63 63 63
63 63 63
63 63 63
63 63 63
63 63 63
63 63 63
63 63 63
63 63 63
63 63 63
63 63 63
63 63 63
63 63 63
63 63 63
63 63 63
63 63 63
63 63 63
63 63 63
63 63 63
63 63 63
63 63 63
63 63 63
63 63 63
63 63 63
63 63 63
63 63 63
63 63 63
63 63 63
63 63 63
63 63 63
63 63 63
63 63 63
63 63 63
63 63 63
63 63 63
63 63 63
63 63 63
63 63 63
63 63 63
63 63 63
63 63 63
63 63 63
63 63 63
63 63 63
63 63 63
63 63 63
63 63 63
63 63 63
63 63 63
63 63 63
63 63 63
63 63 63
63 63 63
63 63 63
63 63 63
63 63 63
63 63 63
63 63 63
63 63 63
63 63 63
63 63 63
63 63 63
63 63 63
63 63 63
63 63 63
63 63 63
63 63 63
63 63 63
63 63 63
63 63 63
63 63 63
63 63 63
63 63 63
63 63 63
63 63 63
63 63 63
63 63 63
63 63 63
63 63 63
63 63 63
63 63 63
63 63 63
63 63 63
63 63 63
63 63 63
63 63 63
63 63 63
63 63 63
63 63 63
63 63 63
63 63 63
63 63 63
63 63 63
63 63 63
63 63 63
63 63 63
63 63 63
63 63 63
63 63 63
63 63 63
63 63 63
63 63 63
63 63 63
63 63 63
63 63 63
63 63 63
63 63 63
63 63 63
63 63 63
63 63 63
63 63 63
63 63 63
63 63 63
63 63 63
63 63 63
63 63 63
63 63 63
63 63 63
63 63 63
63 63 63
63 63 63
63 63 63
63 63 63
63 63 63
63 63 63
63 63 63
63 63 63
63 63 63
63 63 63
63 63 63
63 63 63
63 63 63
63 63 63
63 63 63
63 63 63
63 63 63
63 63 63
63 63 63
63 63 63
63 63 63
63 63 63
63 63 63
63 63 63
63 63 63
63 63 63
63 63 63
63 63 63
63 63 63
63 63 63
63 63 63
63 63 63
63 63 63
63 63 63
63 63 63
63 63 63
63 63 63
63 63 63
63 63 63
63 63 63
63 63 63
63 63 63
63 63 63
63 63 63
63 63 63
63 63 63
63 63 63
63 63 63
63 63 63
63 63 63
63 63 63
63 63 63
63 63 63
63 63 63
63 63 63
63 63 63
63 63 63
63 63 63
63 63 63
63 63 63
63 63 63
63 63 63
63 63 63
63 63 63
63 63 63
63 63 63
63 63 63
63 63 63
63 63 63
63 63 63
63 63 63
63 63 63
63 63 63
63 63 63
63 63 63
63 63 63
63 63 63
63 63 63
63 63 63
63 63 63
63 63 63
63 63 63
63 63 63
63 63 63
63 63 63
63 63 63
63 63 63
63 63 63
63 63 63
63 63 63
63 63 63
63 63 63
63 63 63
63 63 63
63 63 63
63 63 63
63 63 63
63 63 63
63 63 63
63 63 63
63 63 63
63 63 63
63 63 63
63 63 63
63 63 63
63 63 63
63 63 63
63 63 63
63 63 63
63 63 63
63 63 63
63 63 63
63 63 63
63 63 63
63 63 63
63 63 63
63 63 63
63 63 63
63 63 63
63 63 63
63 63 63
63 63 63
63 63 63
63 63 63
63 63 63
63 63 63
63 63 63
63 63 63
63 63 63
63 63 63
63 63 63
63 63 63
63 63 63
63 63 63
63 63 63
63 63 63
63 63 63
63 63 63
63 63 63
63 63 63
63 63 63
63 63 63
63 63 63
63 63 63
63 63 63
63 63 63
63 63 63
63 63 63
63 63 63
63 63 63
63 63 63
63 63 63
63 63 63
63 63 63
63 63 63
63 63 63
63 63 63
63 63 63
63 63 63
63 63 63
63 63 63
63 63 63
63 63 63
63 63 63
63 63 63
63 63 63
63 63 63
63 63 63
63 63 63
63 63 63
63 63 63
63 63 63
63 63 63
63 63 63
63 63 63
63 63 63
63 63 63
63 63 63
63 63 63
63 63 63
63 63 63
63 63 63
63 63 63
63 63 63
63 63 63
63 63 63
63 63 63
63 63 63
63 63 63
63 63 63
63 63 63
63 63 63
63 63 63
63 63 63
63 63 63
63 63 63
63 63 63
63 63 63
63 63 63
63 63 63
63 63 63
63 63 63
63 63 63
63 63 63
63 63 63
63 63 63
63 63 63
63 63 63
63 63 63
63 63 63
63 63 63
63 63 63
63 63 63
63 63 63
63 63 63
63 63 63
63 63 63
63 63 63
63 63 63
63 63 63
63 63 63
63 63 63
63 63 63
63 63 63
63 63 63
63 63 63
63 63 63
63 63 63
63 63 63
63 63 63
63 63 63
63 63 63
63 63 63
63 63 63
63 63 63
63 63 63
63 63 63
63 63 63
63 63 63
63 63 63
63 63 63
63 63 63
63 63 63
63 63 63
63 63 63
63 63 63
63 63 63
63 63 63
63 63 63
63 63 63
63 63 63
63 63 63
63 63 63
63 63 63
63 63 63
63 63 63
63 63 63
63 63 63
63 63 63
63 63 63
63 63 63
63 63 63
63 63 63
63 63 63
63 63 63
63 63 63
63 63 63
63 63 63
63 63 63
63 63 63
63 63 63
63 63 63
63 63 63
63 63 63
63 63 63
63 63 63
63 63 63
63 63 63
63 63 63
63 63 63
63 63 63
63 63 63
63 63 63
63 63 63
63 63 63
63 63 63
63 63 63
63 63 63
63 63 63
63 63 63
63 63 63
63 63 63
63 63 63
63 63 63
63 63 63
63 63 63
63 63 63
63 63 63
63 63 63
63 63 63
63 63 63
63 63 63
63 63 63
63 63 63
63 63 63
63 63 63
63 63 63
63 63 63
63 63 63
63 63 63
63 63 63
63 63 63
63 63 63
63 63 63
63 63 63
63 63 63
63 63 63
63 63 63
63 63 63
63 63 63
63 63 63
63 63 63
63 63 63
63 63 63
63 63 63
63 63 63
63 63 63
63 63 63
63 63 63
63 63 63
63 63 63
63 63 63
63 63 63
63 63 63
63 63 63
63 63 63
63 63 63
63 63 63
63 63 63
63 63 63
63 63 63
63 63 63
63 63 63
63 63 63
63 63 63
63 63 63
63 63 63
63 63 63
63 63 63
63 63 63
63 63 63
63 63 63
63 63 63
63 63 63
63 63 63
63 63 63
63 63 63
63 63 63
63 63 63
63 63 63
63 63 63
63 63 63
63 63 63
63 63 63
63 63 63
63 63 63
63 63 63
63 63 63
63 63 63
63 63 63
63 63 63
63 63 63
63 63 63
63 63 63
63 63 63
63 63 63
63 63 63
63 63 63
63 63 63
63 63 63
63 63 63
63 63 63
63 63 63
63 63 63
63 63 63
63 63 63
63 63 63
63 63 63
63 63 63
63 63 63
63 63 63
63 63 63
63 63 63
63 63 63
63 63 63
63 63 63
63 63 63
63 63 63
63 63 63
63 63 63
63 63 63
63 63 63
63 63 63
63 63 63
63 63 63
63 63 63
63 63 63
63 63 63
63 63 63
63 63 63
63 63 63
63 63 63
63 63 63
63 63 63
63 63 63
63 63 63
63 63 63
63 63 63
63 63 63
63 63 63
63 63 63
63 63 63
63 63 63
63 63 63
63 63 63
63 63 63
63 63 63
63 63 63
63 63 63
63 63 63
63 63 63
63 63 63
63 63 63
63 63 63
63 63 63
63 63 63
63 63 63
63 63 63
63 63 63
63 63 63
63 63 63
63 63 63
63 63 63
63 63 63
63 63 63
63 63 63
63 63 63
63 63 63
63 63 63
63 63 63
63 63 63
63 63 63
63 63 63
63 63 63
63 63 63
63 63 63
63 63 63
63 63 63
63 63 63
63 63 63
63 63 63
63 63 63
63 63 63
63 63 63
63 63 63
63 63 63
63 63 63
63 63 63
63 63 63
63 63 63
63 63 63
63 63 63
63 63 63
63 63 63
63 63 63
63 63 63
63 63 63
63 63 63
63 63 63
63 63 63
63 63 63
63 63 63
63 63 63
63 63 63
63 63 63
63 63 63
63 63 63
63 63 63
63 63 63
63 63 63
63 63 63
63 63 63
63 63 63
63 63 63
63 63 63
63 63 63
63 63 63
63 63 63
63 63 63
63 63 63
63 63 63
63 63 63
63 63 63
63 63 63
63 63 63
63 63 63
63 63 63
63 63 63
63 63 63
63 63 63
63 63 63
63 63 63
63 63 63
63 63 63
63 63 63
63 63 63
63 63 63
63 63 63
63 63 63
63 63 63
63 63 63
63 63 63
63 63 63
63 63 63
63 63 63
63 63 63
63 63 63
63 63 63
63 63 63
63 63 63
63 63 63
63 63 63
63 63 63
63 63 63
63 63 63
63 63 63
63 63 63
63 63 63
63 63 63
63 63 63
63 63 63
63 63 63
63 63 63
63 63 63
63 63 63
63 63 63
63 63 63
63 63 63
63 63 63
63 63 63
63 63 63
63 63 63
63 63 63
63 63 63
63 63 63
63 63 63
63 63 63
63 63 63
63 63 63
63 63 63
63 63 63
63 63 63
63 63 63
63 63 63
63 63 63
63 63 63
63 63 63
63 63 63
63 63 63
63 63 63
63 63 63
63 63 63
63 63 63
63 63 63
63 63 63
63 63 63
63 63 63
63 63 63
63 63 63
63 63 63
63 63 63
63 63 63
63 63 63
63 63 63
63 63 63
63 63 63
63 63 63
63 63 63
63 63 63
63 63 63
63 63 63
63 63 63
63 63 63
63 63 63
63 63 63
63 63 63
63 63 63
63 63 63
63 63 63
63 63 63
63 63 63
63 63 63
63 63 63
63 63 63
63 63 63
63 63 63
63 63 63
63 63 63
63 63 63
63 63 63
63 63 63
63 63 63
63 63 63
63 63 63
63 63 63
63 63 63
63 63 63
63 63 63
63 63 63
63 63 63
63 63 63
63 63 63
63 63 63
63 63 63
63 63 63
63 63 63
63 63 63
63 63 63
63 63 63
63 63 63
63 63 63
63 63 63
63 63 63
63 63 63
63 63 63
63 63 63
63 63 63
63 63 63
63 63 63
63 63 63
63 63 63
63 63 63
63 63 63
63 63 63
63 63 63
63 63 63
63 63 63
63 63 63
63 63 63
63 63 63
63 63 63
63 63 63
63 63 63
63 63 63
63 63 63
63 63 63
63 63 63
63 63 63
63 63 63
63 63 63
63 63 63
63 63 63
63 63 63
63 63 63
63 63 63
63 63 63
63 63 63
63 63 63
63 63 63
63 63 63
63 63 63
63 63 63
63 63 63
63 63 63
63 63 63
63 63 63
63 63 63
63 63 63
63 63 63
63 63 63
63 63 63
63 63 63
63 63 63
63 63 63
63 63 63
63 63 63
63 63 63
63 63 63
63 63 63
63 63 63
63 63 63
63 63 63
63 63 63
63 63 63
63 63 63
63 63 63
63 63 63
63 63 63
63 63 63
63 63 63
63 63 63
63 63 63
63 63 63
63 63 63
63 63 63
63 63 63
63 63 63
63 63 63
63 63 63
63 63 63
63 63 63
63 63 63
63 63 63
63 63 63
63 63 63
63 63 63
63 63 63
63 63 63
63 63 63
63 63 63
63 63 63
63 63 63
63 63 63
63 63 63
63 63 63
63 63 63
63 63 63
63 63 63
63 63 63
63 63 63
63 63 63
63 63 63
63 63 63
63 63 63
63 63 63
63 63 63
63 63 63
63 63 63
63 63 63
63 63 63
63 63 63
63 63 63
63 63 63
63 63 63
63 63 63
63 63 63
63 63 63
63 63 63
63 63 63
63 63 63
63 63 63
63 63 63
63 63 63
63 63 63
63 63 63
63 63 63
63 63 63
63 63 63
63 63 63
63 63 63
63 63 63
63 63 63
63 63 63
63 63 63
63 63 63
63 63 63
63 63 63
63 63 63
63 63 63
63 63 63
63 63 63
63 63 63
63 63 63
63 63 63
63 63 63
63 63 63
63 63 63
63 63 63
63 63 63
63 63 63
63 63 63
63 63 63
63 63 63
63 63 63
63 63 63
63 63 63
63 63 63
63 63 63
63 63 63
63 63 63
63 63 63
63 63 63
63 63 63
63 63 63
63 63 63
63 63 63
63 63 63
63 63 63
63 63 63
63 63 63
63 63 63
63 63 63
63 63 63
63 63 63
63 63 63
63 63 63
63 63 63
63 63 63
63 63 63
63 63 63
63 63 63
63 63 63
63 63 63
63 63 63
63 63 63
63 63 63
63 63 63
63 63 63
63 63 63
63 63 63
63 63 63
63 63 63
63 63 63
63 63 63
63 63 63
63 63 63
63 63 63
63 63 63
63 63 63
63 63 63
63 63 63
63 63 63
63 63 63
63 63 63
63 63 63
63 63 63
63 63 63
63 63 63
63 63 63
63 63 63
63 63 63
63 63 63
63 63 63
63 63 63
63 63 63
63 63 63
63 63 63
63 63 63
63 63 63
63 63 63
63 63 63
63 63 63
63 63 63
63 63 63
63 63 63
63 63 63
63 63 63
63 63 63
63 63 63
63 63 63
63 63 63
63 63 63
63 63 63
63 63 63
63 63 63
63 63 63
63 63 63
63 63 63
63 63 63
63 63 63
63 63 63
63 63 63
63 63 63
63 63 63
63 63 63
63 63 63
63 63 63
63 63 63
63 63 63
63 63 63
63 63 63
63 63 63
63 63 63
63 63 63
63 63 63
63 63 63
63 63 63
63 63 63
63 63 63
63 63 63
63 63 63
63 63 63
63 63 63
63 63 63
63 63 63
63 63 63
63 63 63
63 63 63
63 63 63
63 63 63
63 63 63
63 63 63
63 63 63
63 63 63
63 63 63
63 63 63
63 63 63
63 63 63
63 63 63
63 63 63
63 63 63
63 63 63
63 63 63
63 63 63
63 63 63
63 63 63
63 63 63
63 63 63
63 63 63
63 63 63
63 63 63
63 63 63
63 63 63
63 63 63
63 63 63
63 63 63
63 63 63
63 63 63
63 63 63
63 63 63
63 63 63
63 63 63
63 63 63
63 63 63
63 63 63
63 63 63
63 63 63
63 63 63
63 63 63
63 63 63
63 63 63
63 63 63
63 63 63
63 63 63
63 63 63
63 63 63
63 63 63
63 63 63
63 63 63
63 63 63
63 63 63
63 63 63
63 63 63
63 63 63
63 63 63
63 63 63
63 63 63
63 63 63
63 63 63
63 63 63
63 63 63
63 63 63
63 63 63
63 63 63
63 63 63
63 63 63
63 63 63
63 63 63
63 63 63
63 63 63
63 63 63
63 63 63
63 63 63
63 63 63
63 63 63
63 63 63
63 63 63
63 63 63
63 63 63
63 63 63
63 63 63
63 63 63
63 63 63
63 63 63
63 63 63
63 63 63
63 63 63
63 63 63
63 63 63
63 63 63
63 63 63
63 63 63
63 63 63
63 63 63
63 63 63
63 63 63
63 63 63
63 63 63
63 63 63
63 63 63
63 63 63
63 63 63
63 63 63
63 63 63
63 63 63
63 63 63
63 63 63
63 63 63
63 63 63
63 63 63
63 63 63
63 63 63
63 63 63
63 63 63
63 63 63
63 63 63
63 63 63
63 63 63
63 63 63
63 63 63
63 63 63
63 63 63
63 63 63
63 63 63
63 63 63
63 63 63
63 63 63
63 63 63
63 63 63
63 63 63
63 63 63
63 63 63
63 63 63
63 63 63
63 63 63
63 63 63
63 63 63
63 63 63
63 63 63
63 63 63
63 63 63
63 63 63
63 63 63
63 63 63
63 63 63
63 63 63
63 63 63
63 63 63
63 63 63
63 63 63
63 63 63
63 63 63
63 63 63
63 63 63
63 63 63
63 63 63
63 63 63
63 63 63
63 63 63
63 63 63
63 63 63
63 63 63
63 63 63
63 63 63
63 63 63
63 63 63
63 63 63
63 63 63
63 63 63
63 63 63
63 63 63
63 63 63
63 63 63
63 63 63
63 63 63
63 63 63
63 63 63
63 63 63
63 63 63
63 63 63
63 63 63
63 63 63
63 63 63
63 63 63
63 63 63
63 63 63
63 63 63
63 63 63
63 63 63
63 63 63
63 63 63
63 63 63
63 63 63
63 63 63
63 63 63
63 63 63
63 63 63
63 63 63
63 63 63
63 63 63
63 63 63
63 63 63
63 63 63
63 63 63
63 63 63
63 63 63
63 63 63
63 63 63
63 63 63
63 63 63
63 63 63
63 63 63
63 63 63
63 63 63
63 63 63
63 63 63
63 63 63
63 63 63
63 63 63
63 63 63
63 63 63
63 63 63
63 63 63
63 63 63
63 63 63
63 63 63
63 63 63
63 63 63
63 63 63
63 63 63
63 63 63
63 63 63
63 63 63
63 63 63
63 63 63
63 63 63
63 63 63
63 63 63
63 63 63
63 63 63
63 63 63
63 63 63
63 63 63
63 63 63
63 63 63
63 63 63
63 63 63
63 63 63
63 63 63
63 63 63
63 63 63
63 63 63
63 63 63
63 63 63
63 63 63
63 63 63
63 63 63
63 63 63
63 63 63
63 63 63
63 63 63
63 63 63
63 63 63
63 63 63
63 63 63
63 63 63
63 63 63
63 63 63
63 63 63
63 63 63
63 63 63
63 63 63
63 63 63
63 63 63
63 63 63
63 63 63
63 63 63
63 63 63
63 63 63
63 63 63
63 63 63
63 63 63
63 63 63
63 63 63
63 63 63
63 63 63
63 63 63
63 63 63
63 63 63
63 63 63
63 63 63
63 63 63
63 63 63
63 63 63
63 63 63
63 63 63
63 63 63
63 63 63
63 63 63
63 63 63
63 63 63
63 63 63
63 63 63
63 63 63
63 63 63
63 63 63
63 63 63
63 63 63
63 63 63
63 63 63
63 63 63
63 63 63
63 63 63
63 63 63
63 63 63
63 63 63
63 63 63
63 63 63
63 63 63
63 63 63
63 63 63
63 63 63
63 63 63
63 63 63
63 63 63
63 63 63
63 63 63
63 63 63
63 63 63
63 63 63
63 63 63
63 63 63
63 63 63
63 63 63
63 63 63
63 63 63
63 63 63
63 63 63
63 63 63
63 63 63
63 63 63
63 63 63
63 63 63
63 63 63
63 63 63
63 63 63
63 63 63
63 63 63
63 63 63
63 63 63
63 63 63
63 63 63
63 63 63
63 63 63
63 63 63
63 63 63
63 63 63
63 63 63
63 63 63
63 63 63
63 63 63
63 63 63
63 63 63
63 63 63
63 63 63
63 63 63
63 63 63
63 63 63
63 63 63
63 63 63
63 63 63
63 63 63
63 63 63
63 63 63
63 63 63
63 63 63
63 63 63
63 63 63
63 63 63
63 63 63
63 63 63
63 63 63
63 63 63
63 63 63
63 63 63
63 63 63
63 63 63
63 63 63
63 63 63
63 63 63
63 63 63
63 63 63
63 63 63
63 63 63
63 63 63
63 63 63
63 63 63
63 63 63
63 63 63
63 63 63
63 63 63
63 63 63
63 63 63
63 63 63
63 63 63
63 63 63
63 63 63
63 63 63
63 63 63
63 63 63
63 63 63
63 63 63
63 63 63
63 63 63
63 63 63
63 63 63
63 63 63
63 63 63
63 63 63
63 63 63
63 63 63
63 63 63
63 63 63
63 63 63
63 63 63
63 63 63
63 63 63
63 63 63
63 63 63
63 63 63
63 63 63
63 63 63
63 63 63
63 63 63
63 63 63
63 63 63
63 63 63
63 63 63
63 63 63
63 63 63
63 63 63
63 63 63
63 63 63
63 63 63
63 63 63
63 63 63
63 63 63
63 63 63
63 63 63
63 63 63
63 63 63
63 63 63
63 63 63
63 63 63
63 63 63
63 63 63
63 63 63
63 63 63
63 63 63
63 63 63
63 63 63
63 63 63
63 63 63
63 63 63
63 63 63
63 63 63
63 63 63
63 63 63
63 63 63
63 63 63
63 63 63
63 63 63
63 63 63
63 63 63
63 63 63
63 63 63
63 63 63
63 63 63
63 63 63
63 63 63
63 63 63
63 63 63
63 63 63
63 63 63
63 63 63
63 63 63
63 63 63
63 63 63
63 63 63
63 63 63
63 63 63
63 63 63
63 63 63
63 63 63
63 63 63
63 63 63
63 63 63
63 63 63
63 63 63
63 63 63
63 63 63
63 63 63
63 63 63
63 63 63
63 63 63
63 63 63
63 63 63
63 63 63
63 63 63
63 63 63
63 63 63
63 63 63
63 63 63
63 63 63
63 63 63
63 63 63
63 63 63
63 63 63
63 63 63
63 63 63
63 63 63
63 63 63
63 63 63
63 63 63
63 63 63
63 63 63
63 63 63
63 63 63
63 63 63
63 63 63
63 63 63
63 63 63
63 63 63
63 63 63
63 63 63
63 63 63
63 63 63
63 63 63
63 63 63
63 63 63
63 63 63
63 63 63
63 63 63
63 63 63
63 63 63
63 63 63
63 63 63
63 63 63
63 63 63
63 63 63
63 63 63
63 63 63
63 63 63
63 63 63
63 63 63
63 63 63
63 63 63
63 63 63
63 63 63
63 63 63
63 63 63
63 63 63
63 63 63
63 63 63
63 63 63
63 63 63
63 63 63
63 63 63
63 63 63
63 63 63
63 63 63
63 63 63
63 63 63
63 63 63
63 63 63
63 63 63
63 63 63
63 63 63
63 63 63
63 63 63
63 63 63
63 63 63
63 63 63
63 63 63
63 63 63
63 63 63
63 63 63
63 63 63
63 63 63
63 63 63
63 63 63
63 63 63
63 63 63
63 63 63
63 63 63
63 63 63
63 63 63
63 63 63
63 63 63
63 63 63
63 63 63
63 63 63
63 63 63
63 63 63
63 63 63
63 63 63
63 63 63
63 63 63
63 63 63
63 63 63
63 63 63
63 63 63
63 63 63
63 63 63
63 63 63
63 63 63
63 63 63
63 63 63
63 63 63
63 63 63
63 63 63
63 63 63
63 63 63
63 63 63
63 63 63
63 63 63
63 63 63
63 63 63
63 63 63
63 63 63
63 63 63
63 63 63
63 63 63
63 63 63
63 63 63
63 63 63
63 63 63
63 63 63
63 63 63
63 63 63
63 63 63
63 63 63
63 63 63
63 63 63
63 63 63
63 63 63
63 63 63
63 63 63
63 63 63
63 63 63
63 63 63
63 63 63
63 63 63
63 63 63
63 63 63
63 63 63
63 63 63
63 63 63
63 63 63
63 63 63
63 63 63
63 63 63
63 63 63
63 63 63
63 63 63
63 63 63
63 63 63
63 63 63
63 63 63
63 63 63
63 63 63
63 63 63
63 63 63
63 63 63
63 63 63
63 63 63
63 63 63
63 63 63
63 63 63
63 63 63
63 63 63
63 63 63
63 63 63
63 63 63
63 63 63
63 63 63
63 63 63
63 63 63
63 63 63
63 63 63
63 63 63
63 63 63
63 63 63
63 63 63
63 63 63
63 63 63
63 63 63
63 63 63
63 63 63
63 63 63
63 63 63
63 63 63
63 63 63
63 63 63
63 63 63
63 63 63
63 63 63
63 63 63
63 63 63
63 63 63
63 63 63
63 63 63
63 63 63
63 63 63
63 63 63
63 63 63
63 63 63
63 63 63
63 63 63
63 63 63
63 63 63
63 63 63
63 63 63
63 63 63
63 63 63
63 63 63
63 63 63
63 63 63
63 63 63
63 63 63
63 63 63
63 63 63
63 63 63
63 63 63
63 63 63
63 63 63
63 63 63
63 63 63
63 63 63
63 63 63
63 63 63
63 63 63
63 63 63
63 63 63
63 63 63
63 63 63
63 63 63
63 63 63
63 63 63
63 63 63
63 63 63
63 63 63
63 63 63
63 63 63
63 63 63
63 63 63
63 63 63
63 63 63
63 63 63
63 63 63
63 63 63
63 63 63
63 63 63
63 63 63
63 63 63
63 63 63
63 63 63
63 63 63
63 63 63
63 63 63
63 63 63
63 63 63
63 63 63
63 63 63
63 63 63
63 63 63
63 63 63
63 63 63
63 63 63
63 63 63
63 63 63
63 63 63
63 63 63
63 63 63
63 63 63
63 63 63
63 63 63
63 63 63
63 63 63
63 63 63
63 63 63
63 63 63
63 63 63
63 63 63
63 63 63
63 63 63
63 63 63
63 63 63
63 63 63
63 63 63
63 63 63
63 63 63
63 63 63
63 63 63
63 63 63
63 63 63
63 63 63
63 63 63
63 63 63
63 63 63
63 63 63
63 63 63
63 63 63
63 63 63
63 63 63
63 63 63
63 63 63
63 63 63
63 63 63
63 63 63
63 63 63
63 63 63
63 63 63
63 63 63
63 63 63
63 63 63
63 63 63
63 63 63
63 63 63
63 63 63
63 63 63
63 63 63
63 63 63
63 63 63
63 63 63
63 63 63
63 63 63
63 63 63
63 63 63
63 63 63
63 63 63
63 63 63
63 63 63
63 63 63
63 63 63
63 63 63
63 63 63
63 63 63
63 63 63
63 63 63
63 63 63
63 63 63
63 63 63
63 63 63
63 63 63
63 63 63
63 63 63
63 63 63
63 63 63
63 63 63
63 63 63
63 63 63
63 63 63
63 63 63
63 63 63
63 63 63
63 63 63
63 63 63
63 63 63
63 63 63
63 63 63
63 63 63
63 63 63
63 63 63
63 63 63
63 63 63
63 63 63
63 63 63
63 63 63
63 63 63
63 63 63
63 63 63
63 63 63
63 63 63
63 63 63
63 63 63
63 63 63
63 63 63
63 63 63
63 63 63
63 63 63
63 63 63
63 63 63
63 63 63
63 63 63
63 63 63
63 63 63
63 63 63
63 63 63
63 63 63
63 63 63
63 63 63
63 63 63
63 63 63
63 63 63
63 63 63
63 63 63
63 63 63
63 63 63
63 63 63
63 63 63
63 63 63
63 63 63
63 63 63
63 63 63
63 63 63
63 63 63
63 63 63
63 63 63
63 63 63
63 63 63
63 63 63
63 63 63
63 63 63
63 63 63
63 63 63
63 63 63
63 63 63
63 63 63
63 63 63
63 63 63
63 63 63
63 63 63
63 63 63
63 63 63
63 63 63
63 63 63
63 63 63
63 63 63
63 63 63
63 63 63
63 63 63
63 63 63
63 63 63
63 63 63
63 63 63
63 63 63
63 63 63
63 63 63
63 63 63
63 63 63
63 63 63
63 63 63
63 63 63
63 63 63
63 63 63
63 63 63
63 63 63
63 63 63
63 63 63
63 63 63
63 63 63
63 63 63
63 63 63
63 63 63
63 63 63
63 63 63
63 63 63
63 63 63
63 63 63
63 63 63
63 63 63
63 63 63
63 63 63
63 63 63
63 63 63
63 63 63
63 63 63
63 63 63
63 63 63
63 63 63
63 63 63
63 63 63
63 63 63
63 63 63
63 63 63
63 63 63
63 63 63
63 63 63
63 63 63
63 63 63
63 63 63
63 63 63
63 63 63
63 63 63
63 63 63
63 63 63
63 63 63
63 63 63
63 63 63
63 63 63
63 63 63
63 63 63
63 63 63
63 63 63
63 63 63
63 63 63
63 63 63
63 63 63
63 63 63
63 63 63
63 63 63
63 63 63
63 63 63
63 63 63
63 63 63
63 63 63
63 63 63
63 63 63
63 63 63
63 63 63
63 63 63
63 63 63
63 63 63
63 63 63
63 63 63
63 63 63
63 63 63
63 63 63
63 63 63
63 63 63
63 63 63
63 63 63
63 63 63
63 63 63
63 63 63
63 63 63
63 63 63
63 63 63
63 63 63
63 63 63
63 63 63
63 63 63
63 63 63
63 63 63
63 63 63
63 63 63
63 63 63
63 63 63
63 63 63
63 63 63
63 63 63
63 63 63
63 63 63
63 63 63
63 63 63
63 63 63
63 63 63
63 63 63
63 63 63
63 63 63
63 63 63
63 63 63
63 63 63
63 63 63
63 63 63
63 63 63
63 63 63
63 63 63
63 63 63
63 63 63
63 63 63
63 63 63
63 63 63
63 63 63
63 63 63
63 63 63
63 63 63
63 63 63
63 63 63
63 63 63
63 63 63
63 63 63
63 63 63
63 63 63
63 63 63
63 63 63
63 63 63
63 63 63
63 63 63
63 63 63
63 63 63
63 63 63
63 63 63
63 63 63
63 63 63
63 63 63
63 63 63
63 63 63
63 63 63
63 63 63
63 63 63
63 63 63
63 63 63
63 63 63
63 63 63
63 63 63
63 63 63
63 63 63
63 63 63
63 63 63
63 63 63
63 63 63
63 63 63
63 63 63
63 63 63
63 63 63
63 63 63
63 63 63
63 63 63
63 63 63
63 63 63
63 63 63
63 63 63
63 63 63
63 63 63
63 63 63
63 63 63
63 63 63
63 63 63
63 63 63
63 63 63
63 63 63
63 63 63
63 63 63
63 63 63
63 63 63
63 63 63
63 63 63
63 63 63
63 63 63
63 63 63
63 63 63
63 63 63
63 63 63
63 63 63
63 63 63
63 63 63
63 63 63
63 63 63
63 63 63
63 63 63
63 63 63
63 63 63
63 63 63
63 63 63
63 63 63
63 63 63
63 63 63
63 63 63
63 63 63
63 63 63
63 63 63
63 63 63
63 63 63
63 63 63
63 63 63
63 63 63
63 63 63
63 63 63
63 63 63
63 63 63
63 63 63
63 63 63
63 63 63
63 63 63
63 63 63
63 63 63
63 63 63
63 63 63
63 63 63
63 63 63
63 63 63
63 63 63
63 63 63
63 63 63
63 63 63
63 63 63
63 63 63
63 63 63
63 63 63
63 63 63
63 63 63
63 63 63
63 63 63
63 63 63
63 63 63
63 63 63
63 63 63
63 63 63
63 63 63
63 63 63
63 63 63
63 63 63
63 63 63
63 63 63
63 63 63
63 63 63
63 63 63
63 63 63
63 63 63
63 63 63
63 63 63
63 63 63
63 63 63
63 63 63
63 63 63
63 63 63
63 63 63
63 63 63
63 63 63
63 63 63
63 63 63
63 63 63
63 63 63
63 63 63
63 63 63
63 63 63
63 63 63
63 63 63
63 63 63
63 63 63
63 63 63
63 63 63
63 63 63
63 63 63
63 63 63
63 63 63
63 63 63
63 63 63
63 63 63
63 63 63
63 63 63
63 63 63
63 63 63
63 63 63
63 63 63
63 63 63
63 63 63
63 63 63
63 63 63
63 63 63
63 63 63
63 63 63
63 63 63
63 63 63
63 63 63
63 63 63
63 63 63
63 63 63
63 63 63
63 63 63
63 63 63
63 63 63
63 63 63
63 63 63
63 63 63
63 63 63
63 63 63
63 63 63
63 63 63
63 63 63
63 63 63
63 63 63
63 63 63
63 63 63
63 63 63
63 63 63
63 63 63
63 63 63
63 63 63
63 63 63
63 63 63
63 63 63
63 63 63
63 63 63
63 63 63
63 63 63
63 63 63
63 63 63
63 63 63
63 63 63
63 63 63
63 63 63
63 63 63
63 63 63
63 63 63
63 63 63
63 63 63
63 63 63
63 63 63
63 63 63
63 63 63
63 63 63
63 63 63
63 63 63
63 63 63
63 63 63
63 63 63
63 63 63
63 63 63
63 63 63
63 63 63
63 63 63
63 63 63
63 63 63
63 63 63
63 63 63
63 63 63
63 63 63
63 63 63
63 63 63
63 63 63
63 63 63
63 63 63
63 63 63
63 63 63
63 63 63
63 63 63
63 63 63
63 63 63
63 63 63
63 63 63
63 63 63
63 63 63
63 63 63
63 63 63
63 63 63
63 63 63
63 63 63
63 63 63
63 63 63
63 63 63
63 63 63
63 63 63
63 63 63
63 63 63
63 63 63
63 63 63
63 63 63
63 63 63
63 63 63
63 63 63
63 63 63
63 63 63
63 63 63
63 63 63
63 63 63
63 63 63
63 63 63
63 63 63
63 63 63
63 63 63
63 63 63
63 63 63
63 63 63
63 63 63
63 63 63
63 63 63
63 63 63
63 63 63
63 63 63
63 63 63
63 63 63
63 63 63
63 63 63
63 63 63
63 63 63
63 63 63
63 63 63
63 63 63
63 63 63
63 63 63
63 63 63
63 63 63
63 63 63
63 63 63
63 63 63
63 63 63
63 63 63
63 63 63
63 63 63
63 63 63
63 63 63
63 63 63
63 63 63
63 63 63
63 63 63
63 63 63
63 63 63
63 63 63
63 63 63
63 63 63
63 63 63
63 63 63
63 63 63
63 63 63
63 63 63
63 63 63
63 63 63
63 63 63
63 63 63
63 63 63
63 63 63
63 63 63
63 63 63
63 63 63
63 63 63
63 63 63
63 63 63
63 63 63
63 63 63
63 63 63
63 63 63
63 63 63
63 63 63
63 63 63
63 63 63
63 63 63
63 63 63
63 63 63
63 63 63
63 63 63
63 63 63
63 63 63
63 63 63
63 63 63
63 63 63
63 63 63
63 63 63
63 63 63
63 63 63
63 63 63
63 63 63
63 63 63
63 63 63
63 63 63
63 63 63
63 63 63
63 63 63
63 63 63
63 63 63
63 63 63
63 63 63
63 63 63
63 63 63
63 63 63
63 63 63
63 63 63
63 63 63
63 63 63
63 63 63
63 63 63
63 63 63
63 63 63
63 63 63
63 63 63
63 63 63
63 63 63
63 63 63
63 63 63
63 63 63
63 63 63
63 63 63
63 63 63
63 63 63
63 63 63
63 63 63
63 63 63
63 63 63
63 63 63
63 63 63
63 63 63
63 63 63
63 63 63
63 63 63
63 63 63
63 63 63
63 63 63
63 63 63
63 63 63
63 63 63
63 63 63
63 63 63
63 63 63
63 63 63
63 63 63
63 63 63
63 63 63
63 63 63
63 63 63
63 63 63
63 63 63
63 63 63
63 63 63
63 63 63
63 63 63
63 63 63
63 63 63
63 63 63
63 63 63
63 63 63
63 63 63
63 63 63
63 63 63
63 63 63
63 63 63
63 63 63
63 63 63
63 63 63
63 63 63
63 63 63
63 63 63
63 63 63
63 63 63
63 63 63
63 63 63
63 63 63
63 63 63
63 63 63
63 63 63
63 63 63
63 63 63
63 63 63
63 63 63
63 63 63
63 63 63
63 63 63
63 63 63
63 63 63
63 63 63
63 63 63
63 63 63
63 63 63
63 63 63
63 63 63
63 63 63
63 63 63
63 63 63
63 63 63
63 63 63
63 63 63
63 63 63
63 63 63
63 63 63
63 63 63
63 63 63
63 63 63
63 63 63
63 63 63
63 63 63
63 63 63
63 63 63
63 63 63
63 63 63
63 63 63
63 63 63
63 63 63
63 63 63
63 63 63
63 63 63
63 63 63
63 63 63
63 63 63
63 63 63
63 63 63
63 63 63
63 63 63
63 63 63
63 63 63
63 63 63
63 63 63
63 63 63
63 63 63
63 63 63
63 63 63
63 63 63
63 63 63
63 63 63
63 63 63
63 63 63
63 63 63
63 63 63
63 63 63
63 63 63
63 63 63
63 63 63
63 63 63
63 63 63
63 63 63
63 63 63
63 63 63
63 63 63
63 63 63
63 63 63
63 63 63
63 63 63
63 63 63
63 63 63
63 63 63
63 63 63
63 63 63
63 63 63
63 63 63
63 63 63
63 63 63
63 63 63
63 63 63
63 63 63
63 63 63
63 63 63
63 63 63
63 63 63
63 63 63
63 63 63
63 63 63
63 63 63
63 63 63
63 63 63
63 63 63
63 63 63
63 63 63
63 63 63
63 63 63
63 63 63
63 63 63
63 63 63
63 63 63
63 63 63
63 63 63
63 63 63
63 63 63
63 63 63
63 63 63
63 63 63
63 63 63
63 63 63
63 63 63
63 63 63
63 63 63
63 63 63
63 63 63
63 63 63
63 63 63
63 63 63
63 63 63
63 63 63
63 63 63
63 63 63
63 63 63
63 63 63
63 63 63
63 63 63
63 63 63
63 63 63
63 63 63
63 63 63
63 63 63
63 63 63
63 63 63
63 63 63
63 63 63
63 63 63
63 63 63
63 63 63
63 63 63
63 63 63
63 63 63
63 63 63
63 63 63
63 63 63
63 63 63
63 63 63
63 63 63
63 63 63
63 63 63
63 63 63
63 63 63
63 63 63
63 63 63
63 63 63
63 63 63
63 63 63
63 63 63
63 63 63
63 63 63
63 63 63
63 63 63
63 63 63
63 63 63
63 63 63
63 63 63
63 63 63
63 63 63
63 63 63
63 63 63
63 63 63
63 63 63
63 63 63
63 63 63
63 63 63
63 63 63
63 63 63
63 63 63
63 63 63
63 63 63
63 63 63
63 63 63
63 63 63
63 63 63
63 63 63
63 63 63
63 63 63
63 63 63
63 63 63
63 63 63
63 63 63
63 63 63
63 63 63
63 63 63
63 63 63
63 63 63
63 63 63
63 63 63
63 63 63
63 63 63
63 63 63
63 63 63
63 63 63
63 63 63
63 63 63
63 63 63
63 63 63
63 63 63
63 63 63
63 63 63
63 63 63
63 63 63
63 63 63
63 63 63
63 63 63
63 63 63
63 63 63
63 63 63
63 63 63
63 63 63
63 63 63
63 63 63
63 63 63
63 63 63
63 63 63
63 63 63
63 63 63
63 63 63
63 63 63
63 63 63
63 63 63
63 63 63
63 63 63
63 63 63
63 63 63
63 63 63
63 63 63
63 63 63
63 63 63
63 63 63
63 63 63
63 63 63
63 63 63
63 63 63
63 63 63
63 63 63
63 63 63
63 63 63
63 63 63
63 63 63
63 63 63
63 63 63
63 63 63
63 63 63
63 63 63
63 63 63
63 63 63
63 63 63
63 63 63
63 63 63
63 63 63
63 63 63
63 63 63
63 63 63
63 63 63
63 63 63
63 63 63
63 63 63
63 63 63
63 63 63
63 63 63
63 63 63
63 63 63
63 63 63
63 63 63
63 63 63
63 63 63
63 63 63
63 63 63
63 63 63
63 63 63
63 63 63
63 63 63
63 63 63
63 63 63
63 63 63
63 63 63
63 63 63
63 63 63
63 63 63
63 63 63
63 63 63
63 63 63
63 63 63
63 63 63
63 63 63
63 63 63
63 63 63
63 63 63
63 63 63
63 63 63
63 63 63
63 63 63
63 63 63
63 63 63
63 63 63
63 63 63
63 63 63
63 63 63
63 63 63
63 63 63
63 63 63
63 63 63
63 63 63
63 63 63
63 63 63
63 63 63
63 63 63
63 63 63
63 63 63
63 63 63
63 63 63
63 63 63
63 63 63
63 63 63
63 63 63
63 63 63
63 63 63
63 63 63
63 63 63
63 63 63
63 63 63
63 63 63
63 63 63
63 63 63
63 63 63
63 63 63
63 63 63
63 63 63
63 63 63
63 63 63
63 63 63
63 63 63
63 63 63
63 63 63
63 63 63
63 63 63
63 63 63
63 63 63
63 63 63
63 63 63
63 63 63
63 63 63
63 63 63
63 63 63
63 63 63
63 63 63
63 63 63
63 63 63
63 63 63
63 63 63
63 63 63
63 63 63
63 63 63
63 63 63
63 63 63
63 63 63
63 63 63
63 63 63
63 63 63
63 63 63
63 63 63
63 63 63
63 63 63
63 63 63
63 63 63
63 63 63
63 63 63
63 63 63
63 63 63
63 63 63
63 63 63
63 63 63
63 63 63
63 63 63
63 63 63
63 63 63
63 63 63
63 63 63
63 63 63
63 63 63
63 63 63
63 63 63
63 63 63
63 63 63
63 63 63
63 63 63
63 63 63
63 63 63
63 63 63
63 63 63
63 63 63
63 63 63
63 63 63
63 63 63
63 63 63
63 63 63
63 63 63
63 63 63
63 63 63
63 63 63
63 63 63
63 63 63
63 63 63
63 63 63
63 63 63
63 63 63
63 63 63
63 63 63
63 63 63
63 63 63
63 63 63
63 63 63
63 63 63
63 63 63
63 63 63
63 63 63
63 63 63
63 63 63
63 63 63
63 63 63
63 63 63
63 63 63
63 63 63
63 63 63
63 63 63
63 63 63
63 63 63
63 63 63
63 63 63
63 63 63
63 63 63
63 63 63
63 63 63
63 63 63
63 63 63
63 63 63
63 63 63
63 63 63
63 63 63
63 63 63
63 63 63
63 63 63
63 63 63
63 63 63
63 63 63
63 63 63
63 63 63
63 63 63
63 63 63
63 63 63
63 63 63
63 63 63
63 63 63
63 63 63
63 63 63
63 63 63
63 63 63
63 63 63
63 63 63
63 63 63
63 63 63
63 63 63
63 63 63
63 63 63
63 63 63
63 63 63
63 63 63
63 63 63
63 63 63
63 63 63
63 63 63
63 63 63
63 63 63
63 63 63
63 63 63
63 63 63
63 63 63
63 63 63
63 63 63
63 63 63
63 63 63
63 63 63
63 63 63
63 63 63
63 63 63
63 63 63
63 63 63
63 63 63
63 63 63
63 63 63
63 63 63
63 63 63
63 63 63
63 63 63
63 63 63
63 63 63
63 63 63
63 63 63
63 63 63
63 63 63
63 63 63
63 63 63
63 63 63
63 63 63
63 63 63
63 63 63
63 63 63
63 63 63
63 63 63
63 63 63
63 63 63
63 63 63
63 63 63
63 63 63
63 63 63
63 63 63
63 63 63
63 63 63
63 63 63
63 63 63
63 63 63
63 63 63
63 63 63
63 63 63
63 63 63
63 63 63
63 63 63
63 63 63
63 63 63
63 63 63
63 63 63
63 63 63
63 63 63
63 63 63
63 63 63
63 63 63
63 63 63
63 63 63
63 63 63
63 63 63
63 63 63
63 63 63
63 63 63
63 63 63
63 63 63
63 63 63
63 63 63
63 63 63
63 63 63
63 63 63
63 63 63
63 63 63
63 63 63
63 63 63
63 63 63
63 63 63
63 63 63
63 63 63
63 63 63
63 63 63
63 63 63
63 63 63
63 63 63
63 63 63
63 63 63
63 63 63
63 63 63
63 63 63
63 63 63
63 63 63
63 63 63
63 63 63
63 63 63
63 63 63
63 63 63
63 63 63
63 63 63
63 63 63
63 63 63
63 63 63
63 63 63
63 63 63
63 63 63
63 63 63
63 63 63
63 63 63
63 63 63
63 63 63
63 63 63
63 63 63
63 63 63
63 63 63
63 63 63
63 63 63
63 63 63
63 63 63
63 63 63
63 63 63
63 63 63
63 63 63
63 63 63
63 63 63
63 63 63
63 63 63
63 63 63
63 63 63
63 63 63
63 63 63
63 63 63
63 63 63
63 63 63
63 63 63
63 63 63
63 63 63
63 63 63
63 63 63
63 63 63
63 63 63
63 63 63
63 63 63
63 63 63
63 63 63
63 63 63
63 63 63
63 63 63
63 63 63
63 63 63
63 63 63
63 63 63
63 63 63
63 63 63
63 63 63
63 63 63
63 63 63
63 63 63
63 63 63
63 63 63
63 63 63
63 63 63
63 63 63
63 63 63
63 63 63
63 63 63
63 63 63
63 63 63
63 63 63
63 63 63
63 63 63
63 63 63
63 63 63
63 63 63
63 63 63
63 63 63
63 63 63
63 63 63
63 63 63
63 63 63
63 63 63
63 63 63
63 63 63
63 63 63
63 63 63
63 63 63
63 63 63
63 63 63
63 63 63
63 63 63
63 63 63
63 63 63
63 63 63
63 63 63
63 63 63
63 63 63
63 63 63
63 63 63
63 63 63
63 63 63
63 63 63
63 63 63
63 63 63
63 63 63
63 63 63
63 63 63
63 63 63
63 63 63
63 63 63
63 63 63
63 63 63
63 63 63
63 63 63
63 63 63
63 63 63
63 63 63
63 63 63
63 63 63
63 63 63
63 63 63
63 63 63
63 63 63
63 63 63
63 63 63
63 63 63
63 63 63
63 63 63
63 63 63
63 63 63
63 63 63
63 63 63
63 63 63
63 63 63
63 63 63
63 63 63
63 63 63
63 63 63
63 63 63
63 63 63
63 63 63
63 63 63
63 63 63
63 63 63
63 63 63
63 63 63
63 63 63
63 63 63
63 63 63
63 63 63
63 63 63
63 63 63
63 63 63
63 63 63
63 63 63
63 63 63
63 63 63
63 63 63
63 63 63
63 63 63
63 63 63
63 63 63
63 63 63
63 63 63
63 63 63
63 63 63
63 63 63
63 63 63
63 63 63
63 63 63
63 63 63
63 63 63
63 63 63
63 63 63
63 63 63
63 63 63
63 63 63
63 63 63
63 63 63
63 63 63
63 63 63
63 63 63
63 63 63
63 63 63
63 63 63
63 63 63
63 63 63
63 63 63
63 63 63
63 63 63
63 63 63
63 63 63
63 63 63
63 63 63
63 63 63
63 63 63
63 63 63
63 63 63
63 63 63
63 63 63
63 63 63
63 63 63
63 63 63
63 63 63
63 63 63
63 63 63
63 63 63
63 63 63
63 63 63
63 63 63
63 63 63
63 63 63
63 63 63
63 63 63
63 63 63
63 63 63
63 63 63
63 63 63
63 63 63
63 63 63
63 63 63
63 63 63
63 63 63
63 63 63
63 63 63
63 63 63
63 63 63
63 63 63
63 63 63
63 63 63
63 63 63
63 63 63
63 63 63
63 63 63
63 63 63
63 63 63
63 63 63
63 63 63
63 63 63
63 63 63
63 63 63
63 63 63
63 63 63
63 63 63
63 63 63
63 63 63
63 63 63
63 63 63
63 63 63
63 63 63
63 63 63
63 63 63
63 63 63
63 63 63
63 63 63
63 63 63
63 63 63
63 63 63
63 63 63
63 63 63
63 63 63
63 63 63
63 63 63
63 63 63
63 63 63
63 63 63
63 63 63
63 63 63
63 63 63
63 63 63
63 63 63
63 63 63
63 63 63
63 63 63
63 63 63
63 63 63
63 63 63
63 63 63
63 63 63
63 63 63
63 63 63
63 63 63
63 63 63
63 63 63
63 63 63
63 63 63
63 63 63
63 63 63
63 63 63
63 63 63
63 63 63
63 63 63
63 63 63
63 63 63
63 63 63
63 63 63
63 63 63
63 63 63
63 63 63
63 63 63
63 63 63
63 63 63
63 63 63
63 63 63
63 63 63
63 63 63
63 63 63
63 63 63
63 63 63
63 63 63
63 63 63
63 63 63
63 63 63
63 63 63
63 63 63
63 63 63
63 63 63
63 63 63
63 63 63
63 63 63
63 63 63
63 63 63
63 63 63
63 63 63
63 63 63
63 63 63
63 63 63
63 63 63
63 63 63
63 63 63
63 63 63
63 63 63
63 63 63
63 63 63
63 63 63
63 63 63
63 63 63
63 63 63
63 63 63
63 63 63
63 63 63
63 63 63
63 63 63
63 63 63
63 63 63
63 63 63
63 63 63
63 63 63
63 63 63
63 63 63
63 63 63
63 63 63
63 63 63
63 63 63
63 63 63
63 63 63
63 63 63
63 63 63
63 63 63
63 63 63
63 63 63
63 63 63
63 63 63
63 63 63
63 63 63
63 63 63
63 63 63
63 63 63
63 63 63
63 63 63
63 63 63
63 63 63
63 63 63
63 63 63
63 63 63
63 63 63
63 63 63
63 63 63
63 63 63
63 63 63
63 63 63
63 63 63
63 63 63
63 63 63
63 63 63
63 63 63
63 63 63
63 63 63
63 63 63
63 63 63
63 63 63
63 63 63
63 63 63
63 63 63
63 63 63
63 63 63
63 63 63
63 63 63
63 63 63
63 63 63
63 63 63
63 63 63
63 63 63
63 63 63
63 63 63
63 63 63
63 63 63
63 63 63
63 63 63
63 63 63
63 63 63
63 63 63
63 63 63
63 63 63
63 63 63
63 63 63
63 63 63
63 63 63
63 63 63
63 63 63
63 63 63
63 63 63
63 63 63
63 63 63
63 63 63
63 63 63
63 63 63
63 63 63
63 63 63
63 63 63
63 63 63
63 63 63
63 63 63
63 63 63
63 63 63
63 63 63
63 63 63
63 63 63
63 63 63
63 63 63
63 63 63
63 63 63
63 63 63
63 63 63
63 63 63
63 63 63
63 63 63
63 63 63
63 63 63
63 63 63
63 63 63
63 63 63
63 63 63
63 63 63
63 63 63
63 63 63
63 63 63
63 63 63
63 63 63
63 63 63
63 63 63
63 63 63
63 63 63
63 63 63
63 63 63
63 63 63
63 63 63
63 63 63
63 63 63
63 63 63
63 63 63
63 63 63
63 63 63
63 63 63
63 63 63
63 63 63
63 63 63
63 63 63
63 63 63
63 63 63
63 63 63
63 63 63
63 63 63
63 63 63
63 63 63
63 63 63
63 63 63
63 63 63
63 63 63
63 63 63
63 63 63
63 63 63
63 63 63
63 63 63
63 63 63
63 63 63
63 63 63
63 63 63
63 63 63
63 63 63
63 63 63
63 63 63
63 63 63
63 63 63
63 63 63
63 63 63
63 63 63
63 63 63
63 63 63
63 63 63
63 63 63
63 63 63
63 63 63
63 63 63
63 63 63
63 63 63
63 63 63
63 63 63
63 63 63
63 63 63
63 63 63
63 63 63
63 63 63
63 63 63
63 63 63
63 63 63
63 63 63
63 63 63
63 63 63
63 63 63
63 63 63
63 63 63
63 63 63
63 63 63
63 63 63
63 63 63
63 63 63
63 63 63
63 63 63
63 63 63
63 63 63
63 63 63
63 63 63
63 63 63
63 63 63
63 63 63
63 63 63
63 63 63
63 63 63
63 63 63
63 63 63
63 63 63
63 63 63
63 63 63
63 63 63
63 63 63
63 63 63
63 63 63
63 63 63
63 63 63
63 63 63
63 63 63
63 63 63
63 63 63
63 63 63
63 63 63
63 63 63
63 63 63
63 63 63
63 63 63
63 63 63
63 63 63
63 63 63
63 63 63
63 63 63
63 63 63
63 63 63
63 63 63
63 63 63
63 63 63
63 63 63
63 63 63
63 63 63
63 63 63
63 63 63
63 63 63
63 63 63
63 63 63
63 63 63
63 63 63
63 63 63
63 63 63
63 63 63
63 63 63
63 63 63
63 63 63
63 63 63
63 63 63
63 63 63
63 63 63
63 63 63
63 63 63
63 63 63
63 63 63
63 63 63
63 63 63
63 63 63
63 63 63
63 63 63
63 63 63
63 63 63
63 63 63
63 63 63
63 63 63
63 63 63
63 63 63
63 63 63
63 63 63
63 63 63
63 63 63
63 63 63
63 63 63
63 63 63
63 63 63
63 63 63
63 63 63
63 63 63
63 63 63
63 63 63
63 63 63
63 63 63
63 63 63
63 63 63
63 63 63
63 63 63
63 63 63
63 63 63
63 63 63
63 63 63
63 63 63
63 63 63
63 63 63
63 63 63
63 63 63
63 63 63
63 63 63
63 63 63
63 63 63
63 63 63
63 63 63
63 63 63
63 63 63
63 63 63
63 63 63
63 63 63
63 63 63
63 63 63
63 63 63
63 63 63
63 63 63
63 63 63
63 63 63
63 63 63
63 63 63
63 63 63
63 63 63
63 63 63
63 63 63
63 63 63
63 63 63
63 63 63
63 63 63
63 63 63
63 63 63
63 63 63
63 63 63
63 63 63
63 63 63
63 63 63
63 63 63
63 63 63
63 63 63
63 63 63
63 63 63
63 63 63
63 63 63
63 63 63
63 63 63
63 63 63
63 63 63
63 63 63
63 63 63
63 63 63
63 63 63
63 63 63
63 63 63
63 63 63
63 63 63
63 63 63
63 63 63
63 63 63
63 63 63
63 63 63
63 63 63
63 63 63
63 63 63
63 63 63
63 63 63
63 63 63
63 63 63
63 63 63
63 63 63
63 63 63
63 63 63
63 63 63
63 63 63
63 63 63
63 63 63
63 63 63
63 63 63
63 63 63
63 63 63
63 63 63
63 63 63
63 63 63
63 63 63
63 63 63
63 63 63
63 63 63
63 63 63
63 63 63
63 63 63
63 63 63
63 63 63
63 63 63
63 63 63
63 63 63
63 63 63
63 63 63
63 63 63
63 63 63
63 63 63
63 63 63
63 63 63
63 63 63
63 63 63
63 63 63
63 63 63
63 63 63
63 63 63
63 63 63
63 63 63
63 63 63
63 63 63
63 63 63
63 63 63
63 63 63
63 63 63
63 63 63
63 63 63
63 63 63
63 63 63
63 63 63
63 63 63
63 63 63
63 63 63
63 63 63
63 63 63
63 63 63
63 63 63
63 63 63
63 63 63
63 63 63
63 63 63
63 63 63
63 63 63
63 63 63
63 63 63
63 63 63
63 63 63
63 63 63
63 63 63
63 63 63
63 63 63
63 63 63
63 63 63
63 63 63
63 63 63
63 63 63
63 63 63
63 63 63
63 63 63
63 63 63
63 63 63
63 63 63
63 63 63
63 63 63
63 63 63
63 63 63
63 63 63
63 63 63
63 63 63
63 63 63
63 63 63
63 63 63
63 63 63
63 63 63
63 63 63
63 63 63
63 63 63
63 63 63
63 63 63
63 63 63
63 63 63
63 63 63
63 63 63
63 63 63
63 63 63
63 63 63
63 63 63
63 63 63
63 63 63
63 63 63
63 63 63
63 63 63
63 63 63
63 63 63
63 63 63
63 63 63
63 63 63
63 63 63
63 63 63
63 63 63
63 63 63
63 63 63
63 63 63
63 63 63
63 63 63
63 63 63
63 63 63
63 63 63
63 63 63
63 63 63
63 63 63
63 63 63
63 63 63
63 63 63
63 63 63
63 63 63
63 63 63
63 63 63
63 63 63
63 63 63
63 63 63
63 63 63
63 63 63
63 63 63
63 63 63
63 63 63
63 63 63
63 63 63
63 63 63
63 63 63
63 63 63
63 63 63
63 63 63
63 63 63
63 63 63
63 63 63
63 63 63
63 63 63
63 63 63
63 63 63
63 63 63
63 63 63
63 63 63
63 63 63
63 63 63
63 63 63
63 63 63
63 63 63
63 63 63
63 63 63
63 63 63
63 63 63
63 63 63
63 63 63
63 63 63
63 63 63
63 63 63
63 63 63
63 63 63
63 63 63
63 63 63
63 63 63
63 63 63
63 63 63
63 63 63
63 63 63
63 63 63
63 63 63
63 63 63
63 63 63
63 63 63
63 63 63
63 63 63
63 63 63
63 63 63
63 63 63
63 63 63
63 63 63
63 63 63
63 63 63
63 63 63
63 63 63
63 63 63
63 63 63
63 63 63
63 63 63
63 63 63
63 63 63
63 63 63
63 63 63
63 63 63
63 63 63
63 63 63
63 63 63
63 63 63
63 63 63
63 63 63
63 63 63
63 63 63
63 63 63
63 63 63
63 63 63
63 63 63
63 63 63
63 63 63
63 63 63
63 63 63
63 63 63
63 63 63
63 63 63
63 63 63
63 63 63
63 63 63
63 63 63
63 63 63
63 63 63
63 63 63
63 63 63
63 63 63
63 63 63
63 63 63
63 63 63
63 63 63
63 63 63
63 63 63
63 63 63
63 63 63
63 63 63
63 63 63
63 63 63
63 63 63
63 63 63
63 63 63
63 63 63
63 63 63
63 63 63
63 63 63
63 63 63
63 63 63
63 63 63
63 63 63
63 63 63
63 63 63
63 63 63
63 63 63
63 63 63
63 63 63
63 63 63
63 63 63
63 63 63
63 63 63
63 63 63
63 63 63
63 63 63
63 63 63
63 63 63
63 63 63
63 63 63
63 63 63
63 63 63
63 63 63
63 63 63
63 63 63
63 63 63
63 63 63
63 63 63
63 63 63
63 63 63
63 63 63
63 63 63
63 63 63
63 63 63
63 63 63
63 63 63
63 63 63
63 63 63
63 63 63
63 63 63
63 63 63
63 63 63
63 63 63
63 63 63
63 63 63
63 63 63
63 63 63
63 63 63
63 63 63
63 63 63
63 63 63
63 63 63
63 63 63
63 63 63
63 63 63
63 63 63
63 63 63
63 63 63
63 63 63
63 63 63
63 63 63
63 63 63
63 63 63
63 63 63
63 63 63
63 63 63
63 63 63
63 63 63
63 63 63
63 63 63
63 63 63
63 63 63
63 63 63
63 63 63
63 63 63
63 63 63
63 63 63
63 63 63
63 63 63
63 63 63
63 63 63
63 63 63
63 63 63
63 63 63
63 63 63
63 63 63
63 63 63
63 63 63
63 63 63
63 63 63
63 63 63
63 63 63
63 63 63
63 63 63
63 63 63
63 63 63
63 63 63
63 63 63
63 63 63
63 63 63
63 63 63
63 63 63
63 63 63
63 63 63
63 63 63
63 63 63
63 63 63
63 63 63
63 63 63
63 63 63
63 63 63
63 63 63
63 63 63
63 63 63
63 63 63
63 63 63
63 63 63
63 63 63
63 63 63
63 63 63
63 63 63
63 63 63
63 63 63
63 63 63
63 63 63
63 63 63
63 63 63
63 63 63
63 63 63
63 63 63
63 63 63
63 63 63
63 63 63
63 63 63
63 63 63
63 63 63
63 63 63
63 63 63
63 63 63
63 63 63
63 63 63
63 63 63
63 63 63
63 63 63
63 63 63
63 63 63
63 63 63
63 63 63
63 63 63
63 63 63
63 63 63
63 63 63
63 63 63
63 63 63
63 63 63
63 63 63
63 63 63
63 63 63
63 63 63
63 63 63
63 63 63
63 63 63
63 63 63
63 63 63
63 63 63
63 63 63
63 63 63
63 63 63
63 63 63
63 63 63
63 63 63
63 63 63
63 63 63
63 63 63
63 63 63
63 63 63
63 63 63
63 63 63
63 63 63
63 63 63
63 63 63
63 63 63
63 63 63
63 63 63
63 63 63
63 63 63
63 63 63
63 63 63
63 63 63
63 63 63
63 63 63
63 63 63
63 63 63
63 63 63
63 63 63
63 63 63
63 63 63
63 63 63
63 63 63
63 63 63
63 63 63
63 63 63
63 63 63
63 63 63
63 63 63
63 63 63
63 63 63
63 63 63
63 63 63
63 63 63
63 63 63
63 63 63
63 63 63
63 63 63
63 63 63
63 63 63
63 63 63
63 63 63
63 63 63
63 63 63
63 63 63
63 63 63
63 63 63
63 63 63
63 63 63
63 63 63
63 63 63
63 63 63
63 63 63
63 63 63
63 63 63
63 63 63
63 63 63
63 63 63
63 63 63
63 63 63
63 63 63
63 63 63
63 63 63
63 63 63
63 63 63
63 63 63
63 63 63
63 63 63
63 63 63
63 63 63
63 63 63
63 63 63
63 63 63
63 63 63
63 63 63
63 63 63
63 63 63
63 63 63
63 63 63
63 63 63
63 63 63
63 63 63
63 63 63
63 63 63
63 63 63
63 63 63
63 63 63
63 63 63
63 63 63
63 63 63
63 63 63
63 63 63
63 63 63
63 63 63
63 63 63
63 63 63
63 63 63
63 63 63
63 63 63
63 63 63
63 63 63
63 63 63
63 63 63
63 63 63
63 63 63
63 63 63
63 63 63
63 63 63
63 63 63
63 63 63
63 63 63
63 63 63
63 63 63
63 63 63
63 63 63
63 63 63
63 63 63
63 63 63
63 63 63
63 63 63
63 63 63
63 63 63
63 63 63
63 63 63
63 63 63
63 63 63
63 63 63
63 63 63
63 63 63
63 63 63
63 63 63
63 63 63
63 63 63
63 63 63
63 63 63
63 63 63
63 63 63
63 63 63
63 63 63
63 63 63
63 63 63
63 63 63
63 63 63
63 63 63
63 63 63
63 63 63
63 63 63
63 63 63
63 63 63
63 63 63
63 63 63
63 63 63
63 63 63
63 63 63
63 63 63
63 63 63
63 63 63
63 63 63
63 63 63
63 63 63
63 63 63
63 63 63
63 63 63
63 63 63
63 63 63
63 63 63
63 63 63
63 63 63
63 63 63
63 63 63
63 63 63
63 63 63
63 63 63
63 63 63
63 63 63
63 63 63
63 63 63
63 63 63
63 63 63
63 63 63
63 63 63
63 63 63
63 63 63
63 63 63
63 63 63
63 63 63
63 63 63
63 63 63
63 63 63
63 63 63
63 63 63
63 63 63
63 63 63
63 63 63
63 63 63
63 63 63
63 63 63
63 63 63
63 63 63
63 63 63
63 63 63
63 63 63
63 63 63
63 63 63
63 63 63
63 63 63
63 63 63
63 63 63
63 63 63
63 63 63
63 63 63
63 63 63
63 63 63
63 63 63
63 63 63
63 63 63
63 63 63
63 63 63
63 63 63
63 63 63
63 63 63
63 63 63
63 63 63
63 63 63
63 63 63
63 63 63
63 63 63
63 63 63
63 63 63
63 63 63
63 63 63
63 63 63
63 63 63
63 63 63
63 63 63
63 63 63
63 63 63
63 63 63
63 63 63
63 63 63
63 63 63
63 63 63
63 63 63
63 63 63
63 63 63
63 63 63
63 63 63
63 63 63
63 63 63
63 63 63
63 63 63
63 63 63
63 63 63
63 63 63
63 63 63
63 63 63
63 63 63
63 63 63
63 63 63
63 63 63
63 63 63
63 63 63
63 63 63
63 63 63
63 63 63
63 63 63
63 63 63
63 63 63
63 63 63
63 63 63
63 63 63
63 63 63
63 63 63
63 63 63
63 63 63
63 63 63
63 63 63
63 63 63
63 63 63
63 63 63
63 63 63
63 63 63
63 63 63
63 63 63
63 63 63
63 63 63
63 63 63
63 63 63
63 63 63
63 63 63
63 63 63
63 63 63
63 63 63
63 63 63
63 63 63
63 63 63
63 63 63
63 63 63
63 63 63
63 63 63
63 63 63
63 63 63
63 63 63
63 63 63
63 63 63
63 63 63
63 63 63
63 63 63
63 63 63
63 63 63
63 63 63
63 63 63
63 63 63
63 63 63
63 63 63
63 63 63
63 63 63
63 63 63
63 63 63
63 63 63
63 63 63
63 63 63
63 63 63
63 63 63
63 63 63
63 63 63
63 63 63
63 63 63
63 63 63
63 63 63
63 63 63
63 63 63
63 63 63
63 63 63
63 63 63
63 63 63
63 63 63
63 63 63
63 63 63
63 63 63
63 63 63
63 63 63
63 63 63
63 63 63
63 63 63
63 63 63
63 63 63
63 63 63
63 63 63
63 63 63
63 63 63
63 63 63
63 63 63
63 63 63
63 63 63
63 63 63
63 63 63
63 63 63
63 63 63
63 63 63
63 63 63
63 63 63
63 63 63
63 63 63
63 63 63
63 63 63
63 63 63
63 63 63
63 63 63
63 63 63
63 63 63
63 63 63
63 63 63
63 63 63
63 63 63
63 63 63
63 63 63
63 63 63
63 63 63
63 63 63
63 63 63
63 63 63
63 63 63
63 63 63
63 63 63
63 63 63
63 63 63
63 63 63
63 63 63
63 63 63
63 63 63
63 63 63
63 63 63
63 63 63
63 63 63
63 63 63
63 63 63
63 63 63
63 63 63
63 63 63
63 63 63
63 63 63
63 63 63
63 63 63
63 63 63
63 63 63
63 63 63
63 63 63
63 63 63
63 63 63
63 63 63
63 63 63
63 63 63
63 63 63
63 63 63
63 63 63
63 63 63
63 63 63
63 63 63
63 63 63
63 63 63
63 63 63
63 63 63
63 63 63
63 63 63
63 63 63
63 63 63
63 63 63
63 63 63
63 63 63
63 63 63
63 63 63
63 63 63
63 63 63
63 63 63
63 63 63
63 63 63
63 63 63
63 63 63
63 63 63
63 63 63
63 63 63
63 63 63
63 63 63
63 63 63
63 63 63
63 63 63
63 63 63
63 63 63
63 63 63
63 63 63
63 63 63
63 63 63
63 63 63
63 63 63
63 63 63
63 63 63
63 63 63
63 63 63
63 63 63
63 63 63
63 63 63
63 63 63
63 63 63
63 63 63
63 63 63
63 63 63
63 63 63
63 63 63
63 63 63
63 63 63
63 63 63
63 63 63
63 63 63
63 63 63
63 63 63
63 63 63
63 63 63
63 63 63
63 63 63
63 63 63
63 63 63
63 63 63
63 63 63
63 63 63
63 63 63
63 63 63
63 63 63
63 63 63
63 63 63
63 63 63
63 63 63
63 63 63
63 63 63
63 63 63
63 63 63
63 63 63
63 63 63
63 63 63
63 63 63
63 63 63
63 63 63
63 63 63
63 63 63
63 63 63
63 63 63
63 63 63
63 63 63
63 63 63
63 63 63
63 63 63
63 63 63
63 63 63
63 63 63
63 63 63
63 63 63
63 63 63
63 63 63
63 63 63
63 63 63
63 63 63
63 63 63
63 63 63
63 63 63
63 63 63
63 63 63
63 63 63
63 63 63
63 63 63
63 63 63
63 63 63
63 63 63
63 63 63
63 63 63
63 63 63
63 63 63
63 63 63
63 63 63
63 63 63
63 63 63
63 63 63
63 63 63
63 63 63
63 63 63
63 63 63
63 63 63
63 63 63
63 63 63
63 63 63
63 63 63
63 63 63
63 63 63
63 63 63
63 63 63
63 63 63
63 63 63
63 63 63
63 63 63
63 63 63
63 63 63
63 63 63
63 63 63
63 63 63
63 63 63
63 63 63
63 63 63
63 63 63
63 63 63
63 63 63
63 63 63
63 63 63
63 63 63
63 63 63
63 63 63
63 63 63
63 63 63
63 63 63
63 63 63
63 63 63
63 63 63
63 63 63
63 63 63
63 63 63
63 63 63
63 63 63
63 63 63
63 63 63
63 63 63
63 63 63
63 63 63
63 63 63
63 63 63
63 63 63
63 63 63
63 63 63
63 63 63
63 63 63
63 63 63
63 63 63
63 63 63
63 63 63
63 63 63
63 63 63
63 63 63
63 63 63
63 63 63
63 63 63
63 63 63
63 63 63
63 63 63
63 63 63
63 63 63
63 63 63
63 63 63
63 63 63
63 63 63
63 63 63
63 63 63
63 63 63
63 63 63
63 63 63
63 63 63
63 63 63
63 63 63
63 63 63
63 63 63
63 63 63
63 63 63
63 63 63
63 63 63
63 63 63
63 63 63
63 63 63
63 63 63
63 63 63
63 63 63
63 63 63
63 63 63
63 63 63
63 63 63
63 63 63
63 63 63
63 63 63
63 63 63
63 63 63
63 63 63
63 63 63
63 63 63
63 63 63
63 63 63
63 63 63
63 63 63
63 63 63
63 63 63
63 63 63
63 63 63
63 63 63
63 63 63
63 63 63
63 63 63
63 63 63
63 63 63
63 63 63
63 63 63
63 63 63
63 63 63
63 63 63
63 63 63
63 63 63
63 63 63
63 63 63
63 63 63
63 63 63
63 63 63
63 63 63
63 63 63
63 63 63
63 63 63
63 63 63
63 63 63
63 63 63
63 63 63
63 63 63
63 63 63
63 63 63
63 63 63
63 63 63
63 63 63
63 63 63
63 63 63
63 63 63
63 63 63
63 63 63
63 63 63
63 63 63
63 63 63
63 63 63
63 63 63
63 63 63
63 63 63
63 63 63
63 63 63
63 63 63
63 63 63
63 63 63
63 63 63
63 63 63
63 63 63
63 63 63
63 63 63
63 63 63
63 63 63
63 63 63
63 63 63
63 63 63
63 63 63
63 63 63
63 63 63
63 63 63
63 63 63
63 63 63
63 63 63
63 63 63
63 63 63
63 63 63
63 63 63
63 63 63
63 63 63
63 63 63
63 63 63
63 63 63
63 63 63
63 63 63
63 63 63
63 63 63
63 63 63
63 63 63
63 63 63
63 63 63
63 63 63
63 63 63
63 63 63
63 63 63
63 63 63
63 63 63
63 63 63
63 63 63
63 63 63
63 63 63
63 63 63
63 63 63
63 63 63
63 63 63
63 63 63
63 63 63
63 63 63
63 63 63
63 63 63
63 63 63
63 63 63
63 63 63
63 63 63
63 63 63
63 63 63
63 63 63
63 63 63
63 63 63
63 63 63
63 63 63
63 63 63
63 63 63
63 63 63
63 63 63
63 63 63
63 63 63
63 63 63
63 63 63
63 63 63
63 63 63
63 63 63
63 63 63
63 63 63
63 63 63
63 63 63
63 63 63
63 63 63
63 63 63
63 63 63
63 63 63
63 63 63
63 63 63
63 63 63
63 63 63
63 63 63
63 63 63
63 63 63
63 63 63
63 63 63
63 63 63
63 63 63
63 63 63
63 63 63
63 63 63
63 63 63
63 63 63
63 63 63
63 63 63
63 63 63
63 63 63
63 63 63
63 63 63
63 63 63
63 63 63
63 63 63
63 63 63
63 63 63
63 63 63
63 63 63
63 63 63
63 63 63
63 63 63
63 63 63
63 63 63
63 63 63
63 63 63
63 63 63
63 63 63
63 63 63
63 63 63
63 63 63
63 63 63
63 63 63
63 63 63
63 63 63
63 63 63
63 63 63
63 63 63
63 63 63
63 63 63
63 63 63
63 63 63
63 63 63
63 63 63
63 63 63
63 63 63
63 63 63
63 63 63
63 63 63
63 63 63
63 63 63
63 63 63
63 63 63
63 63 63
63 63 63
63 63 63
63 63 63
63 63 63
63 63 63
63 63 63
63 63 63
63 63 63
63 63 63
63 63 63
63 63 63
63 63 63
63 63 63
63 63 63
63 63 63
63 63 63
63 63 63
63 63 63
63 63 63
63 63 63
63 63 63
63 63 63
63 63 63
63 63 63
63 63 63
63 63 63
63 63 63
63 63 63
63 63 63
63 63 63
63 63 63
63 63 63
63 63 63
63 63 63
63 63 63
63 63 63
63 63 63
63 63 63
63 63 63
63 63 63
63 63 63
63 63 63
63 63 63
63 63 63
63 63 63
63 63 63
63 63 63
63 63 63
63 63 63
63 63 63
63 63 63
63 63 63
63 63 63
63 63 63
63 63 63
63 63 63
63 63 63
63 63 63
63 63 63
63 63 63
63 63 63
63 63 63
63 63 63
63 63 63
63 63 63
63 63 63
63 63 63
63 63 63
63 63 63
63 63 63
63 63 63
63 63 63
63 63 63
63 63 63
63 63 63
63 63 63
63 63 63
63 63 63
63 63 63
63 63 63
63 63 63
63 63 63
63 63 63
63 63 63
63 63 63
63 63 63
63 63 63
63 63 63
63 63 63
63 63 63
63 63 63
63 63 63
63 63 63
63 63 63
63 63 63
63 63 63
63 63 63
63 63 63
63 63 63
63 63 63
63 63 63
63 63 63
63 63 63
63 63 63
63 63 63
63 63 63
63 63 63
63 63 63
63 63 63
63 63 63
63 63 63
63 63 63
63 63 63
63 63 63
63 63 63
63 63 63
63 63 63
63 63 63
63 63 63
63 63 63
63 63 63
63 63 63
63 63 63
63 63 63
63 63 63
63 63 63
63 63 63
63 63 63
63 63 63
63 63 63
63 63 63
63 63 63
63 63 63
63 63 63
63 63 63
63 63 63
63 63 63
63 63 63
63 63 63
63 63 63
63 63 63
63 63 63
63 63 63
63 63 63
63 63 63
63 63 63
63 63 63
63 63 63
63 63 63
63 63 63
63 63 63
63 63 63
63 63 63
63 63 63
63 63 63
63 63 63
63 63 63
63 63 63
63 63 63
63 63 63
63 63 63
63 63 63
63 63 63
63 63 63
63 63 63
63 63 63
63 63 63
63 63 63
63 63 63
63 63 63
63 63 63
63 63 63
63 63 63
63 63 63
63 63 63
63 63 63
63 63 63
63 63 63
63 63 63
63 63 63
63 63 63
63 63 63
63 63 63
63 63 63
63 63 63
63 63 63
63 63 63
63 63 63
63 63 63
63 63 63
63 63 63
63 63 63
63 63 63
63 63 63
63 63 63
63 63 63
63 63 63
63 63 63
63 63 63
63 63 63
63 63 63
63 63 63
63 63 63
63 63 63
63 63 63
63 63 63
63 63 63
63 63 63
63 63 63
63 63 63
63 63 63
63 63 63
63 63 63
63 63 63
63 63 63
63 63 63
63 63 63
63 63 63
63 63 63
63 63 63
63 63 63
63 63 63
63 63 63
63 63 63
63 63 63
63 63 63
63 63 63
63 63 63
63 63 63
63 63 63
63 63 63
63 63 63
63 63 63
63 63 63
63 63 63
63 63 63
63 63 63
63 63 63
63 63 63
63 63 63
63 63 63
63 63 63
63 63 63
63 63 63
63 63 63
63 63 63
63 63 63
63 63 63
63 63 63
63 63 63
63 63 63
63 63 63
63 63 63
63 63 63
63 63 63
63 63 63
63 63 63
63 63 63
63 63 63
63 63 63
63 63 63
63 63 63
63 63 63
63 63 63
63 63 63
63 63 63
63 63 63
63 63 63
63 63 63
63 63 63
63 63 63
63 63 63
63 63 63
63 63 63
63 63 63
63 63 63
63 63 63
63 63 63
63 63 63
63 63 63
63 63 63
63 63 63
63 63 63
63 63 63
63 63 63
63 63 63
63 63 63
63 63 63
63 63 63
63 63 63
63 63 63
63 63 63
63 63 63
63 63 63
63 63 63
63 63 63
63 63 63
63 63 63
63 63 63
63 63 63
63 63 63
63 63 63
63 63 63
63 63 63
63 63 63
63 63 63
63 63 63
63 63 63
63 63 63
63 63 63
63 63 63
63 63 63
63 63 63
63 63 63
63 63 63
63 63 63
63 63 63
63 63 63
63 63 63
63 63 63
63 63 63
63 63 63
63 63 63
63 63 63
63 63 63
63 63 63
63 63 63
63 63 63
63 63 63
63 63 63
63 63 63
63 63 63
63 63 63
63 63 63
63 63 63
63 63 63
63 63 63
63 63 63
63 63 63
63 63 63
63 63 63
63 63 63
63 63 63
63 63 63
63 63 63
63 63 63
63 63 63
63 63 63
63 63 63
63 63 63
63 63 63
63 63 63
63 63 63
63 63 63
63 63 63
63 63 63
63 63 63
63 63 63
63 63 63
63 63 63
63 63 63
63 63 63
63 63 63
63 63 63
63 63 63
63 63 63
63 63 63
63 63 63
63 63 63
63 63 63
63 63 63
63 63 63
63 63 63
63 63 63
63 63 63
63 63 63
63 63 63
63 63 63
63 63 63
63 63 63
63 63 63
63 63 63
63 63 63
63 63 63
63 63 63
63 63 63
63 63 63
63 63 63
63 63 63
63 63 63
63 63 63
63 63 63
63 63 63
63 63 63
63 63 63
63 63 63
63 63 63
63 63 63
63 63 63
63 63 63
63 63 63
63 63 63
63 63 63
63 63 63
63 63 63
63 63 63
63 63 63
63 63 63
63 63 63
63 63 63
63 63 63
63 63 63
63 63 63
63 63 63
63 63 63
63 63 63
63 63 63
63 63 63
63 63 63
63 63 63
63 63 63
63 63 63
63 63 63
63 63 63
63 63 63
63 63 63
63 63 63
63 63 63
63 63 63
63 63 63
63 63 63
63 63 63
63 63 63
63 63 63
63 63 63
63 63 63
63 63 63
63 63 63
63 63 63
63 63 63
63 63 63
63 63 63
63 63 63
63 63 63
63 63 63
63 63 63
63 63 63
63 63 63
63 63 63
63 63 63
63 63 63
63 63 63
63 63 63
63 63 63
63 63 63
63 63 63
63 63 63
63 63 63
63 63 63
63 63 63
63 63 63
63 63 63
63 63 63
63 63 63
63 63 63
63 63 63
63 63 63
63 63 63
63 63 63
63 63 63
63 63 63
63 63 63
63 63 63
63 63 63
63 63 63
63 63 63
63 63 63
63 63 63
63 63 63
63 63 63
63 63 63
63 63 63
63 63 63
63 63 63
63 63 63
63 63 63
63 63 63
63 63 63
63 63 63
63 63 63
63 63 63
63 63 63
63 63 63
63 63 63
63 63 63
63 63 63
63 63 63
63 63 63
63 63 63
63 63 63
63 63 63
63 63 63
63 63 63
63 63 63
63 63 63
63 63 63
63 63 63
63 63 63
63 63 63
63 63 63
63 63 63
63 63 63
63 63 63
63 63 63
63 63 63
63 63 63
63 63 63
63 63 63
63 63 63
63 63 63
63 63 63
63 63 63
63 63 63
63 63 63
63 63 63
63 63 63
63 63 63
63 63 63
63 63 63
63 63 63
63 63 63
63 63 63
63 63 63
63 63 63
63 63 63
63 63 63
63 63 63
63 63 63
63 63 63
63 63 63
63 63 63
63 63 63
63 63 63
63 63 63
63 63 63
63 63 63
63 63 63
63 63 63
63 63 63
63 63 63
63 63 63
63 63 63
63 63 63
63 63 63
63 63 63
63 63 63
63 63 63
63 63 63
63 63 63
63 63 63
63 63 63
63 63 63
63 63 63
63 63 63
63 63 63
63 63 63
63 63 63
63 63 63
63 63 63
63 63 63
63 63 63
63 63 63
63 63 63
63 63 63
63 63 63
63 63 63
63 63 63
63 63 63
63 63 63
63 63 63
63 63 63
63 63 63
63 63 63
63 63 63
63 63 63
63 63 63
63 63 63
63 63 63
63 63 63
63 63 63
63 63 63
63 63 63
63 63 63
63 63 63
63 63 63
63 63 63
63 63 63
63 63 63
63 63 63
63 63 63
63 63 63
63 63 63
63 63 63
63 63 63
63 63 63
63 63 63
63 63 63
63 63 63
63 63 63
63 63 63
63 63 63
63 63 63
63 63 63
63 63 63
63 63 63
63 63 63
63 63 63
63 63 63
63 63 63
63 63 63
63 63 63
63 63 63
63 63 63
63 63 63
63 63 63
63 63 63
63 63 63
63 63 63
63 63 63
63 63 63
63 63 63
63 63 63
63 63 63
63 63 63
63 63 63
63 63 63
63 63 63
63 63 63
63 63 63
63 63 63
63 63 63
63 63 63
63 63 63
63 63 63
63 63 63
63 63 63
63 63 63
63 63 63
63 63 63
63 63 63
63 63 63
63 63 63
63 63 63
63 63 63
63 63 63
63 63 63
63 63 63
63 63 63
63 63 63
63 63 63
63 63 63
63 63 63
63 63 63
63 63 63
63 63 63
63 63 63
63 63 63
63 63 63
63 63 63
63 63 63
63 63 63
63 63 63
63 63 63
63 63 63
63 63 63
63 63 63
63 63 63
63 63 63
63 63 63
63 63 63
63 63 63
63 63 63
63 63 63
63 63 63
63 63 63
63 63 63
63 63 63
63 63 63
63 63 63
63 63 63
63 63 63
63 63 63
63 63 63
63 63 63
63 63 63
63 63 63
63 63 63
63 63 63
63 63 63
63 63 63
63 63 63
63 63 63
63 63 63
63 63 63
63 63 63
63 63 63
63 63 63
63 63 63
63 63 63
63 63 63
63 63 63
63 63 63
63 63 63
63 63 63
63 63 63
63 63 63
63 63 63
63 63 63
63 63 63
63 63 63
63 63 63
63 63 63
63 63 63
63 63 63
63 63 63
63 63 63
63 63 63
63 63 63
63 63 63
63 63 63
63 63 63
63 63 63
63 63 63
63 63 63
63 63 63
63 63 63
63 63 63
63 63 63
63 63 63
63 63 63
63 63 63
63 63 63
63 63 63
63 63 63
63 63 63
63 63 63
63 63 63
63 63 63
63 63 63
63 63 63
63 63 63
63 63 63
63 63 63
63 63 63
63 63 63
63 63 63
63 63 63
63 63 63
63 63 63
63 63 63
63 63 63
63 63 63
63 63 63
63 63 63
63 63 63
63 63 63
63 63 63
63 63 63
63 63 63
63 63 63
63 63 63
63 63 63
63 63 63
63 63 63
63 63 63
63 63 63
63 63 63
63 63 63
63 63 63
63 63 63
63 63 63
63 63 63
63 63 63
63 63 63
63 63 63
63 63 63
63 63 63
63 63 63
63 63 63
63 63 63
63 63 63
63 63 63
63 63 63
63 63 63
63 63 63
63 63 63
63 63 63
63 63 63
63 63 63
63 63 63
63 63 63
63 63 63
63 63 63
63 63 63
63 63 63
63 63 63
63 63 63
63 63 63
63 63 63
63 63 63
63 63 63
63 63 63
63 63 63
63 63 63
63 63 63
63 63 63
63 63 63
63 63 63
63 63 63
63 63 63
63 63 63
63 63 63
63 63 63
63 63 63
63 63 63
63 63 63
63 63 63
63 63 63
63 63 63
63 63 63
63 63 63
63 63 63
63 63 63
63 63 63
63 63 63
63 63 63
63 63 63
63 63 63
63 63 63
63 63 63
63 63 63
63 63 63
63 63 63
63 63 63
63 63 63
63 63 63
63 63 63
63 63 63
63 63 63
63 63 63
63 63 63
63 63 63
63 63 63
63 63 63
63 63 63
63 63 63
63 63 63
63 63 63
63 63 63
63 63 63
63 63 63
63 63 63
63 63 63
63 63 63
63 63 63
63 63 63
63 63 63
63 63 63
63 63 63
63 63 63
63 63 63
63 63 63
63 63 63
63 63 63
63 63 63
63 63 63
63 63 63
63 63 63
63 63 63
63 63 63
63 63 63
63 63 63
63 63 63
63 63 63
63 63 63
63 63 63
63 63 63
63 63 63
63 63 63
63 63 63
63 63 63
63 63 63
63 63 63
63 63 63
63 63 63
63 63 63
63 63 63
63 63 63
63 63 63
63 63 63
63 63 63
63 63 63
63 63 63
63 63 63
63 63 63
63 63 63
63 63 63
63 63 63
63 63 63
63 63 63
63 63 63
63 63 63
63 63 63
63 63 63
63 63 63
63 63 63
63 63 63
63 63 63
63 63 63
63 63 63
63 63 63
63 63 63
63 63 63
63 63 63
63 63 63
63 63 63
63 63 63
63 63 63
63 63 63
63 63 63
63 63 63
63 63 63
63 63 63
63 63 63
63 63 63
63 63 63
63 63 63
63 63 63
63 63 63
63 63 63
63 63 63
63 63 63
63 63 63
63 63 63
63 63 63
63 63 63
63 63 63
63 63 63
63 63 63
63 63 63
63 63 63
63 63 63
63 63 63
63 63 63
63 63 63
63 63 63
63 63 63
63 63 63
63 63 63
63 63 63
63 63 63
63 63 63
63 63 63
63 63 63
63 63 63
63 63 63
63 63 63
63 63 63
63 63 63
63 63 63
63 63 63
63 63 63
63 63 63
63 63 63
63 63 63
63 63 63
63 63 63
63 63 63
63 63 63
63 63 63
63 63 63
63 63 63
63 63 63
63 63 63
63 63 63
63 63 63
63 63 63
63 63 63
63 63 63
63 63 63
63 63 63
63 63 63
63 63 63
63 63 63
63 63 63
63 63 63
63 63 63
63 63 63
63 63 63
63 63 63
63 63 63
63 63 63
63 63 63
63 63 63
63 63 63
63 63 63
63 63 63
63 63 63
63 63 63
63 63 63
63 63 63
63 63 63
63 63 63
63 63 63
63 63 63
63 63 63
63 63 63
63 63 63
63 63 63
63 63 63
63 63 63
63 63 63
63 63 63
63 63 63
63 63 63
63 63 63
63 63 63
63 63 63
63 63 63
63 63 63
63 63 63
63 63 63
63 63 63
63 63 63
63 63 63
63 63 63
63 63 63
63 63 63
63 63 63
63 63 63
63 63 63
63 63 63
63 63 63
63 63 63
63 63 63
63 63 63
63 63 63
63 63 63
63 63 63
63 63 63
63 63 63
63 63 63
63 63 63
63 63 63
63 63 63
63 63 63
63 63 63
63 63 63
63 63 63
63 63 63
63 63 63
63 63 63
63 63 63
63 63 63
63 63 63
63 63 63
63 63 63
63 63 63
63 63 63
63 63 63
63 63 63
63 63 63
63 63 63
63 63 63
63 63 63
63 63 63
63 63 63
63 63 63
63 63 63
63 63 63
63 63 63
63 63 63
63 63 63
63 63 63
63 63 63
63 63 63
63 63 63
63 63 63
63 63 63
63 63 63
63 63 63
63 63 63
63 63 63
63 63 63
63 63 63
63 63 63
63 63 63
63 63 63
63 63 63
63 63 63
63 63 63
63 63 63
63 63 63
63 63 63
63 63 63
63 63 63
63 63 63
63 63 63
63 63 63
63 63 63
63 63 63
63 63 63
63 63 63
63 63 63
63 63 63
63 63 63
63 63 63
63 63 63
63 63 63
63 63 63
63 63 63
63 63 63
63 63 63
63 63 63
63 63 63
63 63 63
63 63 63
63 63 63
63 63 63
63 63 63
63 63 63
63 63 63
63 63 63
63 63 63
63 63 63
63 63 63
63 63 63
63 63 63
63 63 63
63 63 63
63 63 63
63 63 63
63 63 63
63 63 63
63 63 63
63 63 63
63 63 63
63 63 63
63 63 63
63 63 63
63 63 63
63 63 63
63 63 63
63 63 63
63 63 63
63 63 63
63 63 63
63 63 63
63 63 63
63 63 63
63 63 63
63 63 63
63 63 63
63 63 63
63 63 63
63 63 63
63 63 63
63 63 63
63 63 63
63 63 63
63 63 63
63 63 63
63 63 63
63 63 63
63 63 63
63 63 63
63 63 63
63 63 63
63 63 63
63 63 63
63 63 63
63 63 63
63 63 63
63 63 63
63 63 63
63 63 63
63 63 63
63 63 63
63 63 63
63 63 63
63 63 63
63 63 63
63 63 63
63 63 63
63 63 63
63 63 63
63 63 63
63 63 63
63 63 63
63 63 63
63 63 63
63 63 63
63 63 63
63 63 63
63 63 63
63 63 63
63 63 63
63 63 63
63 63 63
63 63 63
63 63 63
63 63 63
63 63 63
63 63 63
63 63 63
63 63 63
63 63 63
63 63 63
63 63 63
63 63 63
63 63 63
63 63 63
63 63 63
63 63 63
63 63 63
63 63 63
63 63 63
63 63 63
63 63 63
63 63 63
63 63 63
63 63 63
63 63 63
63 63 63
63 63 63
63 63 63
63 63 63
63 63 63
63 63 63
63 63 63
63 63 63
63 63 63
63 63 63
63 63 63
63 63 63
63 63 63
63 63 63
63 63 63
63 63 63
63 63 63
63 63 63
63 63 63
63 63 63
63 63 63
63 63 63
63 63 63
63 63 63
63 63 63
63 63 63
63 63 63
63 63 63
63 63 63
63 63 63
63 63 63
63 63 63
63 63 63
63 63 63
63 63 63
63 63 63
63 63 63
63 63 63
63 63 63
63 63 63
63 63 63
63 63 63
63 63 63
63 63 63
63 63 63
63 63 63
63 63 63
63 63 63
63 63 63
63 63 63
63 63 63
63 63 63
63 63 63
63 63 63
63 63 63
63 63 63
63 63 63
63 63 63
63 63 63
63 63 63
63 63 63
63 63 63
63 63 63
63 63 63
63 63 63
63 63 63
63 63 63
63 63 63
63 63 63
63 63 63
63 63 63
63 63 63
63 63 63
63 63 63
63 63 63
63 63 63
63 63 63
63 63 63
63 63 63
63 63 63
63 63 63
63 63 63
63 63 63
63 63 63
63 63 63
63 63 63
63 63 63
63 63 63
63 63 63
63 63 63
63 63 63
63 63 63
63 63 63
63 63 63
63 63 63
63 63 63
63 63 63
63 63 63
63 63 63
63 63 63
63 63 63
63 63 63
63 63 63
63 63 63
63 63 63
63 63 63
63 63 63
63 63 63
63 63 63
63 63 63
63 63 63
63 63 63
63 63 63
63 63 63
63 63 63
63 63 63
63 63 63
63 63 63
63 63 63
63 63 63
63 63 63
63 63 63
63 63 63
63 63 63
63 63 63
63 63 63
63 63 63
63 63 63
63 63 63
63 63 63
63 63 63
63 63 63
63 63 63
63 63 63
63 63 63
63 63 63
63 63 63
63 63 63
63 63 63
63 63 63
63 63 63
63 63 63
63 63 63
63 63 63
63 63 63
63 63 63
63 63 63
63 63 63
63 63 63
63 63 63
63 63 63
63 63 63
63 63 63
63 63 63
63 63 63
63 63 63
63 63 63
63 63 63
63 63 63
63 63 63
63 63 63
63 63 63
63 63 63
63 63 63
63 63 63
63 63 63
63 63 63
63 63 63
63 63 63
63 63 63
63 63 63
63 63 63
63 63 63
63 63 63
63 63 63
63 63 63
63 63 63
63 63 63
63 63 63
63 63 63
63 63 63
63 63 63
63 63 63
63 63 63
63 63 63
63 63 63
63 63 63
63 63 63
63 63 63
63 63 63
63 63 63
63 63 63
63 63 63
63 63 63
63 63 63
63 63 63
63 63 63
63 63 63
63 63 63
63 63 63
63 63 63
63 63 63
63 63 63
63 63 63
63 63 63
63 63 63
63 63 63
63 63 63
63 63 63
63 63 63
63 63 63
63 63 63
63 63 63
63 63 63
63 63 63
63 63 63
63 63 63
63 63 63
63 63 63
63 63 63
63 63 63
63 63 63
63 63 63
63 63 63
63 63 63
63 63 63
63 63 63
63 63 63
63 63 63
63 63 63
63 63 63
63 63 63
63 63 63
63 63 63
63 63 63
63 63 63
63 63 63
63 63 63
63 63 63
63 63 63
63 63 63
63 63 63
63 63 63
63 63 63
63 63 63
63 63 63
63 63 63
63 63 63
63 63 63
63 63 63
63 63 63
63 63 63
63 63 63
63 63 63
63 63 63
63 63 63
63 63 63
63 63 63
63 63 63
63 63 63
63 63 63
63 63 63
63 63 63
63 63 63
63 63 63
63 63 63
63 63 63
63 63 63
63 63 63
63 63 63
63 63 63
63 63 63
63 63 63
63 63 63
63 63 63
63 63 63
63 63 63
63 63 63
63 63 63
63 63 63
63 63 63
63 63 63
63 63 63
63 63 63
63 63 63
63 63 63
63 63 63
63 63 63
63 63 63
63 63 63
63 63 63
63 63 63
63 63 63
63 63 63
63 63 63
63 63 63
63 63 63
63 63 63
63 63 63
63 63 63
63 63 63
63 63 63
63 63 63
63 63 63
63 63 63
63 63 63
63 63 63
63 63 63
63 63 63
63 63 63
63 63 63
63 63 63
63 63 63
63 63 63
63 63 63
63 63 63
63 63 63
63 63 63
63 63 63
63 63 63
63 63 63
63 63 63
63 63 63
63 63 63
63 63 63
63 63 63
63 63 63
63 63 63
63 63 63
63 63 63
63 63 63
63 63 63
63 63 63
63 63 63
63 63 63
63 63 63
63 63 63
63 63 63
63 63 63
63 63 63
63 63 63
63 63 63
63 63 63
63 63 63
63 63 63
63 63 63
63 63 63
63 63 63
63 63 63
63 63 63
63 63 63
63 63 63
63 63 63
63 63 63
63 63 63
63 63 63
63 63 63
63 63 63
63 63 63
63 63 63
63 63 63
63 63 63
63 63 63
63 63 63
63 63 63
63 63 63
63 63 63
63 63 63
63 63 63
63 63 63
63 63 63
63 63 63
63 63 63
63 63 63
63 63 63
63 63 63
63 63 63
63 63 63
63 63 63
63 63 63
63 63 63
63 63 63
63 63 63
63 63 63
63 63 63
63 63 63
63 63 63
63 63 63
63 63 63
63 63 63
63 63 63
63 63 63
63 63 63
63 63 63
63 63 63
63 63 63
63 63 63
63 63 63
63 63 63
63 63 63
63 63 63
63 63 63
63 63 63
63 63 63
63 63 63
63 63 63
63 63 63
63 63 63
63 63 63
63 63 63
63 63 63
63 63 63
63 63 63
63 63 63
63 63 63
63 63 63
63 63 63
63 63 63
63 63 63
63 63 63
63 63 63
63 63 63
63 63 63
63 63 63
63 63 63
63 63 63
63 63 63
63 63 63
63 63 63
63 63 63
63 63 63
63 63 63
63 63 63
63 63 63
63 63 63
63 63 63
63 63 63
63 63 63
63 63 63
63 63 63
63 63 63
63 63 63
63 63 63
63 63 63
63 63 63
63 63 63
63 63 63
63 63 63
63 63 63
63 63 63
63 63 63
63 63 63
63 63 63
63 63 63
63 63 63
63 63 63
63 63 63
63 63 63
63 63 63
63 63 63
63 63 63
63 63 63
63 63 63
63 63 63
63 63 63
63 63 63
63 63 63
63 63 63
63 63 63
63 63 63
63 63 63
63 63 63
63 63 63
63 63 63
63 63 63
63 63 63
63 63 63
63 63 63
63 63 63
63 63 63
63 63 63
63 63 63
63 63 63
63 63 63
63 63 63
63 63 63
63 63 63
63 63 63
63 63 63
63 63 63
63 63 63
63 63 63
63 63 63
63 63 63
63 63 63
63 63 63
63 63 63
63 63 63
63 63 63
63 63 63
63 63 63
63 63 63
63 63 63
63 63 63
63 63 63
63 63 63
63 63 63
63 63 63
63 63 63
63 63 63
63 63 63
63 63 63
63 63 63
63 63 63
63 63 63
63 63 63
63 63 63
63 63 63
63 63 63
63 63 63
63 63 63
63 63 63
63 63 63
63 63 63
63 63 63
63 63 63
63 63 63
63 63 63
63 63 63
63 63 63
63 63 63
63 63 63
63 63 63
63 63 63
63 63 63
63 63 63
63 63 63
63 63 63
63 63 63
63 63 63
63 63 63
63 63 63
63 63 63
63 63 63
63 63 63
63 63 63
63 63 63
63 63 63
63 63 63
63 63 63
63 63 63
63 63 63
63 63 63
63 63 63
63 63 63
63 63 63
63 63 63
63 63 63
63 63 63
63 63 63
63 63 63
63 63 63
63 63 63
63 63 63
63 63 63
63 63 63
63 63 63
63 63 63
63 63 63
63 63 63
63 63 63
63 63 63
63 63 63
63 63 63
63 63 63
63 63 63
63 63 63
63 63 63
63 63 63
63 63 63
63 63 63
63 63 63
63 63 63
63 63 63
63 63 63
63 63 63
63 63 63
63 63 63
63 63 63
63 63 63
63 63 63
63 63 63
63 63 63
63 63 63
63 63 63
63 63 63
63 63 63
63 63 63
63 63 63
63 63 63
63 63 63
63 63 63
63 63 63
63 63 63
63 63 63
63 63 63
63 63 63
63 63 63
63 63 63
63 63 63
63 63 63
63 63 63
63 63 63
63 63 63
63 63 63
63 63 63
63 63 63
63 63 63
63 63 63
63 63 63
63 63 63
63 63 63
63 63 63
63 63 63
63 63 63
63 63 63
63 63 63
63 63 63
63 63 63
63 63 63
63 63 63
63 63 63
63 63 63
63 63 63
63 63 63
63 63 63
63 63 63
63 63 63
63 63 63
63 63 63
63 63 63
63 63 63
63 63 63
63 63 63
63 63 63
63 63 63
63 63 63
63 63 63
63 63 63
63 63 63
63 63 63
63 63 63
63 63 63
63 63 63
63 63 63
63 63 63
63 63 63
63 63 63
63 63 63
63 63 63
63 63 63
63 63 63
63 63 63
63 63 63
63 63 63
63 63 63
63 63 63
63 63 63
63 63 63
63 63 63
63 63 63
63 63 63
63 63 63
63 63 63
63 63 63
63 63 63
63 63 63
63 63 63
63 63 63
63 63 63
63 63 63
63 63 63
63 63 63
63 63 63
63 63 63
63 63 63
63 63 63
63 63 63
63 63 63
63 63 63
63 63 63
63 63 63
63 63 63
63 63 63
63 63 63
63 63 63
63 63 63
63 63 63
63 63 63
63 63 63
63 63 63
63 63 63
63 63 63
63 63 63
63 63 63
63 63 63
63 63 63
63 63 63
63 63 63
63 63 63
63 63 63
63 63 63
63 63 63
63 63 63
63 63 63
63 63 63
63 63 63
63 63 63
63 63 63
63 63 63
63 63 63
63 63 63
63 63 63
63 63 63
63 63 63
63 63 63
63 63 63
63 63 63
63 63 63
63 63 63
63 63 63
63 63 63
63 63 63
63 63 63
63 63 63
63 63 63
63 63 63
63 63 63
63 63 63
63 63 63
63 63 63
63 63 63
63 63 63
63 63 63
63 63 63
63 63 63
63 63 63
63 63 63
63 63 63
63 63 63
63 63 63
63 63 63
63 63 63
63 63 63
63 63 63
63 63 63
63 63 63
63 63 63
63 63 63
63 63 63
63 63 63
63 63 63
63 63 63
63 63 63
63 63 63
63 63 63
63 63 63
63 63 63
63 63 63
63 63 63
63 63 63
63 63 63
63 63 63
63 63 63
63 63 63
63 63 63
63 63 63
63 63 63
63 63 63
63 63 63
63 63 63
63 63 63
63 63 63
63 63 63
63 63 63
63 63 63
63 63 63
63 63 63
63 63 63
63 63 63
63 63 63
63 63 63
63 63 63
63 63 63
63 63 63
63 63 63
63 63 63
63 63 63
63 63 63
63 63 63
63 63 63
63 63 63
63 63 63
63 63 63
63 63 63
63 63 63
63 63 63
63 63 63
63 63 63
63 63 63
63 63 63
63 63 63
63 63 63
63 63 63
63 63 63
63 63 63
63 63 63
63 63 63
63 63 63
63 63 63
63 63 63
63 63 63
63 63 63
63 63 63
63 63 63
63 63 63
63 63 63
63 63 63
63 63 63
63 63 63
63 63 63
63 63 63
63 63 63
63 63 63
63 63 63
63 63 63
63 63 63
63 63 63
63 63 63
63 63 63
63 63 63
63 63 63
63 63 63
63 63 63
63 63 63
63 63 63
63 63 63
63 63 63
63 63 63
63 63 63
63 63 63
63 63 63
63 63 63
63 63 63
63 63 63
63 63 63
63 63 63
63 63 63
63 63 63
63 63 63
63 63 63
63 63 63
63 63 63
63 63 63
63 63 63
63 63 63
63 63 63
63 63 63
63 63 63
63 63 63
63 63 63
63 63 63
63 63 63
63 63 63
63 63 63
63 63 63
63 63 63
63 63 63
63 63 63
63 63 63
63 63 63
63 63 63
63 63 63
63 63 63
63 63 63
63 63 63
63 63 63
63 63 63
63 63 63
63 63 63
63 63 63
63 63 63
63 63 63
63 63 63
63 63 63
63 63 63
63 63 63
63 63 63
63 63 63
63 63 63
63 63 63
63 63 63
63 63 63
63 63 63
63 63 63
63 63 63
63 63 63
63 63 63
63 63 63
63 63 63
63 63 63
63 63 63
63 63 63
63 63 63
63 63 63
63 63 63
63 63 63
63 63 63
63 63 63
63 63 63
63 63 63
63 63 63
63 63 63
63 63 63
63 63 63
63 63 63
63 63 63
63 63 63
63 63 63
63 63 63
63 63 63
63 63 63
63 63 63
63 63 63
63 63 63
63 63 63
63 63 63
63 63 63
63 63 63
63 63 63
63 63 63
63 63 63
63 63 63
63 63 63
63 63 63
63 63 63
63 63 63
63 63 63
63 63 63
63 63 63
63 63 63
63 63 63
63 63 63
63 63 63
63 63 63
63 63 63
63 63 63
63 63 63
63 63 63
63 63 63
63 63 63
63 63 63
63 63 63
63 63 63
63 63 63
63 63 63
63 63 63
63 63 63
63 63 63
63 63 63
63 63 63
63 63 63
63 63 63
63 63 63
63 63 63
63 63 63
63 63 63
63 63 63
63 63 63
63 63 63
63 63 63
63 63 63
63 63 63
63 63 63
63 63 63
63 63 63
63 63 63
63 63 63
63 63 63
63 63 63
63 63 63
63 63 63
63 63 63
63 63 63
63 63 63
63 63 63
63 63 63
63 63 63
63 63 63
63 63 63
63 63 63
63 63 63
63 63 63
63 63 63
63 63 63
